(Exported by FreeCAD)
(Post Processor: grbl_post)
(Output Time:2023-12-29 19:47:02.376800)
(Begin preamble)
G17 G90
G21
(Begin operation: Fixture)
(Path: Fixture)
G54
(Finish operation: Fixture)
(Begin operation: TC: 1mm Endmill)
(Path: TC: 1mm Endmill)
(TC: 1mm Endmill)
(Begin toolchange)
( M6 T12 )
M3 S2000
(Finish operation: TC: 1mm Endmill)
(Begin operation: Profile)
(Path: Profile)
(Profile)
(Compensated Tool Path. Diameter: 1.0)
G0 Z5.000
G0 X8.413 Y-13.587
G0 Z3.000
G1 X8.413 Y-13.587 Z1.900 F10.000
G2 X8.877 Y-14.316 Z1.900 I-1.413 J-1.413 K0.000 F25.000
G2 X5.124 Y-15.687 Z1.900 I-1.877 J-0.684 K0.000 F25.000
G2 X8.413 Y-13.587 Z1.900 I1.876 J0.687 K0.000 F25.000
G1 X8.413 Y-13.587 Z1.800 F10.000
G2 X8.877 Y-14.316 Z1.800 I-1.413 J-1.413 K0.000 F25.000
G2 X5.124 Y-15.687 Z1.800 I-1.877 J-0.684 K0.000 F25.000
G2 X8.413 Y-13.587 Z1.800 I1.876 J0.687 K0.000 F25.000
G1 X8.413 Y-13.587 Z1.700 F10.000
G2 X8.877 Y-14.316 Z1.700 I-1.413 J-1.413 K0.000 F25.000
G2 X5.124 Y-15.687 Z1.700 I-1.877 J-0.684 K0.000 F25.000
G2 X8.413 Y-13.587 Z1.700 I1.876 J0.687 K0.000 F25.000
G1 X8.413 Y-13.587 Z1.600 F10.000
G2 X8.877 Y-14.316 Z1.600 I-1.413 J-1.413 K0.000 F25.000
G2 X5.124 Y-15.687 Z1.600 I-1.877 J-0.684 K0.000 F25.000
G2 X8.413 Y-13.587 Z1.600 I1.876 J0.687 K0.000 F25.000
G1 X8.413 Y-13.587 Z1.500 F10.000
G2 X8.877 Y-14.316 Z1.500 I-1.413 J-1.413 K0.000 F25.000
G2 X5.124 Y-15.687 Z1.500 I-1.877 J-0.684 K0.000 F25.000
G2 X8.413 Y-13.587 Z1.500 I1.876 J0.687 K0.000 F25.000
G1 X8.413 Y-13.587 Z1.400 F10.000
G2 X8.877 Y-14.316 Z1.400 I-1.413 J-1.413 K0.000 F25.000
G2 X5.124 Y-15.687 Z1.400 I-1.877 J-0.684 K0.000 F25.000
G2 X8.413 Y-13.587 Z1.400 I1.876 J0.687 K0.000 F25.000
G1 X8.413 Y-13.587 Z1.300 F10.000
G2 X8.877 Y-14.316 Z1.300 I-1.413 J-1.413 K0.000 F25.000
G2 X5.124 Y-15.687 Z1.300 I-1.877 J-0.684 K0.000 F25.000
G2 X8.413 Y-13.587 Z1.300 I1.876 J0.687 K0.000 F25.000
G1 X8.413 Y-13.587 Z1.200 F10.000
G2 X8.877 Y-14.316 Z1.200 I-1.413 J-1.413 K0.000 F25.000
G2 X5.124 Y-15.687 Z1.200 I-1.877 J-0.684 K0.000 F25.000
G2 X8.413 Y-13.587 Z1.200 I1.876 J0.687 K0.000 F25.000
G1 X8.413 Y-13.587 Z1.100 F10.000
G2 X8.877 Y-14.316 Z1.100 I-1.413 J-1.413 K0.000 F25.000
G2 X5.124 Y-15.687 Z1.100 I-1.877 J-0.684 K0.000 F25.000
G2 X8.413 Y-13.587 Z1.100 I1.876 J0.687 K0.000 F25.000
G1 X8.413 Y-13.587 Z1.000 F10.000
G2 X8.877 Y-14.316 Z1.000 I-1.413 J-1.413 K0.000 F25.000
G2 X5.124 Y-15.687 Z1.000 I-1.877 J-0.684 K0.000 F25.000
G2 X8.413 Y-13.587 Z1.000 I1.876 J0.687 K0.000 F25.000
G1 X8.413 Y-13.587 Z0.900 F10.000
G2 X8.877 Y-14.316 Z0.900 I-1.413 J-1.413 K0.000 F25.000
G2 X5.124 Y-15.687 Z0.900 I-1.877 J-0.684 K0.000 F25.000
G2 X8.413 Y-13.587 Z0.900 I1.876 J0.687 K0.000 F25.000
G1 X8.413 Y-13.587 Z0.800 F10.000
G2 X8.877 Y-14.316 Z0.800 I-1.413 J-1.413 K0.000 F25.000
G2 X5.124 Y-15.687 Z0.800 I-1.877 J-0.684 K0.000 F25.000
G2 X8.413 Y-13.587 Z0.800 I1.876 J0.687 K0.000 F25.000
G1 X8.413 Y-13.587 Z0.700 F10.000
G2 X8.877 Y-14.316 Z0.700 I-1.413 J-1.413 K0.000 F25.000
G2 X5.124 Y-15.687 Z0.700 I-1.877 J-0.684 K0.000 F25.000
G2 X8.413 Y-13.587 Z0.700 I1.876 J0.687 K0.000 F25.000
G1 X8.413 Y-13.587 Z0.600 F10.000
G2 X8.877 Y-14.316 Z0.600 I-1.413 J-1.413 K0.000 F25.000
G2 X5.124 Y-15.687 Z0.600 I-1.877 J-0.684 K0.000 F25.000
G2 X8.413 Y-13.587 Z0.600 I1.876 J0.687 K0.000 F25.000
G1 X8.413 Y-13.587 Z0.500 F10.000
G2 X8.877 Y-14.316 Z0.500 I-1.413 J-1.413 K0.000 F25.000
G2 X5.124 Y-15.687 Z0.500 I-1.877 J-0.684 K0.000 F25.000
G2 X8.413 Y-13.587 Z0.500 I1.876 J0.687 K0.000 F25.000
G1 X8.413 Y-13.587 Z0.400 F10.000
G2 X8.877 Y-14.316 Z0.400 I-1.413 J-1.413 K0.000 F25.000
G2 X5.124 Y-15.687 Z0.400 I-1.877 J-0.684 K0.000 F25.000
G2 X8.413 Y-13.587 Z0.400 I1.876 J0.687 K0.000 F25.000
G1 X8.413 Y-13.587 Z0.300 F10.000
G2 X8.877 Y-14.316 Z0.300 I-1.413 J-1.413 K0.000 F25.000
G2 X5.124 Y-15.687 Z0.300 I-1.877 J-0.684 K0.000 F25.000
G2 X8.413 Y-13.587 Z0.300 I1.876 J0.687 K0.000 F25.000
G1 X8.413 Y-13.587 Z0.200 F10.000
G2 X8.877 Y-14.316 Z0.200 I-1.413 J-1.413 K0.000 F25.000
G2 X5.124 Y-15.687 Z0.200 I-1.877 J-0.684 K0.000 F25.000
G2 X8.413 Y-13.587 Z0.200 I1.876 J0.687 K0.000 F25.000
G1 X8.413 Y-13.587 Z0.100 F10.000
G2 X8.877 Y-14.316 Z0.100 I-1.413 J-1.413 K0.000 F25.000
G2 X5.124 Y-15.687 Z0.100 I-1.877 J-0.684 K0.000 F25.000
G2 X8.413 Y-13.587 Z0.100 I1.876 J0.687 K0.000 F25.000
G1 X8.413 Y-13.587 Z0.000 F10.000
G2 X8.877 Y-14.316 Z0.000 I-1.413 J-1.413 K0.000 F25.000
G2 X5.124 Y-15.687 Z0.000 I-1.877 J-0.684 K0.000 F25.000
G2 X8.413 Y-13.587 Z0.000 I1.876 J0.687 K0.000 F25.000
G1 X8.413 Y-13.587 Z-0.100 F10.000
G2 X8.877 Y-14.316 Z-0.100 I-1.413 J-1.413 K0.000 F25.000
G2 X5.124 Y-15.687 Z-0.100 I-1.877 J-0.684 K0.000 F25.000
G2 X8.413 Y-13.587 Z-0.100 I1.876 J0.687 K0.000 F25.000
G1 X8.413 Y-13.587 Z-0.200 F10.000
G2 X8.877 Y-14.316 Z-0.200 I-1.413 J-1.413 K0.000 F25.000
G2 X5.124 Y-15.687 Z-0.200 I-1.877 J-0.684 K0.000 F25.000
G2 X8.413 Y-13.587 Z-0.200 I1.876 J0.687 K0.000 F25.000
G0 Z5.000
G0 Z5.000
G0 X8.413 Y-13.587
G0 X34.529 Y-5.155
G0 X34.529 Y-5.155 Z3.000
G1 X34.529 Y-5.155 Z1.900 F10.000
G2 X34.970 Y-4.504 Z1.900 I0.475 J0.153 K0.000 F25.000
G1 X44.965 Y-4.500 Z1.900 F25.000
G2 X45.030 Y-5.496 Z1.900 I0.030 J-0.498 K0.000 F25.000
G1 X35.035 Y-5.500 Z1.900 F25.000
G2 X34.529 Y-5.155 Z1.900 I-0.030 J0.498 K0.000 F25.000
G1 X34.529 Y-5.155 Z1.800 F10.000
G2 X34.970 Y-4.504 Z1.800 I0.475 J0.153 K0.000 F25.000
G1 X44.965 Y-4.500 Z1.800 F25.000
G2 X45.030 Y-5.496 Z1.800 I0.030 J-0.498 K0.000 F25.000
G1 X35.035 Y-5.500 Z1.800 F25.000
G2 X34.529 Y-5.155 Z1.800 I-0.030 J0.498 K0.000 F25.000
G1 X34.529 Y-5.155 Z1.700 F10.000
G2 X34.970 Y-4.504 Z1.700 I0.475 J0.153 K0.000 F25.000
G1 X44.965 Y-4.500 Z1.700 F25.000
G2 X45.030 Y-5.496 Z1.700 I0.030 J-0.498 K0.000 F25.000
G1 X35.035 Y-5.500 Z1.700 F25.000
G2 X34.529 Y-5.155 Z1.700 I-0.030 J0.498 K0.000 F25.000
G1 X34.529 Y-5.155 Z1.600 F10.000
G2 X34.970 Y-4.504 Z1.600 I0.475 J0.153 K0.000 F25.000
G1 X44.965 Y-4.500 Z1.600 F25.000
G2 X45.030 Y-5.496 Z1.600 I0.030 J-0.498 K0.000 F25.000
G1 X35.035 Y-5.500 Z1.600 F25.000
G2 X34.529 Y-5.155 Z1.600 I-0.030 J0.498 K0.000 F25.000
G1 X34.529 Y-5.155 Z1.500 F10.000
G2 X34.970 Y-4.504 Z1.500 I0.475 J0.153 K0.000 F25.000
G1 X44.965 Y-4.500 Z1.500 F25.000
G2 X45.030 Y-5.496 Z1.500 I0.030 J-0.498 K0.000 F25.000
G1 X35.035 Y-5.500 Z1.500 F25.000
G2 X34.529 Y-5.155 Z1.500 I-0.030 J0.498 K0.000 F25.000
G1 X34.529 Y-5.155 Z1.400 F10.000
G2 X34.970 Y-4.504 Z1.400 I0.475 J0.153 K0.000 F25.000
G1 X44.965 Y-4.500 Z1.400 F25.000
G2 X45.030 Y-5.496 Z1.400 I0.030 J-0.498 K0.000 F25.000
G1 X35.035 Y-5.500 Z1.400 F25.000
G2 X34.529 Y-5.155 Z1.400 I-0.030 J0.498 K0.000 F25.000
G1 X34.529 Y-5.155 Z1.300 F10.000
G2 X34.970 Y-4.504 Z1.300 I0.475 J0.153 K0.000 F25.000
G1 X44.965 Y-4.500 Z1.300 F25.000
G2 X45.030 Y-5.496 Z1.300 I0.030 J-0.498 K0.000 F25.000
G1 X35.035 Y-5.500 Z1.300 F25.000
G2 X34.529 Y-5.155 Z1.300 I-0.030 J0.498 K0.000 F25.000
G1 X34.529 Y-5.155 Z1.200 F10.000
G2 X34.970 Y-4.504 Z1.200 I0.475 J0.153 K0.000 F25.000
G1 X44.965 Y-4.500 Z1.200 F25.000
G2 X45.030 Y-5.496 Z1.200 I0.030 J-0.498 K0.000 F25.000
G1 X35.035 Y-5.500 Z1.200 F25.000
G2 X34.529 Y-5.155 Z1.200 I-0.030 J0.498 K0.000 F25.000
G1 X34.529 Y-5.155 Z1.100 F10.000
G2 X34.970 Y-4.504 Z1.100 I0.475 J0.153 K0.000 F25.000
G1 X44.965 Y-4.500 Z1.100 F25.000
G2 X45.030 Y-5.496 Z1.100 I0.030 J-0.498 K0.000 F25.000
G1 X35.035 Y-5.500 Z1.100 F25.000
G2 X34.529 Y-5.155 Z1.100 I-0.030 J0.498 K0.000 F25.000
G1 X34.529 Y-5.155 Z1.000 F10.000
G2 X34.970 Y-4.504 Z1.000 I0.475 J0.153 K0.000 F25.000
G1 X44.965 Y-4.500 Z1.000 F25.000
G2 X45.030 Y-5.496 Z1.000 I0.030 J-0.498 K0.000 F25.000
G1 X35.035 Y-5.500 Z1.000 F25.000
G2 X34.529 Y-5.155 Z1.000 I-0.030 J0.498 K0.000 F25.000
G1 X34.529 Y-5.155 Z0.900 F10.000
G2 X34.970 Y-4.504 Z0.900 I0.475 J0.153 K0.000 F25.000
G1 X44.965 Y-4.500 Z0.900 F25.000
G2 X45.030 Y-5.496 Z0.900 I0.030 J-0.498 K0.000 F25.000
G1 X35.035 Y-5.500 Z0.900 F25.000
G2 X34.529 Y-5.155 Z0.900 I-0.030 J0.498 K0.000 F25.000
G1 X34.529 Y-5.155 Z0.800 F10.000
G2 X34.970 Y-4.504 Z0.800 I0.475 J0.153 K0.000 F25.000
G1 X44.965 Y-4.500 Z0.800 F25.000
G2 X45.030 Y-5.496 Z0.800 I0.030 J-0.498 K0.000 F25.000
G1 X35.035 Y-5.500 Z0.800 F25.000
G2 X34.529 Y-5.155 Z0.800 I-0.030 J0.498 K0.000 F25.000
G1 X34.529 Y-5.155 Z0.700 F10.000
G2 X34.970 Y-4.504 Z0.700 I0.475 J0.153 K0.000 F25.000
G1 X44.965 Y-4.500 Z0.700 F25.000
G2 X45.030 Y-5.496 Z0.700 I0.030 J-0.498 K0.000 F25.000
G1 X35.035 Y-5.500 Z0.700 F25.000
G2 X34.529 Y-5.155 Z0.700 I-0.030 J0.498 K0.000 F25.000
G1 X34.529 Y-5.155 Z0.600 F10.000
G2 X34.970 Y-4.504 Z0.600 I0.475 J0.153 K0.000 F25.000
G1 X44.965 Y-4.500 Z0.600 F25.000
G2 X45.030 Y-5.496 Z0.600 I0.030 J-0.498 K0.000 F25.000
G1 X35.035 Y-5.500 Z0.600 F25.000
G2 X34.529 Y-5.155 Z0.600 I-0.030 J0.498 K0.000 F25.000
G1 X34.529 Y-5.155 Z0.500 F10.000
G2 X34.970 Y-4.504 Z0.500 I0.475 J0.153 K0.000 F25.000
G1 X44.965 Y-4.500 Z0.500 F25.000
G2 X45.030 Y-5.496 Z0.500 I0.030 J-0.498 K0.000 F25.000
G1 X35.035 Y-5.500 Z0.500 F25.000
G2 X34.529 Y-5.155 Z0.500 I-0.030 J0.498 K0.000 F25.000
G1 X34.529 Y-5.155 Z0.400 F10.000
G2 X34.970 Y-4.504 Z0.400 I0.475 J0.153 K0.000 F25.000
G1 X44.965 Y-4.500 Z0.400 F25.000
G2 X45.030 Y-5.496 Z0.400 I0.030 J-0.498 K0.000 F25.000
G1 X35.035 Y-5.500 Z0.400 F25.000
G2 X34.529 Y-5.155 Z0.400 I-0.030 J0.498 K0.000 F25.000
G1 X34.529 Y-5.155 Z0.300 F10.000
G2 X34.970 Y-4.504 Z0.300 I0.475 J0.153 K0.000 F25.000
G1 X44.965 Y-4.500 Z0.300 F25.000
G2 X45.030 Y-5.496 Z0.300 I0.030 J-0.498 K0.000 F25.000
G1 X35.035 Y-5.500 Z0.300 F25.000
G2 X34.529 Y-5.155 Z0.300 I-0.030 J0.498 K0.000 F25.000
G1 X34.529 Y-5.155 Z0.200 F10.000
G2 X34.970 Y-4.504 Z0.200 I0.475 J0.153 K0.000 F25.000
G1 X44.965 Y-4.500 Z0.200 F25.000
G2 X45.030 Y-5.496 Z0.200 I0.030 J-0.498 K0.000 F25.000
G1 X35.035 Y-5.500 Z0.200 F25.000
G2 X34.529 Y-5.155 Z0.200 I-0.030 J0.498 K0.000 F25.000
G1 X34.529 Y-5.155 Z0.100 F10.000
G2 X34.970 Y-4.504 Z0.100 I0.475 J0.153 K0.000 F25.000
G1 X44.965 Y-4.500 Z0.100 F25.000
G2 X45.030 Y-5.496 Z0.100 I0.030 J-0.498 K0.000 F25.000
G1 X35.035 Y-5.500 Z0.100 F25.000
G2 X34.529 Y-5.155 Z0.100 I-0.030 J0.498 K0.000 F25.000
G1 X34.529 Y-5.155 Z0.000 F10.000
G2 X34.970 Y-4.504 Z0.000 I0.475 J0.153 K0.000 F25.000
G1 X44.965 Y-4.500 Z0.000 F25.000
G2 X45.030 Y-5.496 Z0.000 I0.030 J-0.498 K0.000 F25.000
G1 X35.035 Y-5.500 Z0.000 F25.000
G2 X34.529 Y-5.155 Z0.000 I-0.030 J0.498 K0.000 F25.000
G1 X34.529 Y-5.155 Z-0.100 F10.000
G2 X34.970 Y-4.504 Z-0.100 I0.475 J0.153 K0.000 F25.000
G1 X44.965 Y-4.500 Z-0.100 F25.000
G2 X45.030 Y-5.496 Z-0.100 I0.030 J-0.498 K0.000 F25.000
G1 X35.035 Y-5.500 Z-0.100 F25.000
G2 X34.529 Y-5.155 Z-0.100 I-0.030 J0.498 K0.000 F25.000
G1 X34.529 Y-5.155 Z-0.200 F10.000
G2 X34.970 Y-4.504 Z-0.200 I0.475 J0.153 K0.000 F25.000
G1 X44.965 Y-4.500 Z-0.200 F25.000
G2 X45.030 Y-5.496 Z-0.200 I0.030 J-0.498 K0.000 F25.000
G1 X35.035 Y-5.500 Z-0.200 F25.000
G2 X34.529 Y-5.155 Z-0.200 I-0.030 J0.498 K0.000 F25.000
G0 Z5.000
G0 Z5.000
G0 X34.529 Y-5.155
G0 X34.970 Y-24.504
G0 X34.970 Y-24.504 Z3.000
G1 X34.970 Y-24.504 Z1.900 F10.000
G1 X44.965 Y-24.500 Z1.900 F25.000
G2 X45.030 Y-25.496 Z1.900 I0.030 J-0.498 K0.000 F25.000
G1 X35.035 Y-25.500 Z1.900 F25.000
G2 X34.970 Y-24.504 Z1.900 I-0.030 J0.498 K0.000 F25.000
G1 X34.970 Y-24.504 Z1.800 F10.000
G1 X44.965 Y-24.500 Z1.800 F25.000
G2 X45.030 Y-25.496 Z1.800 I0.030 J-0.498 K0.000 F25.000
G1 X35.035 Y-25.500 Z1.800 F25.000
G2 X34.970 Y-24.504 Z1.800 I-0.030 J0.498 K0.000 F25.000
G1 X34.970 Y-24.504 Z1.700 F10.000
G1 X44.965 Y-24.500 Z1.700 F25.000
G2 X45.030 Y-25.496 Z1.700 I0.030 J-0.498 K0.000 F25.000
G1 X35.035 Y-25.500 Z1.700 F25.000
G2 X34.970 Y-24.504 Z1.700 I-0.030 J0.498 K0.000 F25.000
G1 X34.970 Y-24.504 Z1.600 F10.000
G1 X44.965 Y-24.500 Z1.600 F25.000
G2 X45.030 Y-25.496 Z1.600 I0.030 J-0.498 K0.000 F25.000
G1 X35.035 Y-25.500 Z1.600 F25.000
G2 X34.970 Y-24.504 Z1.600 I-0.030 J0.498 K0.000 F25.000
G1 X34.970 Y-24.504 Z1.500 F10.000
G1 X44.965 Y-24.500 Z1.500 F25.000
G2 X45.030 Y-25.496 Z1.500 I0.030 J-0.498 K0.000 F25.000
G1 X35.035 Y-25.500 Z1.500 F25.000
G2 X34.970 Y-24.504 Z1.500 I-0.030 J0.498 K0.000 F25.000
G1 X34.970 Y-24.504 Z1.400 F10.000
G1 X44.965 Y-24.500 Z1.400 F25.000
G2 X45.030 Y-25.496 Z1.400 I0.030 J-0.498 K0.000 F25.000
G1 X35.035 Y-25.500 Z1.400 F25.000
G2 X34.970 Y-24.504 Z1.400 I-0.030 J0.498 K0.000 F25.000
G1 X34.970 Y-24.504 Z1.300 F10.000
G1 X44.965 Y-24.500 Z1.300 F25.000
G2 X45.030 Y-25.496 Z1.300 I0.030 J-0.498 K0.000 F25.000
G1 X35.035 Y-25.500 Z1.300 F25.000
G2 X34.970 Y-24.504 Z1.300 I-0.030 J0.498 K0.000 F25.000
G1 X34.970 Y-24.504 Z1.200 F10.000
G1 X44.965 Y-24.500 Z1.200 F25.000
G2 X45.030 Y-25.496 Z1.200 I0.030 J-0.498 K0.000 F25.000
G1 X35.035 Y-25.500 Z1.200 F25.000
G2 X34.970 Y-24.504 Z1.200 I-0.030 J0.498 K0.000 F25.000
G1 X34.970 Y-24.504 Z1.100 F10.000
G1 X44.965 Y-24.500 Z1.100 F25.000
G2 X45.030 Y-25.496 Z1.100 I0.030 J-0.498 K0.000 F25.000
G1 X35.035 Y-25.500 Z1.100 F25.000
G2 X34.970 Y-24.504 Z1.100 I-0.030 J0.498 K0.000 F25.000
G1 X34.970 Y-24.504 Z1.000 F10.000
G1 X44.965 Y-24.500 Z1.000 F25.000
G2 X45.030 Y-25.496 Z1.000 I0.030 J-0.498 K0.000 F25.000
G1 X35.035 Y-25.500 Z1.000 F25.000
G2 X34.970 Y-24.504 Z1.000 I-0.030 J0.498 K0.000 F25.000
G1 X34.970 Y-24.504 Z0.900 F10.000
G1 X44.965 Y-24.500 Z0.900 F25.000
G2 X45.030 Y-25.496 Z0.900 I0.030 J-0.498 K0.000 F25.000
G1 X35.035 Y-25.500 Z0.900 F25.000
G2 X34.970 Y-24.504 Z0.900 I-0.030 J0.498 K0.000 F25.000
G1 X34.970 Y-24.504 Z0.800 F10.000
G1 X44.965 Y-24.500 Z0.800 F25.000
G2 X45.030 Y-25.496 Z0.800 I0.030 J-0.498 K0.000 F25.000
G1 X35.035 Y-25.500 Z0.800 F25.000
G2 X34.970 Y-24.504 Z0.800 I-0.030 J0.498 K0.000 F25.000
G1 X34.970 Y-24.504 Z0.700 F10.000
G1 X44.965 Y-24.500 Z0.700 F25.000
G2 X45.030 Y-25.496 Z0.700 I0.030 J-0.498 K0.000 F25.000
G1 X35.035 Y-25.500 Z0.700 F25.000
G2 X34.970 Y-24.504 Z0.700 I-0.030 J0.498 K0.000 F25.000
G1 X34.970 Y-24.504 Z0.600 F10.000
G1 X44.965 Y-24.500 Z0.600 F25.000
G2 X45.030 Y-25.496 Z0.600 I0.030 J-0.498 K0.000 F25.000
G1 X35.035 Y-25.500 Z0.600 F25.000
G2 X34.970 Y-24.504 Z0.600 I-0.030 J0.498 K0.000 F25.000
G1 X34.970 Y-24.504 Z0.500 F10.000
G1 X44.965 Y-24.500 Z0.500 F25.000
G2 X45.030 Y-25.496 Z0.500 I0.030 J-0.498 K0.000 F25.000
G1 X35.035 Y-25.500 Z0.500 F25.000
G2 X34.970 Y-24.504 Z0.500 I-0.030 J0.498 K0.000 F25.000
G1 X34.970 Y-24.504 Z0.400 F10.000
G1 X44.965 Y-24.500 Z0.400 F25.000
G2 X45.030 Y-25.496 Z0.400 I0.030 J-0.498 K0.000 F25.000
G1 X35.035 Y-25.500 Z0.400 F25.000
G2 X34.970 Y-24.504 Z0.400 I-0.030 J0.498 K0.000 F25.000
G1 X34.970 Y-24.504 Z0.300 F10.000
G1 X44.965 Y-24.500 Z0.300 F25.000
G2 X45.030 Y-25.496 Z0.300 I0.030 J-0.498 K0.000 F25.000
G1 X35.035 Y-25.500 Z0.300 F25.000
G2 X34.970 Y-24.504 Z0.300 I-0.030 J0.498 K0.000 F25.000
G1 X34.970 Y-24.504 Z0.200 F10.000
G1 X44.965 Y-24.500 Z0.200 F25.000
G2 X45.030 Y-25.496 Z0.200 I0.030 J-0.498 K0.000 F25.000
G1 X35.035 Y-25.500 Z0.200 F25.000
G2 X34.970 Y-24.504 Z0.200 I-0.030 J0.498 K0.000 F25.000
G1 X34.970 Y-24.504 Z0.100 F10.000
G1 X44.965 Y-24.500 Z0.100 F25.000
G2 X45.030 Y-25.496 Z0.100 I0.030 J-0.498 K0.000 F25.000
G1 X35.035 Y-25.500 Z0.100 F25.000
G2 X34.970 Y-24.504 Z0.100 I-0.030 J0.498 K0.000 F25.000
G1 X34.970 Y-24.504 Z0.000 F10.000
G1 X44.965 Y-24.500 Z0.000 F25.000
G2 X45.030 Y-25.496 Z0.000 I0.030 J-0.498 K0.000 F25.000
G1 X35.035 Y-25.500 Z0.000 F25.000
G2 X34.970 Y-24.504 Z0.000 I-0.030 J0.498 K0.000 F25.000
G1 X34.970 Y-24.504 Z-0.100 F10.000
G1 X44.965 Y-24.500 Z-0.100 F25.000
G2 X45.030 Y-25.496 Z-0.100 I0.030 J-0.498 K0.000 F25.000
G1 X35.035 Y-25.500 Z-0.100 F25.000
G2 X34.970 Y-24.504 Z-0.100 I-0.030 J0.498 K0.000 F25.000
G1 X34.970 Y-24.504 Z-0.200 F10.000
G1 X44.965 Y-24.500 Z-0.200 F25.000
G2 X45.030 Y-25.496 Z-0.200 I0.030 J-0.498 K0.000 F25.000
G1 X35.035 Y-25.500 Z-0.200 F25.000
G2 X34.970 Y-24.504 Z-0.200 I-0.030 J0.498 K0.000 F25.000
G0 Z5.000
G0 Z5.000
G0 X34.970 Y-24.504
G0 X54.505 Y-24.989
G0 X54.505 Y-24.989 Z3.000
G1 X54.505 Y-24.989 Z1.900 F10.000
G2 X54.970 Y-24.504 Z1.900 I0.499 J-0.012 K0.000 F25.000
G1 X64.965 Y-24.500 Z1.900 F25.000
G2 X65.030 Y-25.496 Z1.900 I0.030 J-0.498 K0.000 F25.000
G1 X55.035 Y-25.500 Z1.900 F25.000
G2 X54.505 Y-24.989 Z1.900 I-0.030 J0.498 K0.000 F25.000
G1 X54.505 Y-24.989 Z1.800 F10.000
G2 X54.970 Y-24.504 Z1.800 I0.499 J-0.012 K0.000 F25.000
G1 X64.965 Y-24.500 Z1.800 F25.000
G2 X65.030 Y-25.496 Z1.800 I0.030 J-0.498 K0.000 F25.000
G1 X55.035 Y-25.500 Z1.800 F25.000
G2 X54.505 Y-24.989 Z1.800 I-0.030 J0.498 K0.000 F25.000
G1 X54.505 Y-24.989 Z1.700 F10.000
G2 X54.970 Y-24.504 Z1.700 I0.499 J-0.012 K0.000 F25.000
G1 X64.965 Y-24.500 Z1.700 F25.000
G2 X65.030 Y-25.496 Z1.700 I0.030 J-0.498 K0.000 F25.000
G1 X55.035 Y-25.500 Z1.700 F25.000
G2 X54.505 Y-24.989 Z1.700 I-0.030 J0.498 K0.000 F25.000
G1 X54.505 Y-24.989 Z1.600 F10.000
G2 X54.970 Y-24.504 Z1.600 I0.499 J-0.012 K0.000 F25.000
G1 X64.965 Y-24.500 Z1.600 F25.000
G2 X65.030 Y-25.496 Z1.600 I0.030 J-0.498 K0.000 F25.000
G1 X55.035 Y-25.500 Z1.600 F25.000
G2 X54.505 Y-24.989 Z1.600 I-0.030 J0.498 K0.000 F25.000
G1 X54.505 Y-24.989 Z1.500 F10.000
G2 X54.970 Y-24.504 Z1.500 I0.499 J-0.012 K0.000 F25.000
G1 X64.965 Y-24.500 Z1.500 F25.000
G2 X65.030 Y-25.496 Z1.500 I0.030 J-0.498 K0.000 F25.000
G1 X55.035 Y-25.500 Z1.500 F25.000
G2 X54.505 Y-24.989 Z1.500 I-0.030 J0.498 K0.000 F25.000
G1 X54.505 Y-24.989 Z1.400 F10.000
G2 X54.970 Y-24.504 Z1.400 I0.499 J-0.012 K0.000 F25.000
G1 X64.965 Y-24.500 Z1.400 F25.000
G2 X65.030 Y-25.496 Z1.400 I0.030 J-0.498 K0.000 F25.000
G1 X55.035 Y-25.500 Z1.400 F25.000
G2 X54.505 Y-24.989 Z1.400 I-0.030 J0.498 K0.000 F25.000
G1 X54.505 Y-24.989 Z1.300 F10.000
G2 X54.970 Y-24.504 Z1.300 I0.499 J-0.012 K0.000 F25.000
G1 X64.965 Y-24.500 Z1.300 F25.000
G2 X65.030 Y-25.496 Z1.300 I0.030 J-0.498 K0.000 F25.000
G1 X55.035 Y-25.500 Z1.300 F25.000
G2 X54.505 Y-24.989 Z1.300 I-0.030 J0.498 K0.000 F25.000
G1 X54.505 Y-24.989 Z1.200 F10.000
G2 X54.970 Y-24.504 Z1.200 I0.499 J-0.012 K0.000 F25.000
G1 X64.965 Y-24.500 Z1.200 F25.000
G2 X65.030 Y-25.496 Z1.200 I0.030 J-0.498 K0.000 F25.000
G1 X55.035 Y-25.500 Z1.200 F25.000
G2 X54.505 Y-24.989 Z1.200 I-0.030 J0.498 K0.000 F25.000
G1 X54.505 Y-24.989 Z1.100 F10.000
G2 X54.970 Y-24.504 Z1.100 I0.499 J-0.012 K0.000 F25.000
G1 X64.965 Y-24.500 Z1.100 F25.000
G2 X65.030 Y-25.496 Z1.100 I0.030 J-0.498 K0.000 F25.000
G1 X55.035 Y-25.500 Z1.100 F25.000
G2 X54.505 Y-24.989 Z1.100 I-0.030 J0.498 K0.000 F25.000
G1 X54.505 Y-24.989 Z1.000 F10.000
G2 X54.970 Y-24.504 Z1.000 I0.499 J-0.012 K0.000 F25.000
G1 X64.965 Y-24.500 Z1.000 F25.000
G2 X65.030 Y-25.496 Z1.000 I0.030 J-0.498 K0.000 F25.000
G1 X55.035 Y-25.500 Z1.000 F25.000
G2 X54.505 Y-24.989 Z1.000 I-0.030 J0.498 K0.000 F25.000
G1 X54.505 Y-24.989 Z0.900 F10.000
G2 X54.970 Y-24.504 Z0.900 I0.499 J-0.012 K0.000 F25.000
G1 X64.965 Y-24.500 Z0.900 F25.000
G2 X65.030 Y-25.496 Z0.900 I0.030 J-0.498 K0.000 F25.000
G1 X55.035 Y-25.500 Z0.900 F25.000
G2 X54.505 Y-24.989 Z0.900 I-0.030 J0.498 K0.000 F25.000
G1 X54.505 Y-24.989 Z0.800 F10.000
G2 X54.970 Y-24.504 Z0.800 I0.499 J-0.012 K0.000 F25.000
G1 X64.965 Y-24.500 Z0.800 F25.000
G2 X65.030 Y-25.496 Z0.800 I0.030 J-0.498 K0.000 F25.000
G1 X55.035 Y-25.500 Z0.800 F25.000
G2 X54.505 Y-24.989 Z0.800 I-0.030 J0.498 K0.000 F25.000
G1 X54.505 Y-24.989 Z0.700 F10.000
G2 X54.970 Y-24.504 Z0.700 I0.499 J-0.012 K0.000 F25.000
G1 X64.965 Y-24.500 Z0.700 F25.000
G2 X65.030 Y-25.496 Z0.700 I0.030 J-0.498 K0.000 F25.000
G1 X55.035 Y-25.500 Z0.700 F25.000
G2 X54.505 Y-24.989 Z0.700 I-0.030 J0.498 K0.000 F25.000
G1 X54.505 Y-24.989 Z0.600 F10.000
G2 X54.970 Y-24.504 Z0.600 I0.499 J-0.012 K0.000 F25.000
G1 X64.965 Y-24.500 Z0.600 F25.000
G2 X65.030 Y-25.496 Z0.600 I0.030 J-0.498 K0.000 F25.000
G1 X55.035 Y-25.500 Z0.600 F25.000
G2 X54.505 Y-24.989 Z0.600 I-0.030 J0.498 K0.000 F25.000
G1 X54.505 Y-24.989 Z0.500 F10.000
G2 X54.970 Y-24.504 Z0.500 I0.499 J-0.012 K0.000 F25.000
G1 X64.965 Y-24.500 Z0.500 F25.000
G2 X65.030 Y-25.496 Z0.500 I0.030 J-0.498 K0.000 F25.000
G1 X55.035 Y-25.500 Z0.500 F25.000
G2 X54.505 Y-24.989 Z0.500 I-0.030 J0.498 K0.000 F25.000
G1 X54.505 Y-24.989 Z0.400 F10.000
G2 X54.970 Y-24.504 Z0.400 I0.499 J-0.012 K0.000 F25.000
G1 X64.965 Y-24.500 Z0.400 F25.000
G2 X65.030 Y-25.496 Z0.400 I0.030 J-0.498 K0.000 F25.000
G1 X55.035 Y-25.500 Z0.400 F25.000
G2 X54.505 Y-24.989 Z0.400 I-0.030 J0.498 K0.000 F25.000
G1 X54.505 Y-24.989 Z0.300 F10.000
G2 X54.970 Y-24.504 Z0.300 I0.499 J-0.012 K0.000 F25.000
G1 X64.965 Y-24.500 Z0.300 F25.000
G2 X65.030 Y-25.496 Z0.300 I0.030 J-0.498 K0.000 F25.000
G1 X55.035 Y-25.500 Z0.300 F25.000
G2 X54.505 Y-24.989 Z0.300 I-0.030 J0.498 K0.000 F25.000
G1 X54.505 Y-24.989 Z0.200 F10.000
G2 X54.970 Y-24.504 Z0.200 I0.499 J-0.012 K0.000 F25.000
G1 X64.965 Y-24.500 Z0.200 F25.000
G2 X65.030 Y-25.496 Z0.200 I0.030 J-0.498 K0.000 F25.000
G1 X55.035 Y-25.500 Z0.200 F25.000
G2 X54.505 Y-24.989 Z0.200 I-0.030 J0.498 K0.000 F25.000
G1 X54.505 Y-24.989 Z0.100 F10.000
G2 X54.970 Y-24.504 Z0.100 I0.499 J-0.012 K0.000 F25.000
G1 X64.965 Y-24.500 Z0.100 F25.000
G2 X65.030 Y-25.496 Z0.100 I0.030 J-0.498 K0.000 F25.000
G1 X55.035 Y-25.500 Z0.100 F25.000
G2 X54.505 Y-24.989 Z0.100 I-0.030 J0.498 K0.000 F25.000
G1 X54.505 Y-24.989 Z0.000 F10.000
G2 X54.970 Y-24.504 Z0.000 I0.499 J-0.012 K0.000 F25.000
G1 X64.965 Y-24.500 Z0.000 F25.000
G2 X65.030 Y-25.496 Z0.000 I0.030 J-0.498 K0.000 F25.000
G1 X55.035 Y-25.500 Z0.000 F25.000
G2 X54.505 Y-24.989 Z0.000 I-0.030 J0.498 K0.000 F25.000
G1 X54.505 Y-24.989 Z-0.100 F10.000
G2 X54.970 Y-24.504 Z-0.100 I0.499 J-0.012 K0.000 F25.000
G1 X64.965 Y-24.500 Z-0.100 F25.000
G2 X65.030 Y-25.496 Z-0.100 I0.030 J-0.498 K0.000 F25.000
G1 X55.035 Y-25.500 Z-0.100 F25.000
G2 X54.505 Y-24.989 Z-0.100 I-0.030 J0.498 K0.000 F25.000
G1 X54.505 Y-24.989 Z-0.200 F10.000
G2 X54.970 Y-24.504 Z-0.200 I0.499 J-0.012 K0.000 F25.000
G1 X64.965 Y-24.500 Z-0.200 F25.000
G2 X65.030 Y-25.496 Z-0.200 I0.030 J-0.498 K0.000 F25.000
G1 X55.035 Y-25.500 Z-0.200 F25.000
G2 X54.505 Y-24.989 Z-0.200 I-0.030 J0.498 K0.000 F25.000
G0 Z5.000
G0 Z5.000
G0 X54.505 Y-24.989
G0 X54.992 Y-5.501
G0 X54.992 Y-5.501 Z3.000
G1 X54.992 Y-5.501 Z1.900 F10.000
G2 X54.970 Y-4.504 Z1.900 I0.012 J0.499 K0.000 F25.000
G1 X64.965 Y-4.500 Z1.900 F25.000
G2 X65.030 Y-5.496 Z1.900 I0.030 J-0.498 K0.000 F25.000
G1 X55.035 Y-5.500 Z1.900 F25.000
G2 X54.992 Y-5.501 Z1.900 I-0.030 J0.498 K0.000 F25.000
G1 X54.992 Y-5.501 Z1.800 F10.000
G2 X54.970 Y-4.504 Z1.800 I0.012 J0.499 K0.000 F25.000
G1 X64.965 Y-4.500 Z1.800 F25.000
G2 X65.030 Y-5.496 Z1.800 I0.030 J-0.498 K0.000 F25.000
G1 X55.035 Y-5.500 Z1.800 F25.000
G2 X54.992 Y-5.501 Z1.800 I-0.030 J0.498 K0.000 F25.000
G1 X54.992 Y-5.501 Z1.700 F10.000
G2 X54.970 Y-4.504 Z1.700 I0.012 J0.499 K0.000 F25.000
G1 X64.965 Y-4.500 Z1.700 F25.000
G2 X65.030 Y-5.496 Z1.700 I0.030 J-0.498 K0.000 F25.000
G1 X55.035 Y-5.500 Z1.700 F25.000
G2 X54.992 Y-5.501 Z1.700 I-0.030 J0.498 K0.000 F25.000
G1 X54.992 Y-5.501 Z1.600 F10.000
G2 X54.970 Y-4.504 Z1.600 I0.012 J0.499 K0.000 F25.000
G1 X64.965 Y-4.500 Z1.600 F25.000
G2 X65.030 Y-5.496 Z1.600 I0.030 J-0.498 K0.000 F25.000
G1 X55.035 Y-5.500 Z1.600 F25.000
G2 X54.992 Y-5.501 Z1.600 I-0.030 J0.498 K0.000 F25.000
G1 X54.992 Y-5.501 Z1.500 F10.000
G2 X54.970 Y-4.504 Z1.500 I0.012 J0.499 K0.000 F25.000
G1 X64.965 Y-4.500 Z1.500 F25.000
G2 X65.030 Y-5.496 Z1.500 I0.030 J-0.498 K0.000 F25.000
G1 X55.035 Y-5.500 Z1.500 F25.000
G2 X54.992 Y-5.501 Z1.500 I-0.030 J0.498 K0.000 F25.000
G1 X54.992 Y-5.501 Z1.400 F10.000
G2 X54.970 Y-4.504 Z1.400 I0.012 J0.499 K0.000 F25.000
G1 X64.965 Y-4.500 Z1.400 F25.000
G2 X65.030 Y-5.496 Z1.400 I0.030 J-0.498 K0.000 F25.000
G1 X55.035 Y-5.500 Z1.400 F25.000
G2 X54.992 Y-5.501 Z1.400 I-0.030 J0.498 K0.000 F25.000
G1 X54.992 Y-5.501 Z1.300 F10.000
G2 X54.970 Y-4.504 Z1.300 I0.012 J0.499 K0.000 F25.000
G1 X64.965 Y-4.500 Z1.300 F25.000
G2 X65.030 Y-5.496 Z1.300 I0.030 J-0.498 K0.000 F25.000
G1 X55.035 Y-5.500 Z1.300 F25.000
G2 X54.992 Y-5.501 Z1.300 I-0.030 J0.498 K0.000 F25.000
G1 X54.992 Y-5.501 Z1.200 F10.000
G2 X54.970 Y-4.504 Z1.200 I0.012 J0.499 K0.000 F25.000
G1 X64.965 Y-4.500 Z1.200 F25.000
G2 X65.030 Y-5.496 Z1.200 I0.030 J-0.498 K0.000 F25.000
G1 X55.035 Y-5.500 Z1.200 F25.000
G2 X54.992 Y-5.501 Z1.200 I-0.030 J0.498 K0.000 F25.000
G1 X54.992 Y-5.501 Z1.100 F10.000
G2 X54.970 Y-4.504 Z1.100 I0.012 J0.499 K0.000 F25.000
G1 X64.965 Y-4.500 Z1.100 F25.000
G2 X65.030 Y-5.496 Z1.100 I0.030 J-0.498 K0.000 F25.000
G1 X55.035 Y-5.500 Z1.100 F25.000
G2 X54.992 Y-5.501 Z1.100 I-0.030 J0.498 K0.000 F25.000
G1 X54.992 Y-5.501 Z1.000 F10.000
G2 X54.970 Y-4.504 Z1.000 I0.012 J0.499 K0.000 F25.000
G1 X64.965 Y-4.500 Z1.000 F25.000
G2 X65.030 Y-5.496 Z1.000 I0.030 J-0.498 K0.000 F25.000
G1 X55.035 Y-5.500 Z1.000 F25.000
G2 X54.992 Y-5.501 Z1.000 I-0.030 J0.498 K0.000 F25.000
G1 X54.992 Y-5.501 Z0.900 F10.000
G2 X54.970 Y-4.504 Z0.900 I0.012 J0.499 K0.000 F25.000
G1 X64.965 Y-4.500 Z0.900 F25.000
G2 X65.030 Y-5.496 Z0.900 I0.030 J-0.498 K0.000 F25.000
G1 X55.035 Y-5.500 Z0.900 F25.000
G2 X54.992 Y-5.501 Z0.900 I-0.030 J0.498 K0.000 F25.000
G1 X54.992 Y-5.501 Z0.800 F10.000
G2 X54.970 Y-4.504 Z0.800 I0.012 J0.499 K0.000 F25.000
G1 X64.965 Y-4.500 Z0.800 F25.000
G2 X65.030 Y-5.496 Z0.800 I0.030 J-0.498 K0.000 F25.000
G1 X55.035 Y-5.500 Z0.800 F25.000
G2 X54.992 Y-5.501 Z0.800 I-0.030 J0.498 K0.000 F25.000
G1 X54.992 Y-5.501 Z0.700 F10.000
G2 X54.970 Y-4.504 Z0.700 I0.012 J0.499 K0.000 F25.000
G1 X64.965 Y-4.500 Z0.700 F25.000
G2 X65.030 Y-5.496 Z0.700 I0.030 J-0.498 K0.000 F25.000
G1 X55.035 Y-5.500 Z0.700 F25.000
G2 X54.992 Y-5.501 Z0.700 I-0.030 J0.498 K0.000 F25.000
G1 X54.992 Y-5.501 Z0.600 F10.000
G2 X54.970 Y-4.504 Z0.600 I0.012 J0.499 K0.000 F25.000
G1 X64.965 Y-4.500 Z0.600 F25.000
G2 X65.030 Y-5.496 Z0.600 I0.030 J-0.498 K0.000 F25.000
G1 X55.035 Y-5.500 Z0.600 F25.000
G2 X54.992 Y-5.501 Z0.600 I-0.030 J0.498 K0.000 F25.000
G1 X54.992 Y-5.501 Z0.500 F10.000
G2 X54.970 Y-4.504 Z0.500 I0.012 J0.499 K0.000 F25.000
G1 X64.965 Y-4.500 Z0.500 F25.000
G2 X65.030 Y-5.496 Z0.500 I0.030 J-0.498 K0.000 F25.000
G1 X55.035 Y-5.500 Z0.500 F25.000
G2 X54.992 Y-5.501 Z0.500 I-0.030 J0.498 K0.000 F25.000
G1 X54.992 Y-5.501 Z0.400 F10.000
G2 X54.970 Y-4.504 Z0.400 I0.012 J0.499 K0.000 F25.000
G1 X64.965 Y-4.500 Z0.400 F25.000
G2 X65.030 Y-5.496 Z0.400 I0.030 J-0.498 K0.000 F25.000
G1 X55.035 Y-5.500 Z0.400 F25.000
G2 X54.992 Y-5.501 Z0.400 I-0.030 J0.498 K0.000 F25.000
G1 X54.992 Y-5.501 Z0.300 F10.000
G2 X54.970 Y-4.504 Z0.300 I0.012 J0.499 K0.000 F25.000
G1 X64.965 Y-4.500 Z0.300 F25.000
G2 X65.030 Y-5.496 Z0.300 I0.030 J-0.498 K0.000 F25.000
G1 X55.035 Y-5.500 Z0.300 F25.000
G2 X54.992 Y-5.501 Z0.300 I-0.030 J0.498 K0.000 F25.000
G1 X54.992 Y-5.501 Z0.200 F10.000
G2 X54.970 Y-4.504 Z0.200 I0.012 J0.499 K0.000 F25.000
G1 X64.965 Y-4.500 Z0.200 F25.000
G2 X65.030 Y-5.496 Z0.200 I0.030 J-0.498 K0.000 F25.000
G1 X55.035 Y-5.500 Z0.200 F25.000
G2 X54.992 Y-5.501 Z0.200 I-0.030 J0.498 K0.000 F25.000
G1 X54.992 Y-5.501 Z0.100 F10.000
G2 X54.970 Y-4.504 Z0.100 I0.012 J0.499 K0.000 F25.000
G1 X64.965 Y-4.500 Z0.100 F25.000
G2 X65.030 Y-5.496 Z0.100 I0.030 J-0.498 K0.000 F25.000
G1 X55.035 Y-5.500 Z0.100 F25.000
G2 X54.992 Y-5.501 Z0.100 I-0.030 J0.498 K0.000 F25.000
G1 X54.992 Y-5.501 Z0.000 F10.000
G2 X54.970 Y-4.504 Z0.000 I0.012 J0.499 K0.000 F25.000
G1 X64.965 Y-4.500 Z0.000 F25.000
G2 X65.030 Y-5.496 Z0.000 I0.030 J-0.498 K0.000 F25.000
G1 X55.035 Y-5.500 Z0.000 F25.000
G2 X54.992 Y-5.501 Z0.000 I-0.030 J0.498 K0.000 F25.000
G1 X54.992 Y-5.501 Z-0.100 F10.000
G2 X54.970 Y-4.504 Z-0.100 I0.012 J0.499 K0.000 F25.000
G1 X64.965 Y-4.500 Z-0.100 F25.000
G2 X65.030 Y-5.496 Z-0.100 I0.030 J-0.498 K0.000 F25.000
G1 X55.035 Y-5.500 Z-0.100 F25.000
G2 X54.992 Y-5.501 Z-0.100 I-0.030 J0.498 K0.000 F25.000
G1 X54.992 Y-5.501 Z-0.200 F10.000
G2 X54.970 Y-4.504 Z-0.200 I0.012 J0.499 K0.000 F25.000
G1 X64.965 Y-4.500 Z-0.200 F25.000
G2 X65.030 Y-5.496 Z-0.200 I0.030 J-0.498 K0.000 F25.000
G1 X55.035 Y-5.500 Z-0.200 F25.000
G2 X54.992 Y-5.501 Z-0.200 I-0.030 J0.498 K0.000 F25.000
G0 Z5.000
G0 Z5.000
G0 X54.992 Y-5.501
G0 X91.062 Y-14.515
G0 X91.062 Y-14.515 Z3.000
G1 X91.062 Y-14.515 Z1.900 F10.000
G2 X93.070 Y-13.003 Z1.900 I1.938 J-0.484 K0.000 F25.000
G2 X92.999 Y-16.998 Z1.900 I-0.070 J-1.997 K0.000 F25.000
G1 X92.647 Y-16.967 Z1.900 F25.000
G2 X91.062 Y-14.515 Z1.900 I0.353 J1.967 K0.000 F25.000
G1 X91.062 Y-14.515 Z1.800 F10.000
G2 X93.070 Y-13.003 Z1.800 I1.938 J-0.484 K0.000 F25.000
G2 X92.999 Y-16.998 Z1.800 I-0.070 J-1.997 K0.000 F25.000
G1 X92.647 Y-16.967 Z1.800 F25.000
G2 X91.062 Y-14.515 Z1.800 I0.353 J1.967 K0.000 F25.000
G1 X91.062 Y-14.515 Z1.700 F10.000
G2 X93.070 Y-13.003 Z1.700 I1.938 J-0.484 K0.000 F25.000
G2 X92.999 Y-16.998 Z1.700 I-0.070 J-1.997 K0.000 F25.000
G1 X92.647 Y-16.967 Z1.700 F25.000
G2 X91.062 Y-14.515 Z1.700 I0.353 J1.967 K0.000 F25.000
G1 X91.062 Y-14.515 Z1.600 F10.000
G2 X93.070 Y-13.003 Z1.600 I1.938 J-0.484 K0.000 F25.000
G2 X92.999 Y-16.998 Z1.600 I-0.070 J-1.997 K0.000 F25.000
G1 X92.647 Y-16.967 Z1.600 F25.000
G2 X91.062 Y-14.515 Z1.600 I0.353 J1.967 K0.000 F25.000
G1 X91.062 Y-14.515 Z1.500 F10.000
G2 X93.070 Y-13.003 Z1.500 I1.938 J-0.484 K0.000 F25.000
G2 X92.999 Y-16.998 Z1.500 I-0.070 J-1.997 K0.000 F25.000
G1 X92.647 Y-16.967 Z1.500 F25.000
G2 X91.062 Y-14.515 Z1.500 I0.353 J1.967 K0.000 F25.000
G1 X91.062 Y-14.515 Z1.400 F10.000
G2 X93.070 Y-13.003 Z1.400 I1.938 J-0.484 K0.000 F25.000
G2 X92.999 Y-16.998 Z1.400 I-0.070 J-1.997 K0.000 F25.000
G1 X92.647 Y-16.967 Z1.400 F25.000
G2 X91.062 Y-14.515 Z1.400 I0.353 J1.967 K0.000 F25.000
G1 X91.062 Y-14.515 Z1.300 F10.000
G2 X93.070 Y-13.003 Z1.300 I1.938 J-0.484 K0.000 F25.000
G2 X92.999 Y-16.998 Z1.300 I-0.070 J-1.997 K0.000 F25.000
G1 X92.647 Y-16.967 Z1.300 F25.000
G2 X91.062 Y-14.515 Z1.300 I0.353 J1.967 K0.000 F25.000
G1 X91.062 Y-14.515 Z1.200 F10.000
G2 X93.070 Y-13.003 Z1.200 I1.938 J-0.484 K0.000 F25.000
G2 X92.999 Y-16.998 Z1.200 I-0.070 J-1.997 K0.000 F25.000
G1 X92.647 Y-16.967 Z1.200 F25.000
G2 X91.062 Y-14.515 Z1.200 I0.353 J1.967 K0.000 F25.000
G1 X91.062 Y-14.515 Z1.100 F10.000
G2 X93.070 Y-13.003 Z1.100 I1.938 J-0.484 K0.000 F25.000
G2 X92.999 Y-16.998 Z1.100 I-0.070 J-1.997 K0.000 F25.000
G1 X92.647 Y-16.967 Z1.100 F25.000
G2 X91.062 Y-14.515 Z1.100 I0.353 J1.967 K0.000 F25.000
G1 X91.062 Y-14.515 Z1.000 F10.000
G2 X93.070 Y-13.003 Z1.000 I1.938 J-0.484 K0.000 F25.000
G2 X92.999 Y-16.998 Z1.000 I-0.070 J-1.997 K0.000 F25.000
G1 X92.647 Y-16.967 Z1.000 F25.000
G2 X91.062 Y-14.515 Z1.000 I0.353 J1.967 K0.000 F25.000
G1 X91.062 Y-14.515 Z0.900 F10.000
G2 X93.070 Y-13.003 Z0.900 I1.938 J-0.484 K0.000 F25.000
G2 X92.999 Y-16.998 Z0.900 I-0.070 J-1.997 K0.000 F25.000
G1 X92.647 Y-16.967 Z0.900 F25.000
G2 X91.062 Y-14.515 Z0.900 I0.353 J1.967 K0.000 F25.000
G1 X91.062 Y-14.515 Z0.800 F10.000
G2 X93.070 Y-13.003 Z0.800 I1.938 J-0.484 K0.000 F25.000
G2 X92.999 Y-16.998 Z0.800 I-0.070 J-1.997 K0.000 F25.000
G1 X92.647 Y-16.967 Z0.800 F25.000
G2 X91.062 Y-14.515 Z0.800 I0.353 J1.967 K0.000 F25.000
G1 X91.062 Y-14.515 Z0.700 F10.000
G2 X93.070 Y-13.003 Z0.700 I1.938 J-0.484 K0.000 F25.000
G2 X92.999 Y-16.998 Z0.700 I-0.070 J-1.997 K0.000 F25.000
G1 X92.647 Y-16.967 Z0.700 F25.000
G2 X91.062 Y-14.515 Z0.700 I0.353 J1.967 K0.000 F25.000
G1 X91.062 Y-14.515 Z0.600 F10.000
G2 X93.070 Y-13.003 Z0.600 I1.938 J-0.484 K0.000 F25.000
G2 X92.999 Y-16.998 Z0.600 I-0.070 J-1.997 K0.000 F25.000
G1 X92.647 Y-16.967 Z0.600 F25.000
G2 X91.062 Y-14.515 Z0.600 I0.353 J1.967 K0.000 F25.000
G1 X91.062 Y-14.515 Z0.500 F10.000
G2 X93.070 Y-13.003 Z0.500 I1.938 J-0.484 K0.000 F25.000
G2 X92.999 Y-16.998 Z0.500 I-0.070 J-1.997 K0.000 F25.000
G1 X92.647 Y-16.967 Z0.500 F25.000
G2 X91.062 Y-14.515 Z0.500 I0.353 J1.967 K0.000 F25.000
G1 X91.062 Y-14.515 Z0.400 F10.000
G2 X93.070 Y-13.003 Z0.400 I1.938 J-0.484 K0.000 F25.000
G2 X92.999 Y-16.998 Z0.400 I-0.070 J-1.997 K0.000 F25.000
G1 X92.647 Y-16.967 Z0.400 F25.000
G2 X91.062 Y-14.515 Z0.400 I0.353 J1.967 K0.000 F25.000
G1 X91.062 Y-14.515 Z0.300 F10.000
G2 X93.070 Y-13.003 Z0.300 I1.938 J-0.484 K0.000 F25.000
G2 X92.999 Y-16.998 Z0.300 I-0.070 J-1.997 K0.000 F25.000
G1 X92.647 Y-16.967 Z0.300 F25.000
G2 X91.062 Y-14.515 Z0.300 I0.353 J1.967 K0.000 F25.000
G1 X91.062 Y-14.515 Z0.200 F10.000
G2 X93.070 Y-13.003 Z0.200 I1.938 J-0.484 K0.000 F25.000
G2 X92.999 Y-16.998 Z0.200 I-0.070 J-1.997 K0.000 F25.000
G1 X92.647 Y-16.967 Z0.200 F25.000
G2 X91.062 Y-14.515 Z0.200 I0.353 J1.967 K0.000 F25.000
G1 X91.062 Y-14.515 Z0.100 F10.000
G2 X93.070 Y-13.003 Z0.100 I1.938 J-0.484 K0.000 F25.000
G2 X92.999 Y-16.998 Z0.100 I-0.070 J-1.997 K0.000 F25.000
G1 X92.647 Y-16.967 Z0.100 F25.000
G2 X91.062 Y-14.515 Z0.100 I0.353 J1.967 K0.000 F25.000
G1 X91.062 Y-14.515 Z0.000 F10.000
G2 X93.070 Y-13.003 Z0.000 I1.938 J-0.484 K0.000 F25.000
G2 X92.999 Y-16.998 Z0.000 I-0.070 J-1.997 K0.000 F25.000
G1 X92.647 Y-16.967 Z0.000 F25.000
G2 X91.062 Y-14.515 Z0.000 I0.353 J1.967 K0.000 F25.000
G1 X91.062 Y-14.515 Z-0.100 F10.000
G2 X93.070 Y-13.003 Z-0.100 I1.938 J-0.484 K0.000 F25.000
G2 X92.999 Y-16.998 Z-0.100 I-0.070 J-1.997 K0.000 F25.000
G1 X92.647 Y-16.967 Z-0.100 F25.000
G2 X91.062 Y-14.515 Z-0.100 I0.353 J1.967 K0.000 F25.000
G1 X91.062 Y-14.515 Z-0.200 F10.000
G2 X93.070 Y-13.003 Z-0.200 I1.938 J-0.484 K0.000 F25.000
G2 X92.999 Y-16.998 Z-0.200 I-0.070 J-1.997 K0.000 F25.000
G1 X92.647 Y-16.967 Z-0.200 F25.000
G2 X91.062 Y-14.515 Z-0.200 I0.353 J1.967 K0.000 F25.000
G0 Z5.000
G0 Z5.000
(Finish operation: Profile)
(Begin operation: Profile001)
(Path: Profile001)
(Profile001)
(Compensated Tool Path. Diameter: 1.0)
G0 Z5.000
G0 X-0.500 Y-30.000
G0 Z3.000
G1 X-0.500 Y-30.000 Z1.900 F10.000
G1 X-0.500 Y0.000 Z1.900 F25.000
G0 Z5.000
G0 X-0.500 Y-30.000
G0 Z3.000
G1 X-0.500 Y-30.000 Z1.800 F10.000
G1 X-0.500 Y0.000 Z1.800 F25.000
G0 Z5.000
G0 Z5.000
G0 X-0.500
G0 X100.500 Y0.000
G0 X100.500 Y0.000 Z3.000
G1 X100.500 Y0.000 Z1.900 F10.000
G1 X100.500 Y-30.000 Z1.900 F25.000
G0 Z5.000
G0 X-0.500
G0 X100.500 Y0.000
G0 X100.500 Y0.000 Z3.000
G1 X100.500 Y0.000 Z1.800 F10.000
G1 X100.500 Y-30.000 Z1.800 F25.000
G0 Z5.000
G0 Z5.000
(Finish operation: Profile001)
(Begin postamble)
M5
G17 G90
M2
