; generated by PrusaSlicer 2.7.1 on 2023-12-28 at 03:44:05 UTC

; 

; external perimeters extrusion width = 0.42mm
; perimeters extrusion width = 0.44mm
; infill extrusion width = 0.44mm
; solid infill extrusion width = 0.44mm
; top infill extrusion width = 0.40mm
; first layer extrusion width = 0.42mm

; external perimeters extrusion width = 0.42mm
; perimeters extrusion width = 0.44mm
; infill extrusion width = 0.44mm
; solid infill extrusion width = 0.44mm
; top infill extrusion width = 0.40mm
; first layer extrusion width = 0.42mm

; external perimeters extrusion width = 0.42mm
; perimeters extrusion width = 0.44mm
; infill extrusion width = 0.44mm
; solid infill extrusion width = 0.44mm
; top infill extrusion width = 0.40mm
; first layer extrusion width = 0.42mm

; external perimeters extrusion width = 0.42mm
; perimeters extrusion width = 0.44mm
; infill extrusion width = 0.44mm
; solid infill extrusion width = 0.44mm
; top infill extrusion width = 0.40mm
; first layer extrusion width = 0.42mm

M201 X500 Y500 Z100 E5000 ; sets maximum accelerations, mm/sec^2
M203 X500 Y500 Z10 E60 ; sets maximum feedrates, mm / sec
M204 S500 T1000 ; sets acceleration (S) and retract acceleration (R), mm/sec^2
M205 X8.00 Y8.00 Z0.40 E5.00 ; sets the jerk limits, mm/sec
M205 S0 T0 ; sets the minimum extruding and travel feed rate, mm/sec

; printing object base-basebase001.stl id:2 copy 0
; stop printing object base-basebase001.stl id:2 copy 0
; printing object slot-Body.stl id:1 copy 0
; stop printing object slot-Body.stl id:1 copy 0
; printing object base-basebase001.stl id:0 copy 0
; stop printing object base-basebase001.stl id:0 copy 0
; printing object slot-Body.stl id:3 copy 0
; stop printing object slot-Body.stl id:3 copy 0

;TYPE:Custom
G90 ; use absolute coordinates
M83 ; extruder relative mode
M104 S150 ; set temporary nozzle temp to prevent oozing during homing
M140 S60 ; set final bed temp
G4 S30 ; allow partial nozzle warmup
G28 ; home all axis
G1 Z50 F240
G1 X2.0 Y10 F3000
M104 S215 ; set final nozzle temp
M190 S60 ; wait for bed temp to stabilize
M109 S215 ; wait for nozzle temp to stabilize
G1 Z0.28 F240
G92 E0
G1 X2.0 Y140 E10 F1500 ; prime the nozzle
G1 X2.3 Y140 F5000
G92 E0
G1 X2.3 Y10 E10 F1200 ; prime the nozzle
G92 E0
G21 ; set units to millimeters
G90 ; use absolute coordinates
M83 ; use relative distances for extrusion
; Filament gcode
M107
;LAYER_CHANGE
;Z:0.2
;HEIGHT:0.2
;BEFORE_LAYER_CHANGE
G92 E0
;0.2


G1 E-5 F3600
G1 Z.2 F9000
;AFTER_LAYER_CHANGE
;0.2
G1 X62.517 Y48.917
G1 Z.2
G1 E5 F2400
M204 S500
;TYPE:Skirt/Brim
;WIDTH:0.42
G1 F1200
G1 X63.607 Y47.703 E.05116
G1 X65.5 Y47.123 E.06208
G1 X165.5 Y47.123 E3.13543
G1 X167.083 Y47.517 E.05115
G1 X168.297 Y48.607 E.05116
G1 X168.877 Y50.5 E.06208
G1 X168.877 Y115.548 E2.03953
G1 X167.877 Y185.548 E2.19502
G1 X167.46 Y187.126 E.05118
G1 X166.353 Y188.324 E.05114
G1 X164.5 Y188.877 E.06063
G1 X66.5 Y188.877 E3.07272
G1 X64.917 Y188.483 E.05115
G1 X63.703 Y187.393 E.05116
G1 X63.123 Y185.548 E.06064
G1 X62.123 Y115.5 E2.19653
G1 X62.123 Y50.5 E2.03803
G1 X62.503 Y48.975 E.04928
; printing object slot-Body.stl id:3 copy 0
G1 E-3.5 F3600
;WIPE_START
G1 F7200
G1 X62.517 Y48.917 E-.02834
G1 X63.607 Y47.703 E-.77498
G1 X65.009 Y47.273 E-.69668
;WIPE_END
G1 X152.87 Y173 F9000
G1 E5 F2400
;TYPE:Perimeter
;WIDTH:0.419999
G1 F1200
G1 X152.916 Y173.102 E.00351
G1 X153.503 Y174.104 E.03641
G1 X154.196 Y174.912 E.03338
G1 X154.663 Y175.324 E.01953
G1 X155.185 Y175.693 E.02004
G1 X156.175 Y176.208 E.03499
G1 X156.76 Y176.412 E.01943
G1 X157.389 Y176.562 E.02027
G1 X158.093 Y176.647 E.02223
G1 X159.264 Y176.613 E.03673
G1 X160.273 Y176.4 E.03233
G1 X160.882 Y176.184 E.02026
G1 X161.575 Y175.839 E.02427
G1 X162.436 Y175.243 E.03283
G1 X162.885 Y174.831 E.01911
G1 X163.336 Y174.316 E.02146
G1 X163.336 Y184.336 E.31417
G1 X132.139 Y184.336 E.97816
;WIDTH:0.459254
G1 X131.975 Y184.316 E.00572
;WIDTH:0.498508
G1 X131.81 Y184.297 E.00629
;WIDTH:0.537763
G1 X131.645 Y184.277 E.00684
;WIDTH:0.577017
G1 X131.481 Y184.257 E.00734
;WIDTH:0.591657
G1 X130.769 Y184.25 E.03249
G1 X130.663 Y184.271 E.00493
;WIDTH:0.548743
G1 X130.556 Y184.293 E.00459
;WIDTH:0.505828
G1 X130.45 Y184.314 E.00416
;WIDTH:0.462914
G1 X130.344 Y184.336 E.00378
;WIDTH:0.419999
G1 X126.245 Y184.336 E.12852
;WIDTH:0.462617
G1 X126.024 Y184.315 E.00775
;WIDTH:0.505235
G1 X125.802 Y184.293 E.00858
;WIDTH:0.547853
G1 X125.58 Y184.272 E.00936
;WIDTH:0.59047
G1 X125.359 Y184.251 E.01011
G1 X124.542 Y184.253 E.0372
;WIDTH:0.584854
G1 X124.435 Y184.275 E.00492
;WIDTH:0.540854
G1 X124.329 Y184.297 E.00448
;WIDTH:0.496853
G1 X124.223 Y184.319 E.00409
;WIDTH:0.452852
G1 X123.868 Y184.336 E.01211
;WIDTH:0.419999
G1 X119.963 Y184.336 E.12244
;WIDTH:0.462619
G1 X119.741 Y184.315 E.00778
;WIDTH:0.505238
G1 X119.519 Y184.293 E.00858
;WIDTH:0.547857
G1 X119.298 Y184.272 E.00932
;WIDTH:0.590476
G1 X119.076 Y184.251 E.01015
;WIDTH:0.591689
G1 X118.202 Y184.25 E.03988
G1 X118.096 Y184.271 E.00493
;WIDTH:0.548767
G1 X117.99 Y184.293 E.00455
;WIDTH:0.505844
G1 X117.884 Y184.314 E.00416
;WIDTH:0.462922
G1 X117.778 Y184.336 E.00378
;WIDTH:0.419999
G1 X112.139 Y184.336 E.17681
;WIDTH:0.459254
G1 X111.975 Y184.316 E.00572
;WIDTH:0.498508
G1 X111.81 Y184.297 E.00629
;WIDTH:0.537763
G1 X111.645 Y184.277 E.00684
;WIDTH:0.577017
G1 X111.481 Y184.257 E.00734
;WIDTH:0.591659
G1 X110.769 Y184.25 E.03249
G1 X110.663 Y184.271 E.00493
;WIDTH:0.548744
G1 X110.556 Y184.293 E.00459
;WIDTH:0.505829
G1 X110.45 Y184.314 E.00416
;WIDTH:0.462914
G1 X110.344 Y184.336 E.00378
;WIDTH:0.419999
G1 X106.245 Y184.336 E.12852
;WIDTH:0.462617
G1 X106.024 Y184.315 E.00775
;WIDTH:0.505235
G1 X105.802 Y184.293 E.00858
;WIDTH:0.547853
G1 X105.58 Y184.272 E.00936
;WIDTH:0.59047
G1 X105.359 Y184.251 E.01011
G1 X104.542 Y184.253 E.0372
;WIDTH:0.584854
G1 X104.435 Y184.275 E.00492
;WIDTH:0.540854
G1 X104.329 Y184.297 E.00448
;WIDTH:0.496853
G1 X104.223 Y184.319 E.00409
;WIDTH:0.452852
G1 X103.868 Y184.336 E.01211
;WIDTH:0.419999
G1 X99.963 Y184.336 E.12244
;WIDTH:0.462619
G1 X99.741 Y184.315 E.00778
;WIDTH:0.505238
G1 X99.519 Y184.293 E.00858
;WIDTH:0.547858
G1 X99.298 Y184.272 E.00932
;WIDTH:0.590477
G1 X99.076 Y184.251 E.01015
;WIDTH:0.591689
G1 X98.202 Y184.25 E.03988
G1 X98.096 Y184.271 E.00493
;WIDTH:0.548767
G1 X97.99 Y184.293 E.00455
;WIDTH:0.505844
G1 X97.884 Y184.314 E.00416
;WIDTH:0.462922
G1 X97.778 Y184.336 E.00378
;WIDTH:0.419999
G1 X67.664 Y184.336 E.9442
G1 X67.664 Y174.317 E.31414
G1 X68.196 Y174.912 E.02503
G1 X68.663 Y175.323 E.01951
G1 X69.185 Y175.693 E.02006
G1 X70.175 Y176.208 E.03499
G1 X70.76 Y176.412 E.01943
G1 X71.389 Y176.562 E.02027
G1 X72.093 Y176.647 E.02223
G1 X73.264 Y176.613 E.03673
G1 X74.399 Y176.364 E.03643
G1 X74.882 Y176.184 E.01616
G1 X75.575 Y175.839 E.02427
G1 X76.436 Y175.243 E.03283
G1 X76.885 Y174.831 E.01911
G1 X77.287 Y174.382 E.0189
G1 X77.658 Y173.869 E.01985
G1 X78.176 Y172.902 E.0344
G1 X78.372 Y172.37 E.01778
G1 X78.566 Y171.577 E.0256
G1 X78.66 Y170.412 E.03665
G1 X78.544 Y169.295 E.03521
G1 X78.388 Y168.678 E.01995
G1 X78.158 Y168.056 E.02079
G1 X77.83 Y167.411 E.02269
G1 X77.256 Y166.584 E.03156
G1 X77.136 Y166.444 E.00578
G1 X76.387 Y165.721 E.03264
G1 X76.254 Y165.614 E.00535
G1 X75.433 Y165.08 E.03071
G1 X74.773 Y164.771 E.02285
G1 X74.287 Y164.602 E.01613
G1 X73.573 Y164.431 E.02302
G1 X72.825 Y164.348 E.0236
G1 X71.708 Y164.388 E.03505
G1 X71.058 Y164.508 E.02072
G1 X70.451 Y164.687 E.01984
G1 X69.853 Y164.937 E.02032
G1 X68.895 Y165.501 E.03486
G1 X68.419 Y165.881 E.0191
G1 X68.032 Y166.255 E.01687
G1 X67.664 Y166.685 E.01775
G1 X67.664 Y156.664 E.3142
G1 X163.336 Y156.664 E2.99972
G1 X163.34 Y166.694 E.31448
G1 X163.136 Y166.444 E.01012
G1 X162.387 Y165.721 E.03264
G1 X162.254 Y165.614 E.00535
G1 X161.433 Y165.08 E.03071
G1 X160.773 Y164.771 E.02285
G1 X160.287 Y164.602 E.01613
G1 X159.573 Y164.431 E.02302
G1 X158.825 Y164.348 E.0236
G1 X157.708 Y164.388 E.03505
G1 X157.058 Y164.508 E.02072
G1 X156.451 Y164.687 E.01984
G1 X155.853 Y164.937 E.02032
G1 X154.895 Y165.501 E.03486
G1 X154.419 Y165.881 E.0191
G1 X153.964 Y166.327 E.01998
G1 X153.523 Y166.87 E.02193
G1 X152.931 Y167.866 E.03633
G1 X152.572 Y168.824 E.03208
G1 X152.427 Y169.452 E.02021
G1 X152.345 Y170.213 E.024
G1 X152.391 Y171.279 E.03345
G1 X152.515 Y171.959 E.02167
G1 X152.842 Y172.936 E.0323
G1 X152.846 Y172.945 E.00031
G1 X153.22 Y172.846 F9000
G1 F1200
G1 X153.244 Y172.916 E.00232
G1 X153.791 Y173.861 E.03424
G1 X154.448 Y174.631 E.03174
G1 X154.886 Y175.019 E.01835
G1 X155.362 Y175.36 E.01836
G1 X156.302 Y175.853 E.03328
G1 X156.85 Y176.046 E.01822
G1 X157.44 Y176.188 E.01903
G1 X158.088 Y176.27 E.02048
G1 X159.186 Y176.244 E.03444
G1 X160.195 Y176.031 E.03233
G1 X160.719 Y175.844 E.01744
G1 X161.363 Y175.527 E.02251
G1 X162.183 Y174.963 E.0312
G1 X162.606 Y174.577 E.01795
G1 X162.985 Y174.157 E.01774
G1 X163.321 Y173.699 E.01781
G1 X163.713 Y173.01 E.02485
G1 X163.713 Y184.713 E.36694
G1 X67.287 Y184.713 E3.02336
G1 X67.291 Y173.024 E.3665
G1 X67.658 Y173.668 E.02324
G1 X68.035 Y174.18 E.01994
G1 X68.448 Y174.631 E.01917
G1 X68.886 Y175.019 E.01835
G1 X69.362 Y175.36 E.01836
G1 X70.302 Y175.853 E.03328
G1 X70.85 Y176.046 E.01822
G1 X71.44 Y176.188 E.01903
G1 X72.088 Y176.27 E.02048
G1 X73.186 Y176.244 E.03444
G1 X74.195 Y176.031 E.03233
G1 X74.719 Y175.844 E.01744
G1 X75.363 Y175.527 E.02251
G1 X76.183 Y174.963 E.0312
G1 X76.606 Y174.577 E.01795
G1 X76.985 Y174.157 E.01774
G1 X77.327 Y173.688 E.0182
G1 X77.824 Y172.768 E.03279
G1 X78.007 Y172.275 E.01649
G1 X78.19 Y171.542 E.02369
G1 X78.285 Y170.448 E.03443
G1 X78.178 Y169.385 E.0335
G1 X78.033 Y168.806 E.01871
G1 X77.819 Y168.222 E.0195
G1 X77.52 Y167.626 E.02091
G1 X76.946 Y166.799 E.03156
G1 X76.125 Y165.992 E.0361
G1 X75.271 Y165.42 E.03223
G1 X74.699 Y165.148 E.01986
G1 X74.196 Y164.968 E.01675
G1 X73.526 Y164.805 E.02162
G1 X72.835 Y164.725 E.02181
G1 X71.773 Y164.759 E.03332
G1 X71.163 Y164.87 E.01944
G1 X70.591 Y165.037 E.01868
G1 X70.042 Y165.264 E.01863
G1 X69.128 Y165.797 E.03317
G1 X68.681 Y166.153 E.01792
G1 X68.253 Y166.57 E.01874
G1 X67.844 Y167.067 E.02018
G1 X67.287 Y167.993 E.03388
G1 X67.287 Y156.287 E.36703
G1 X163.713 Y156.287 E3.02336
G1 X163.717 Y168.011 E.3676
G1 X163.636 Y167.836 E.00605
G1 X163.3 Y167.269 E.02066
G1 X162.874 Y166.715 E.02191
G1 X162.125 Y165.992 E.03264
G1 X161.271 Y165.42 E.03223
G1 X160.699 Y165.148 E.01986
G1 X160.196 Y164.968 E.01675
G1 X159.526 Y164.805 E.02162
G1 X158.835 Y164.725 E.02181
G1 X157.773 Y164.759 E.03332
G1 X157.163 Y164.87 E.01944
G1 X156.591 Y165.037 E.01868
G1 X156.042 Y165.264 E.01863
G1 X155.128 Y165.797 E.03317
G1 X154.681 Y166.153 E.01792
G1 X154.253 Y166.57 E.01874
G1 X153.844 Y167.067 E.02018
G1 X153.284 Y167.998 E.03406
G1 X152.912 Y168.995 E.03337
G1 X152.801 Y169.497 E.01612
G1 X152.722 Y170.204 E.02231
G1 X152.763 Y171.217 E.03179
G1 X152.873 Y171.84 E.01984
G1 X153.2 Y172.79 E.0315
G1 E-3.5 F3600
;WIPE_START
G1 F7200
G1 X153.22 Y172.846 E-.02825
G1 X153.244 Y172.916 E-.03515
G1 X153.791 Y173.861 E-.51865
G1 X154.448 Y174.631 E-.4808
G1 X154.886 Y175.019 E-.27794
G1 X155.158 Y175.214 E-.15921
;WIPE_END
G1 X164.09 Y185.09 F9000
G1 E5 F2400
;TYPE:External perimeter
G1 F1200
G1 X66.91 Y185.09 E3.04701
G1 X66.909 Y172.996 E.3792
;WIDTH:0.448849
G1 X66.903 Y171.986 E.03409
G1 X66.84 Y171.264 E.02446
;WIDTH:0.419439
G1 X66.82 Y170.606 E.02061
;WIDTH:0.419856
G1 X66.826 Y169.953 E.02047
;WIDTH:0.425707
G1 X66.871 Y169.323 E.0201
;WIDTH:0.432951
G1 X66.899 Y168.805 E.01682
G1 X66.91 Y168 E.02611
;WIDTH:0.419999
G1 X66.91 Y155.91 E.37907
G1 X164.09 Y155.91 E3.04701
G1 X164.095 Y168.521 E.39541
;WIDTH:0.430144
G1 X164.177 Y170.011 E.04805
;WIDTH:0.422285
G1 X164.18 Y170.489 E.01508
;WIDTH:0.429574
G1 X164.172 Y170.999 E.0164
;WIDTH:0.431259
G1 X164.118 Y171.801 E.02596
G1 X164.101 Y172.469 E.02158
;WIDTH:0.419999
G1 X164.09 Y185.03 E.39384
G1 E-3.5 F3600
;WIPE_START
G1 F7200
G1 X164.09 Y185.09 E-.0285
G1 X160.992 Y185.09 E-1.4715
;WIPE_END
G1 X159.108 Y175.875 F9000
G1 E5 F2400
G1 F1200
G1 X158.082 Y175.893 E.03217
G1 X157.491 Y175.815 E.01869
G1 X156.94 Y175.68 E.01779
G1 X156.43 Y175.498 E.01698
G1 X155.539 Y175.027 E.0316
G1 X155.108 Y174.715 E.01668
G1 X154.699 Y174.35 E.01719
G1 X154.079 Y173.618 E.03008
G1 X153.557 Y172.697 E.03319
G1 X153.23 Y171.72 E.0323
G1 X153.135 Y171.156 E.01793
G1 X153.099 Y170.196 E.03012
G1 X153.176 Y169.542 E.02065
G1 X153.278 Y169.089 E.01456
G1 X153.644 Y168.115 E.03262
G1 X154.165 Y167.264 E.03129
G1 X154.542 Y166.812 E.01845
G1 X154.943 Y166.424 E.0175
G1 X155.361 Y166.094 E.0167
G1 X156.23 Y165.59 E.0315
G1 X156.732 Y165.387 E.01698
G1 X157.267 Y165.233 E.01746
G1 X157.838 Y165.131 E.01819
G1 X158.845 Y165.102 E.03159
G1 X159.479 Y165.18 E.02003
G1 X160.105 Y165.334 E.02021
G1 X160.537 Y165.488 E.01438
G1 X161.109 Y165.761 E.01987
G1 X161.837 Y166.242 E.02736
G1 X162.613 Y166.986 E.03371
G1 X162.999 Y167.496 E.02005
G1 X163.311 Y168.026 E.01928
G1 X163.551 Y168.572 E.0187
;WIDTH:0.433486
G1 X163.745 Y169.31 E.02478
G1 X163.791 Y169.854 E.01773
;WIDTH:0.420523
G1 X163.809 Y170.495 E.02013
;WIDTH:0.428446
G1 X163.74 Y171.704 E.03882
G1 X163.562 Y172.395 E.02287
;WIDTH:0.419999
G1 X163.369 Y172.857 E.0157
G1 X162.995 Y173.511 E.02362
G1 X162.682 Y173.932 E.01645
G1 X162.327 Y174.323 E.01656
G1 X161.93 Y174.683 E.0168
G1 X161.151 Y175.215 E.02958
G1 X160.555 Y175.504 E.02077
G1 X160.117 Y175.662 E.0146
G1 X159.167 Y175.862 E.03044
G1 E-3.5 F3600
;WIPE_START
G1 F7200
G1 X159.108 Y175.875 E-.0287
G1 X158.082 Y175.893 E-.48742
G1 X157.491 Y175.815 E-.28316
G1 X156.94 Y175.68 E-.26947
G1 X156.43 Y175.498 E-.25721
G1 X156.106 Y175.327 E-.17404
;WIPE_END
G1 X124.939 Y158.273 F9000
G1 E5 F2400
;TYPE:Perimeter
G1 F1200
G1 X125.256 Y158.073 E.01175
G1 X125.797 Y157.803 E.01896
G1 X126.842 Y157.471 E.03438
G1 X127.732 Y157.348 E.02817
G1 X128.313 Y157.342 E.01822
G1 X129.397 Y157.493 E.03432
G1 X130.45 Y157.851 E.03487
G1 X131.371 Y158.375 E.03322
G1 X131.966 Y158.855 E.02397
G1 X132.436 Y159.353 E.02147
G1 X132.799 Y159.852 E.01935
G1 X133.059 Y160.323 E.01687
G1 X133.261 Y160.842 E.01746
G1 X133.377 Y161.479 E.0203
G1 X133.311 Y162.028 E.01734
G1 X133.121 Y162.518 E.01648
G1 X132.825 Y162.937 E.01608
G1 X132.617 Y163.136 E.00903
G1 X132.194 Y163.427 E.0161
G1 X131.708 Y163.602 E.0162
G1 X131.147 Y163.659 E.01768
G1 X130.862 Y163.628 E.00899
G1 X130.358 Y163.487 E.01641
G1 X129.92 Y163.231 E.01591
G1 X129.517 Y162.838 E.01765
G1 X129.246 Y162.388 E.01647
G1 X129.096 Y161.922 E.01535
G1 X128.708 Y161.753 E.01327
G1 X128.152 Y161.667 E.01764
G1 X127.63 Y161.71 E.01642
G1 X127.249 Y161.817 E.01241
G1 X127.053 Y161.912 E.00683
G1 X126.91 Y162.329 E.01382
G1 X126.696 Y162.751 E.01484
G1 X126.297 Y163.167 E.01807
G1 X126.028 Y163.355 E.01029
G1 X125.552 Y163.572 E.0164
G1 X124.885 Y163.655 E.02107
G1 X124.543 Y163.622 E.01077
G1 X124.076 Y163.484 E.01527
G1 X123.592 Y163.196 E.01766
G1 X123.198 Y162.796 E.0176
G1 X122.899 Y162.223 E.02026
G1 X122.811 Y161.937 E.00938
G1 X122.636 Y161.836 E.00634
G1 X122.156 Y161.707 E.01558
G1 X121.577 Y161.683 E.01817
G1 X121.03 Y161.793 E.01749
G1 X120.753 Y161.942 E.00986
G1 X120.619 Y162.374 E.01418
G1 X120.335 Y162.852 E.01743
G1 X119.922 Y163.248 E.01794
G1 X119.36 Y163.535 E.01979
G1 X119.044 Y163.619 E.01025
G1 X118.475 Y163.658 E.01788
G1 X117.886 Y163.518 E.01898
G1 X117.589 Y163.379 E.01028
G1 X117.147 Y163.06 E.01709
G1 X116.786 Y162.606 E.01819
G1 X116.587 Y162.159 E.01534
G1 X116.495 Y161.619 E.01718
G1 X116.503 Y161.272 E.01088
G1 X116.646 Y160.701 E.01846
G1 X116.891 Y160.145 E.01905
G1 X117.336 Y159.462 E.02556
G1 X117.802 Y158.941 E.02192
G1 X118.364 Y158.462 E.02315
G1 X119.025 Y158.04 E.02459
G1 X119.77 Y157.7 E.02568
G1 X120.58 Y157.465 E.02644
G1 X121.43 Y157.349 E.0269
G1 X122.029 Y157.342 E.01878
G1 X122.858 Y157.438 E.02617
G1 X123.432 Y157.575 E.0185
G1 X124.189 Y157.859 E.02535
G1 X124.886 Y158.244 E.02497
G1 X124.938 Y158.739 F9000
G1 F1200
G1 X125.36 Y158.443 E.01616
G1 X125.965 Y158.14 E.02122
