; generated by PrusaSlicer 2.7.1 on 2023-12-28 at 13:53:03 UTC

; 

; external perimeters extrusion width = 0.42mm
; perimeters extrusion width = 0.44mm
; infill extrusion width = 0.44mm
; solid infill extrusion width = 0.44mm
; top infill extrusion width = 0.40mm
; first layer extrusion width = 0.42mm

; external perimeters extrusion width = 0.42mm
; perimeters extrusion width = 0.44mm
; infill extrusion width = 0.44mm
; solid infill extrusion width = 0.44mm
; top infill extrusion width = 0.40mm
; first layer extrusion width = 0.42mm

; external perimeters extrusion width = 0.42mm
; perimeters extrusion width = 0.44mm
; infill extrusion width = 0.44mm
; solid infill extrusion width = 0.44mm
; top infill extrusion width = 0.40mm
; first layer extrusion width = 0.42mm

; external perimeters extrusion width = 0.42mm
; perimeters extrusion width = 0.44mm
; infill extrusion width = 0.44mm
; solid infill extrusion width = 0.44mm
; top infill extrusion width = 0.40mm
; first layer extrusion width = 0.42mm

M201 X500 Y500 Z100 E5000 ; sets maximum accelerations, mm/sec^2
M203 X500 Y500 Z10 E60 ; sets maximum feedrates, mm / sec
M204 S500 T1000 ; sets acceleration (S) and retract acceleration (R), mm/sec^2
M205 X8.00 Y8.00 Z0.40 E5.00 ; sets the jerk limits, mm/sec
M205 S0 T0 ; sets the minimum extruding and travel feed rate, mm/sec

; printing object base-basebase001.stl id:1 copy 0
; stop printing object base-basebase001.stl id:1 copy 0
; printing object base-basebase001.stl id:0 copy 0
; stop printing object base-basebase001.stl id:0 copy 0
; printing object slot-slotslot001.stl id:2 copy 0
; stop printing object slot-slotslot001.stl id:2 copy 0
; printing object slot-slotslot001.stl id:3 copy 0
; stop printing object slot-slotslot001.stl id:3 copy 0

;TYPE:Custom
G90 ; use absolute coordinates
M83 ; extruder relative mode
M104 S150 ; set temporary nozzle temp to prevent oozing during homing
M140 S60 ; set final bed temp
G4 S30 ; allow partial nozzle warmup
G28 ; home all axis
G1 Z50 F240
G1 X2.0 Y10 F3000
M104 S215 ; set final nozzle temp
M190 S60 ; wait for bed temp to stabilize
M109 S215 ; wait for nozzle temp to stabilize
G1 Z0.28 F240
G92 E0
G1 X2.0 Y140 E10 F1500 ; prime the nozzle
G1 X2.3 Y140 F5000
G92 E0
G1 X2.3 Y10 E10 F1200 ; prime the nozzle
G92 E0
G21 ; set units to millimeters
G90 ; use absolute coordinates
M83 ; use relative distances for extrusion
; Filament gcode
M107
;LAYER_CHANGE
;Z:0.2
;HEIGHT:0.2
;BEFORE_LAYER_CHANGE
G92 E0
;0.2


G1 E-5 F3600
G1 Z.2 F9000
;AFTER_LAYER_CHANGE
;0.2
G1 X62.517 Y48.917
G1 Z.2
G1 E5 F2400
M204 S500
;TYPE:Skirt/Brim
;WIDTH:0.42
G1 F1200
G1 X63.607 Y47.703 E.05116
G1 X65.5 Y47.123 E.06208
G1 X165.5 Y47.123 E3.13543
G1 X167.083 Y47.517 E.05115
G1 X168.297 Y48.607 E.05116
G1 X168.877 Y50.5 E.06208
G1 X168.877 Y115.548 E2.03953
G1 X167.877 Y185.548 E2.19502
G1 X167.46 Y187.126 E.05118
G1 X166.353 Y188.324 E.05114
G1 X164.5 Y188.877 E.06063
G1 X66.5 Y188.877 E3.07272
G1 X64.917 Y188.483 E.05115
G1 X63.703 Y187.393 E.05116
G1 X63.123 Y185.548 E.06064
G1 X62.123 Y115.5 E2.19653
G1 X62.123 Y50.5 E2.03803
G1 X62.503 Y48.975 E.04928
; printing object slot-slotslot001.stl id:3 copy 0
G1 E-3.5 F3600
;WIPE_START
G1 F7200
G1 X62.517 Y48.917 E-.02834
G1 X63.607 Y47.703 E-.77498
G1 X65.009 Y47.273 E-.69668
;WIPE_END
G1 X162.305 Y165.655 F9000
G1 E5 F2400
;TYPE:Perimeter
;WIDTH:0.419999
G1 F1200
G1 X162.254 Y165.614 E.00205
G1 X161.433 Y165.08 E.03071
G1 X160.773 Y164.771 E.02285
G1 X160.287 Y164.602 E.01613
G1 X159.573 Y164.431 E.02302
G1 X158.825 Y164.348 E.0236
G1 X157.708 Y164.388 E.03505
G1 X157.058 Y164.508 E.02072
G1 X156.451 Y164.687 E.01984
G1 X155.853 Y164.937 E.02032
G1 X154.895 Y165.501 E.03486
G1 X154.419 Y165.881 E.0191
G1 X153.964 Y166.327 E.01998
G1 X153.523 Y166.87 E.02193
G1 X152.931 Y167.866 E.03633
G1 X152.572 Y168.824 E.03208
G1 X152.427 Y169.452 E.02021
G1 X152.345 Y170.213 E.024
G1 X152.376 Y171.192 E.03071
G1 X152.515 Y171.959 E.02444
G1 X152.842 Y172.936 E.0323
G1 X152.916 Y173.102 E.0057
G1 X153.503 Y174.104 E.03641
G1 X154.196 Y174.912 E.03338
G1 X154.663 Y175.324 E.01953
G1 X155.185 Y175.693 E.02004
G1 X156.175 Y176.208 E.03499
G1 X156.76 Y176.412 E.01943
G1 X157.389 Y176.562 E.02027
G1 X158.093 Y176.647 E.02223
G1 X159.264 Y176.613 E.03673
G1 X160.273 Y176.4 E.03233
G1 X160.882 Y176.184 E.02026
G1 X161.575 Y175.839 E.02427
G1 X162.436 Y175.243 E.03283
G1 X162.885 Y174.831 E.01911
G1 X163.336 Y174.316 E.02146
G1 X163.336 Y184.336 E.31417
G1 X131.257 Y184.336 E1.00581
;WIDTH:0.459894
G1 X131.072 Y184.316 E.00645
;WIDTH:0.499788
G1 X130.886 Y184.296 E.00711
;WIDTH:0.539683
G1 X130.7 Y184.276 E.00773
;WIDTH:0.579577
G1 X130.514 Y184.256 E.00835
;WIDTH:0.589477
G1 X129.777 Y184.251 E.03349
G1 X129.687 Y184.27 E.00418
;WIDTH:0.551203
G1 X129.597 Y184.289 E.00389
;WIDTH:0.512928
G1 X129.508 Y184.309 E.00356
;WIDTH:0.474653
G1 X129.418 Y184.328 E.0033
;WIDTH:0.436378
G1 X129.011 Y184.336 E.01332
;WIDTH:0.419999
G1 X124.723 Y184.336 E.13445
;WIDTH:0.460802
G1 X124.604 Y184.315 E.0042
;WIDTH:0.501605
G1 X124.484 Y184.295 E.00464
;WIDTH:0.542407
G1 X124.365 Y184.275 E.00501
;WIDTH:0.57077
G1 X123.986 Y184.26 E.01665
;WIDTH:0.58787
G1 X123.426 Y184.245 E.02538
G1 X123.307 Y184.271 E.00552
;WIDTH:0.539169
G1 X123.188 Y184.298 E.00504
;WIDTH:0.490467
G1 X123.069 Y184.325 E.00454
;WIDTH:0.441765
G1 X122.658 Y184.336 E.01364
;WIDTH:0.419999
G1 X119.391 Y184.336 E.10243
;WIDTH:0.46567
G1 X118.398 Y184.313 E.03492
;WIDTH:0.50666
G1 X118.302 Y184.293 E.00378
;WIDTH:0.54765
G1 X118.205 Y184.272 E.00417
;WIDTH:0.588639
G1 X118.109 Y184.252 E.00445
G1 X117.408 Y184.256 E.03181
;WIDTH:0.578864
G1 X117.279 Y184.276 E.00582
;WIDTH:0.539148
G1 X117.151 Y184.296 E.00535
;WIDTH:0.499432
G1 X117.023 Y184.316 E.00492
;WIDTH:0.459716
G1 X116.894 Y184.336 E.00452
;WIDTH:0.419999
G1 X111.257 Y184.336 E.17674
;WIDTH:0.459894
G1 X111.071 Y184.316 E.00649
;WIDTH:0.499788
G1 X110.886 Y184.296 E.00707
;WIDTH:0.539683
G1 X110.7 Y184.276 E.00773
;WIDTH:0.579577
G1 X110.514 Y184.256 E.00835
;WIDTH:0.589478
G1 X109.777 Y184.251 E.03349
G1 X109.687 Y184.27 E.00418
;WIDTH:0.551203
G1 X109.597 Y184.289 E.00389
;WIDTH:0.512928
G1 X109.508 Y184.309 E.00356
;WIDTH:0.474653
G1 X109.418 Y184.328 E.0033
;WIDTH:0.436377
G1 X109.011 Y184.336 E.01332
;WIDTH:0.419999
G1 X104.723 Y184.336 E.13445
;WIDTH:0.460802
G1 X104.604 Y184.315 E.0042
;WIDTH:0.501605
G1 X104.484 Y184.295 E.00464
;WIDTH:0.542407
G1 X104.365 Y184.275 E.00501
;WIDTH:0.57077
G1 X103.986 Y184.26 E.01665
;WIDTH:0.587871
G1 X103.426 Y184.245 E.02538
G1 X103.307 Y184.271 E.00552
;WIDTH:0.539169
G1 X103.188 Y184.298 E.00504
;WIDTH:0.490467
G1 X103.069 Y184.325 E.00454
;WIDTH:0.441765
G1 X102.658 Y184.336 E.01364
;WIDTH:0.419999
G1 X99.391 Y184.336 E.10243
;WIDTH:0.465671
G1 X98.398 Y184.313 E.03492
;WIDTH:0.506661
G1 X98.302 Y184.293 E.00378
;WIDTH:0.54765
G1 X98.205 Y184.272 E.00417
;WIDTH:0.588639
G1 X98.109 Y184.252 E.00445
G1 X97.408 Y184.256 E.03181
;WIDTH:0.578865
G1 X97.279 Y184.276 E.00582
;WIDTH:0.539149
G1 X97.151 Y184.296 E.00535
;WIDTH:0.499432
G1 X97.023 Y184.316 E.00492
;WIDTH:0.459716
G1 X96.894 Y184.336 E.00452
;WIDTH:0.419999
G1 X67.664 Y184.336 E.91648
G1 X67.664 Y174.317 E.31414
G1 X68.196 Y174.912 E.02503
G1 X68.663 Y175.323 E.01951
G1 X69.185 Y175.693 E.02006
G1 X70.175 Y176.208 E.03499
G1 X70.76 Y176.412 E.01943
G1 X71.389 Y176.562 E.02027
G1 X72.093 Y176.647 E.02223
G1 X73.264 Y176.613 E.03673
G1 X74.399 Y176.364 E.03643
G1 X74.882 Y176.184 E.01616
G1 X75.575 Y175.839 E.02427
G1 X76.436 Y175.243 E.03283
G1 X76.885 Y174.831 E.01911
G1 X77.287 Y174.382 E.0189
G1 X77.658 Y173.869 E.01985
G1 X78.152 Y172.96 E.03244
G1 X78.341 Y172.468 E.01653
G1 X78.49 Y171.917 E.0179
G1 X78.584 Y171.381 E.01706
G1 X78.66 Y170.412 E.03048
G1 X78.544 Y169.295 E.03521
G1 X78.388 Y168.678 E.01995
G1 X78.158 Y168.056 E.02079
G1 X77.83 Y167.411 E.02269
G1 X77.256 Y166.584 E.03156
G1 X77.136 Y166.444 E.00578
G1 X76.387 Y165.721 E.03264
G1 X76.254 Y165.614 E.00535
G1 X75.433 Y165.08 E.03071
G1 X74.773 Y164.771 E.02285
G1 X74.287 Y164.602 E.01613
G1 X73.573 Y164.431 E.02302
G1 X72.825 Y164.348 E.0236
G1 X71.708 Y164.388 E.03505
G1 X71.058 Y164.508 E.02072
G1 X70.451 Y164.687 E.01984
G1 X69.853 Y164.937 E.02032
G1 X68.895 Y165.501 E.03486
G1 X68.419 Y165.881 E.0191
G1 X68.032 Y166.255 E.01687
G1 X67.664 Y166.685 E.01775
G1 X67.664 Y156.664 E.3142
G1 X163.336 Y156.664 E2.99972
G1 X163.34 Y166.694 E.31448
G1 X163.136 Y166.444 E.01012
G1 X162.387 Y165.721 E.03264
G1 X162.352 Y165.693 E.00141
G1 X162.068 Y165.954 F9000
G1 F1200
G1 X161.271 Y165.42 E.03008
G1 X160.699 Y165.148 E.01986
G1 X160.196 Y164.968 E.01675
G1 X159.526 Y164.805 E.02162
G1 X158.835 Y164.725 E.02181
G1 X157.773 Y164.759 E.03332
G1 X157.163 Y164.87 E.01944
G1 X156.591 Y165.037 E.01868
G1 X156.042 Y165.264 E.01863
G1 X155.128 Y165.797 E.03317
G1 X154.681 Y166.153 E.01792
G1 X154.253 Y166.57 E.01874
G1 X153.844 Y167.067 E.02018
G1 X153.284 Y167.998 E.03406
G1 X152.912 Y168.995 E.03337
G1 X152.801 Y169.497 E.01612
G1 X152.722 Y170.204 E.02231
G1 X152.748 Y171.131 E.02908
G1 X152.873 Y171.84 E.02257
G1 X153.244 Y172.916 E.03569
G1 X153.791 Y173.861 E.03424
G1 X154.448 Y174.631 E.03174
G1 X154.886 Y175.019 E.01835
G1 X155.362 Y175.36 E.01836
G1 X156.302 Y175.853 E.03328
G1 X156.85 Y176.046 E.01822
G1 X157.44 Y176.188 E.01903
G1 X158.088 Y176.27 E.02048
G1 X159.186 Y176.244 E.03444
G1 X160.195 Y176.031 E.03233
G1 X160.719 Y175.844 E.01744
G1 X161.363 Y175.527 E.02251
G1 X162.183 Y174.963 E.0312
G1 X162.606 Y174.577 E.01795
G1 X162.985 Y174.157 E.01774
G1 X163.321 Y173.699 E.01781
G1 X163.713 Y173.01 E.02485
G1 X163.713 Y184.713 E.36694
G1 X67.287 Y184.713 E3.02336
G1 X67.291 Y173.024 E.3665
G1 X67.658 Y173.668 E.02324
G1 X68.035 Y174.18 E.01994
G1 X68.448 Y174.631 E.01917
G1 X68.886 Y175.019 E.01835
G1 X69.362 Y175.36 E.01836
G1 X70.302 Y175.853 E.03328
G1 X70.85 Y176.046 E.01822
G1 X71.44 Y176.188 E.01903
G1 X72.088 Y176.27 E.02048
G1 X73.186 Y176.244 E.03444
G1 X74.195 Y176.031 E.03233
G1 X74.719 Y175.844 E.01744
G1 X75.363 Y175.527 E.02251
G1 X76.183 Y174.963 E.0312
G1 X76.606 Y174.577 E.01795
G1 X76.985 Y174.157 E.01774
G1 X77.327 Y173.688 E.0182
G1 X77.809 Y172.803 E.0316
G1 X77.988 Y172.334 E.01574
G1 X78.125 Y171.822 E.01662
G1 X78.209 Y171.345 E.01519
G1 X78.285 Y170.448 E.02823
G1 X78.178 Y169.385 E.0335
G1 X78.033 Y168.806 E.01871
G1 X77.819 Y168.222 E.0195
G1 X77.52 Y167.626 E.02091
G1 X76.946 Y166.799 E.03156
G1 X76.125 Y165.992 E.0361
G1 X75.271 Y165.42 E.03223
G1 X74.699 Y165.148 E.01986
G1 X74.196 Y164.968 E.01675
G1 X73.526 Y164.805 E.02162
G1 X72.835 Y164.725 E.02181
G1 X71.773 Y164.759 E.03332
G1 X71.163 Y164.87 E.01944
G1 X70.591 Y165.037 E.01868
G1 X70.042 Y165.264 E.01863
G1 X69.128 Y165.797 E.03317
G1 X68.681 Y166.153 E.01792
G1 X68.253 Y166.57 E.01874
G1 X67.844 Y167.067 E.02018
G1 X67.287 Y167.993 E.03388
G1 X67.287 Y156.287 E.36703
G1 X163.713 Y156.287 E3.02336
G1 X163.717 Y168.011 E.3676
G1 X163.636 Y167.836 E.00605
G1 X163.3 Y167.269 E.02066
G1 X162.874 Y166.715 E.02191
G1 X162.125 Y165.992 E.03264
G1 X162.117 Y165.987 E.0003
G1 E-3.5 F3600
;WIPE_START
G1 F7200
G1 X162.068 Y165.954 E-.02806
G1 X161.271 Y165.42 E-.45569
G1 X160.699 Y165.148 E-.30085
G1 X160.196 Y164.968 E-.25376
G1 X159.526 Y164.805 E-.32753
G1 X159.245 Y164.772 E-.13411
;WIPE_END
G1 X164.09 Y155.91 F9000
G1 E5 F2400
;TYPE:External perimeter
G1 F1200
G1 X164.095 Y168.521 E.39541
;WIDTH:0.430144
G1 X164.177 Y170.011 E.04805
;WIDTH:0.422285
G1 X164.18 Y170.489 E.01508
;WIDTH:0.429574
G1 X164.172 Y170.999 E.0164
;WIDTH:0.431259
G1 X164.118 Y171.801 E.02596
G1 X164.101 Y172.469 E.02158
;WIDTH:0.419999
G1 X164.09 Y185.09 E.39572
G1 X66.91 Y185.09 E3.04701
G1 X66.909 Y172.996 E.3792
;WIDTH:0.448849
G1 X66.903 Y171.986 E.03409
G1 X66.84 Y171.264 E.02446
;WIDTH:0.419439
G1 X66.82 Y170.606 E.02061
;WIDTH:0.419856
G1 X66.826 Y169.953 E.02047
;WIDTH:0.425707
G1 X66.871 Y169.323 E.0201
;WIDTH:0.432951
G1 X66.899 Y168.805 E.01682
G1 X66.91 Y168 E.02611
;WIDTH:0.419999
G1 X66.91 Y155.91 E.37907
G1 X164.03 Y155.91 E3.04512
G1 E-3.5 F3600
;WIPE_START
G1 F7200
G1 X164.09 Y155.91 E-.0285
G1 X164.091 Y159.008 E-1.4715
;WIPE_END
G1 X161.837 Y166.242 F9000
G1 E5 F2400
G1 F1200
G1 X162.613 Y166.986 E.03371
G1 X162.999 Y167.496 E.02005
G1 X163.311 Y168.026 E.01928
G1 X163.551 Y168.572 E.0187
;WIDTH:0.433486
G1 X163.745 Y169.31 E.02478
G1 X163.791 Y169.854 E.01773
;WIDTH:0.420523
G1 X163.809 Y170.495 E.02013
;WIDTH:0.428446
G1 X163.74 Y171.704 E.03882
G1 X163.562 Y172.395 E.02287
;WIDTH:0.419999
G1 X163.369 Y172.857 E.0157
G1 X162.995 Y173.511 E.02362
G1 X162.682 Y173.932 E.01645
G1 X162.327 Y174.323 E.01656
G1 X161.93 Y174.683 E.0168
G1 X161.151 Y175.215 E.02958
G1 X160.555 Y175.504 E.02077
G1 X160.117 Y175.662 E.0146
G1 X159.108 Y175.875 E.03233
G1 X158.082 Y175.893 E.03217
G1 X157.491 Y175.815 E.01869
G1 X156.94 Y175.68 E.01779
G1 X156.43 Y175.498 E.01698
G1 X155.539 Y175.027 E.0316
G1 X155.108 Y174.715 E.01668
G1 X154.699 Y174.35 E.01719
G1 X154.079 Y173.618 E.03008
G1 X153.557 Y172.697 E.03319
G1 X153.223 Y171.691 E.03324
G1 X153.12 Y171.069 E.01977
G1 X153.099 Y170.196 E.02738
G1 X153.176 Y169.542 E.02065
G1 X153.278 Y169.089 E.01456
G1 X153.637 Y168.131 E.03208
G1 X154.165 Y167.264 E.03183
G1 X154.542 Y166.812 E.01845
G1 X154.943 Y166.424 E.0175
G1 X155.361 Y166.094 E.0167
G1 X156.23 Y165.59 E.0315
G1 X156.732 Y165.387 E.01698
G1 X157.267 Y165.233 E.01746
G1 X157.838 Y165.131 E.01819
G1 X158.845 Y165.102 E.03159
G1 X159.479 Y165.18 E.02003
G1 X160.105 Y165.334 E.02021
G1 X160.537 Y165.488 E.01438
G1 X161.109 Y165.761 E.01987
G1 X161.787 Y166.209 E.02548
G1 E-3.5 F3600
;WIPE_START
G1 F7200
G1 X161.837 Y166.242 E-.02846
G1 X162.613 Y166.986 E-.51064
G1 X162.999 Y167.496 E-.30381
G1 X163.311 Y168.026 E-.29213
G1 X163.551 Y168.572 E-.2833
;WIPE_END
G1 E-.08166 F3600
G1 X123.933 Y178.272 F9000
G1 E5 F2400
;TYPE:Perimeter
G1 F1200
G1 X124.506 Y177.952 E.02058
G1 X124.963 Y177.736 E.01585
G1 X125.717 Y177.499 E.02478
G1 X126.69 Y177.352 E.03085
G1 X127.343 Y177.343 E.02048
G1 X128.03 Y177.431 E.02172
G1 X128.548 Y177.534 E.01656
G1 X129.007 Y177.67 E.01501
G1 X129.488 Y177.866 E.01629
G1 X130.007 Y178.139 E.01839
G1 X130.507 Y178.471 E.01882
G1 X131.268 Y179.163 E.03225
G1 X131.727 Y179.743 E.02319
G1 X132.037 Y180.279 E.01941
G1 X132.266 Y180.861 E.01961
G1 X132.376 Y181.464 E.01922
G1 X132.315 Y181.989 E.01657
G1 X132.081 Y182.581 E.01996
G1 X131.805 Y182.963 E.01478
G1 X131.35 Y183.335 E.01843
;WIDTH:0.456835
G1 X131.065 Y183.478 E.01097
;WIDTH:0.493671
G1 X130.781 Y183.621 E.01192
;WIDTH:0.541123
G1 X130.705 Y183.665 E.00364
;WIDTH:0.588575
G1 X130.628 Y183.71 E.00405
G1 X130.093 Y183.734 E.0243
;WIDTH:0.589477
G1 X129.843 Y183.713 E.0114
G1 X129.697 Y183.644 E.00734
;WIDTH:0.547108
G1 X129.552 Y183.575 E.00673
;WIDTH:0.504738
G1 X129.406 Y183.506 E.0062
;WIDTH:0.462369
G1 X129.26 Y183.437 E.00563
;WIDTH:0.419999
G1 X128.739 Y183.078 E.01984
G1 X128.344 Y182.582 E.01988
G1 X128.116 Y182.025 E.01887
G1 X128.093 Y181.919 E.0034
G1 X127.703 Y181.753 E.01329
G1 X127.171 Y181.668 E.01689
G1 X126.52 Y181.732 E.02051
G1 X126.178 Y181.847 E.01131
G1 X126.036 Y181.923 E.00505
G1 X125.896 Y182.399 E.01556
G1 X125.577 Y182.888 E.01831
G1 X125.317 Y183.148 E.01153
G1 X124.92 Y183.413 E.01497
;WIDTH:0.460802
G1 X124.711 Y183.505 E.00793
;WIDTH:0.501605
G1 X124.502 Y183.598 E.00872
;WIDTH:0.542407
G1 X124.293 Y183.69 E.00948
;WIDTH:0.569998
G1 X124.049 Y183.734 E.01087
;WIDTH:0.58787
G1 X123.482 Y183.704 E.02573
G1 X123.346 Y183.631 E.00699
;WIDTH:0.545903
G1 X123.21 Y183.558 E.00646
;WIDTH:0.503935
G1 X123.074 Y183.485 E.00592
;WIDTH:0.461967
G1 X122.938 Y183.413 E.00536
;WIDTH:0.419999
G1 X122.541 Y183.148 E.01497
G1 X122.281 Y182.888 E.01153
G1 X121.964 Y182.402 E.01819
G1 X121.831 Y181.933 E.01528
G1 X121.471 Y181.775 E.01233
G1 X120.94 Y181.677 E.01693
G1 X120.409 Y181.699 E.01666
G1 X119.998 Y181.807 E.01332
G1 X119.747 Y181.949 E.00904
G1 X119.612 Y182.402 E.01482
G1 X119.399 Y182.76 E.01306
