; generated by PrusaSlicer 2.7.1 on 2024-01-06 at 21:23:30 UTC

; 

; external perimeters extrusion width = 0.42mm
; perimeters extrusion width = 0.44mm
; infill extrusion width = 0.44mm
; solid infill extrusion width = 0.44mm
; top infill extrusion width = 0.40mm
; first layer extrusion width = 0.42mm

; external perimeters extrusion width = 0.42mm
; perimeters extrusion width = 0.44mm
; infill extrusion width = 0.44mm
; solid infill extrusion width = 0.44mm
; top infill extrusion width = 0.40mm
; first layer extrusion width = 0.42mm

; external perimeters extrusion width = 0.42mm
; perimeters extrusion width = 0.44mm
; infill extrusion width = 0.44mm
; solid infill extrusion width = 0.44mm
; top infill extrusion width = 0.40mm
; first layer extrusion width = 0.42mm

; external perimeters extrusion width = 0.42mm
; perimeters extrusion width = 0.44mm
; infill extrusion width = 0.44mm
; solid infill extrusion width = 0.44mm
; top infill extrusion width = 0.40mm
; first layer extrusion width = 0.42mm

M201 X500 Y500 Z100 E5000 ; sets maximum accelerations, mm/sec^2
M203 X500 Y500 Z10 E60 ; sets maximum feedrates, mm / sec
M204 S500 T1000 ; sets acceleration (S) and retract acceleration (R), mm/sec^2
M205 X8.00 Y8.00 Z0.40 E5.00 ; sets the jerk limits, mm/sec
M205 S0 T0 ; sets the minimum extruding and travel feed rate, mm/sec

; printing object eccentric-eccentric.stl id:2 copy 0
; stop printing object eccentric-eccentric.stl id:2 copy 0
; printing object eccentric-eccentric.stl id:0 copy 0
; stop printing object eccentric-eccentric.stl id:0 copy 0
; printing object eccentric-eccentric.stl id:1 copy 0
; stop printing object eccentric-eccentric.stl id:1 copy 0
; printing object eccentric-eccentric.stl id:3 copy 0
; stop printing object eccentric-eccentric.stl id:3 copy 0

;TYPE:Custom
G90 ; use absolute coordinates
M83 ; extruder relative mode
M104 S150 ; set temporary nozzle temp to prevent oozing during homing
M140 S60 ; set final bed temp
G4 S30 ; allow partial nozzle warmup
G28 ; home all axis
G1 Z50 F240
G1 X2.0 Y10 F3000
M104 S215 ; set final nozzle temp
M190 S60 ; wait for bed temp to stabilize
M109 S215 ; wait for nozzle temp to stabilize
G1 Z0.28 F240
G92 E0
G1 X2.0 Y140 E10 F1500 ; prime the nozzle
G1 X2.3 Y140 F5000
G92 E0
G1 X2.3 Y10 E10 F1200 ; prime the nozzle
G92 E0
G21 ; set units to millimeters
G90 ; use absolute coordinates
M83 ; use relative distances for extrusion
; Filament gcode
M107
;LAYER_CHANGE
;Z:0.2
;HEIGHT:0.2
;BEFORE_LAYER_CHANGE
G92 E0
;0.2


G1 E-5 F3600
G1 Z.2 F9000
;AFTER_LAYER_CHANGE
;0.2
G1 X109.116 Y108.904
G1 Z.2
G1 E5 F2400
M204 S500
;TYPE:Skirt/Brim
;WIDTH:0.42
G1 F1200
G1 X110.322 Y107.922 E.04876
G1 X111.051 Y107.473 E.02684
G1 X112.472 Y106.838 E.0488
G1 X113.184 Y106.624 E.02331
G1 X114.674 Y106.363 E.04743
G1 X116.23 Y106.357 E.04879
G1 X117.765 Y106.613 E.04879
G1 X119.234 Y107.125 E.04878
G1 X120.595 Y107.878 E.04877
G1 X121.749 Y108.788 E.04608
G1 X155.499 Y142.538 E1.49653
G1 X156.593 Y143.764 E.05152
G1 X157.414 Y145.085 E.04877
G1 X157.767 Y145.866 E.02687
G1 X158.205 Y147.314 E.04743
G1 X158.407 Y148.9 E.05013
G1 X158.335 Y150.454 E.04878
G1 X158 Y151.973 E.04877
G1 X157.414 Y153.415 E.0488
G1 X157.072 Y154.026 E.02195
G1 X156.153 Y155.281 E.04877
G1 X155.034 Y156.362 E.04878
G1 X153.749 Y157.239 E.04878
G1 X152.334 Y157.886 E.04878
G1 X150.83 Y158.284 E.04878
G1 X149.28 Y158.423 E.04879
G1 X147.729 Y158.298 E.04879
G1 X146.222 Y157.912 E.04878
G1 X144.801 Y157.277 E.0488
G1 X143.509 Y156.411 E.04877
G1 X142.674 Y155.666 E.03509
G1 X108.924 Y121.916 E1.49653
G1 X108.093 Y120.923 E.0406
G1 X107.283 Y119.595 E.04877
G1 X106.723 Y118.189 E.04745
G1 X106.532 Y117.471 E.0233
G1 X106.328 Y115.928 E.0488
G1 X106.387 Y114.374 E.04876
G1 X106.532 Y113.529 E.02688
G1 X106.994 Y112.044 E.04876
G1 X107.648 Y110.751 E.04543
G1 X108.093 Y110.077 E.02532
G1 X109.076 Y108.95 E.04689
G1 X109.358 Y109.195 F9000
G1 F1200
G1 X109.365 Y109.188 E.00031
G1 X110.52 Y108.243 E.04679
G1 X111.818 Y107.507 E.04679
G1 X113.221 Y107.001 E.04676
G1 X114.69 Y106.74 E.04678
G1 X116.182 Y106.731 E.04678
G1 X117.654 Y106.974 E.04678
G1 X119.064 Y107.462 E.04678
G1 X120.371 Y108.181 E.04677
G1 X121.482 Y109.055 E.04432
G1 X155.232 Y142.805 E1.49653
G1 X156.28 Y143.975 E.04925
G1 X157.071 Y145.241 E.04681
G1 X157.423 Y146.021 E.02683
G1 X157.84 Y147.409 E.04544
G1 X158.032 Y148.932 E.04813
G1 X157.959 Y150.422 E.04677
G1 X157.635 Y151.878 E.04677
G1 X157.071 Y153.259 E.04677
G1 X156.28 Y154.525 E.04681
G1 X155.88 Y155.02 E.01995
G1 X154.81 Y156.059 E.04676
G1 X153.579 Y156.902 E.04678
G1 X152.223 Y157.525 E.04679
G1 X150.782 Y157.91 E.04677
G1 X149.296 Y158.046 E.04679
G1 X147.809 Y157.929 E.04677
G1 X146.362 Y157.562 E.04681
G1 X144.999 Y156.956 E.04677
G1 X143.758 Y156.128 E.04678
G1 X142.94 Y155.399 E.03435
G1 X109.19 Y121.649 E1.49653
G1 X108.386 Y120.686 E.03933
G1 X107.612 Y119.411 E.04677
G1 X107.1 Y118.124 E.04343
G1 X106.904 Y117.407 E.02331
G1 X106.705 Y115.928 E.04679
G1 X106.759 Y114.437 E.04678
G1 X106.904 Y113.593 E.02685
G1 X107.349 Y112.169 E.04678
G1 X107.977 Y110.935 E.04341
G1 X108.386 Y110.314 E.02331
G1 X109.319 Y109.24 E.04461
G1 X109.602 Y109.485 F9000
G1 F1200
G1 X109.614 Y109.471 E.00058
G1 X110.717 Y108.564 E.04477
G1 X111.447 Y108.115 E.02687
G1 X112.753 Y107.538 E.04477
G1 X114.706 Y107.117 E.06264
G1 X116.134 Y107.105 E.04478
G1 X117.544 Y107.334 E.04479
G1 X118.894 Y107.799 E.04477
G1 X120.147 Y108.485 E.04479
G1 X121.215 Y109.321 E.04253
G1 X154.965 Y143.071 E1.49653
G1 X155.968 Y144.186 E.04702
G1 X156.727 Y145.396 E.04478
G1 X157.08 Y146.177 E.02687
G1 X157.476 Y147.504 E.04342
G1 X157.656 Y148.964 E.04612
G1 X157.583 Y150.39 E.04477
G1 X157.271 Y151.783 E.04476
G1 X156.727 Y153.104 E.04479
G1 X155.968 Y154.314 E.04478
G1 X154.585 Y155.756 E.06265
G1 X153.409 Y156.566 E.04477
G1 X152.113 Y157.165 E.04477
G1 X150.734 Y157.536 E.04478
G1 X149.312 Y157.669 E.04478
G1 X147.888 Y157.56 E.04478
G1 X146.503 Y157.212 E.04478
G1 X145.197 Y156.635 E.04477
G1 X144.007 Y155.845 E.04479
G1 X143.207 Y155.132 E.0336
G1 X109.457 Y121.382 E1.49653
G1 X108.679 Y120.449 E.03809
G1 X107.941 Y119.227 E.04476
G1 X107.455 Y117.998 E.04144
G1 X107.275 Y117.343 E.0213
G1 X107.082 Y115.928 E.04478
G1 X107.131 Y114.501 E.04477
G1 X107.275 Y113.657 E.02685
G1 X107.705 Y112.295 E.04478
G1 X108.679 Y110.551 E.06263
G1 X109.562 Y109.53 E.04232
; printing object eccentric-eccentric.stl id:3 copy 0
G1 E-3.5 F3600
;WIPE_START
G1 F7200
G1 X109.602 Y109.485 E-.0286
G1 X109.614 Y109.471 E-.00876
G1 X110.717 Y108.564 E-.67831
G1 X111.447 Y108.115 E-.40709
G1 X112.173 Y107.794 E-.37724
;WIPE_END
G1 X147.577 Y147.329 F9000
G1 E5 F2400
;TYPE:Perimeter
;WIDTH:0.419999
G1 F1200
G1 X147.577 Y151.376 E.12689
G1 X147.664 Y151.773 E.01274
;WIDTH:0.460187
G1 X147.748 Y151.894 E.00511
;WIDTH:0.500375
G1 X147.831 Y152.014 E.00555
;WIDTH:0.540563
G1 X147.914 Y152.135 E.00607
;WIDTH:0.580751
G1 X147.997 Y152.255 E.00653
G1 X148.328 Y152.436 E.01687
;WIDTH:0.551629
G1 X148.587 Y152.547 E.01192
;WIDTH:0.511201
G1 X148.846 Y152.659 E.01099
;WIDTH:0.470772
G1 X149.558 Y152.873 E.02645
G1 X150.329 Y152.935 E.02752
G1 X150.049 Y153.02 E.01041
G1 X149.306 Y153.098 E.02658
;WIDTH:0.473301
G1 X148.688 Y153.06 E.02216
;WIDTH:0.512465
G1 X148.396 Y152.975 E.01187
;WIDTH:0.551629
G1 X147.794 Y152.78 E.02677
;WIDTH:0.521248
G1 X147.485 Y152.669 E.01306
;WIDTH:0.490867
G1 X147.209 Y152.52 E.01168
;WIDTH:0.455433
G1 X146.933 Y152.371 E.01076
;WIDTH:0.419999
G1 X146.439 Y151.936 E.02064
G1 X146.025 Y151.424 E.02064
G1 X145.704 Y150.849 E.02065
G1 X145.485 Y150.228 E.02065
G1 X145.373 Y149.579 E.02065
G1 X145.373 Y148.921 E.02063
G1 X145.485 Y148.272 E.02065
G1 X145.704 Y147.651 E.02065
G1 X146.025 Y147.076 E.02065
G1 X146.439 Y146.564 E.02064
G1 X146.902 Y146.157 E.01933
G1 X147.232 Y145.968 E.01192
;WIDTH:0.462593
G1 X147.338 Y145.93 E.00393
;WIDTH:0.505187
G1 X147.444 Y145.891 E.00434
;WIDTH:0.547781
G1 X147.55 Y145.852 E.00474
;WIDTH:0.590374
G1 X148.145 Y145.597 E.02947
;WIDTH:0.551627
G1 X148.448 Y145.511 E.01332
;WIDTH:0.511199
G1 X148.751 Y145.425 E.01226
;WIDTH:0.47077
G1 X149.405 Y145.397 E.02329
G1 X150.026 Y145.477 E.02228
G1 X150.321 Y145.565 E.01095
G1 X150.025 Y145.577 E.01054
G1 X149.355 Y145.671 E.02407
;WIDTH:0.501294
G1 X148.606 Y145.929 E.03019
;WIDTH:0.545834
G1 X148.262 Y146.11 E.01625
;WIDTH:0.590374
G1 X147.918 Y146.291 E.01769
G1 X147.855 Y146.4 E.00573
;WIDTH:0.547781
G1 X147.791 Y146.509 E.00531
;WIDTH:0.505187
G1 X147.728 Y146.618 E.00484
;WIDTH:0.462593
G1 X147.664 Y146.727 E.00441
;WIDTH:0.419999
G1 X147.577 Y147.124 E.01274
G1 X147.577 Y147.269 E.00455
G1 X147.954 Y147.168 F9000
G1 F1200
G1 X147.954 Y147.124 E.00138
G1 X148.006 Y146.886 E.00764
G1 X148.068 Y146.784 E.00374
G1 X148.23 Y146.638 E.00684
G1 X148.819 Y146.288 E.02148
G1 X149.482 Y146.053 E.02206
G1 X150.068 Y145.977 E.01853
G1 X150.655 Y146.003 E.01842
;WIDTH:0.457423
G1 X150.776 Y146.002 E.00417
;WIDTH:0.494846
G1 X150.897 Y146.001 E.00455
;WIDTH:0.532269
G1 X151.017 Y146 E.00488
G1 X151.288 Y146.109 E.01189
;WIDTH:0.496731
G1 X151.559 Y146.218 E.01102
;WIDTH:0.461193
G1 X151.898 Y146.439 E.01407
;WIDTH:0.413502
G1 X152.238 Y146.661 E.01251
;WIDTH:0.36581
G1 X152.448 Y146.907 E.00868
;WIDTH:0.378882
G1 X152.484 Y147.015 E.00318
;WIDTH:0.40421
G1 X152.52 Y147.124 E.00345
;WIDTH:0.419999
G1 X152.528 Y151.376 E.13332
G1 X152.437 Y151.56 E.00644
;WIDTH:0.386547
G1 X152.347 Y151.744 E.00585
;WIDTH:0.393814
G1 X152.084 Y151.935 E.00948
;WIDTH:0.434533
G1 X151.821 Y152.127 E.0106
;WIDTH:0.474312
G1 X151.536 Y152.27 E.01144
;WIDTH:0.514091
G1 X151.251 Y152.413 E.01249
;WIDTH:0.534238
G1 X151.001 Y152.506 E.0109
G1 X150.768 Y152.516 E.00953
;WIDTH:0.496159
G1 X150.534 Y152.526 E.00883
;WIDTH:0.458079
G1 X150.301 Y152.535 E.00805
;WIDTH:0.419999
G1 X149.601 Y152.473 E.02203
G1 X148.973 Y152.277 E.02063
G1 X148.23 Y151.862 E.02668
G1 X148.006 Y151.614 E.01048
G1 X147.954 Y151.376 E.00764
G1 X147.954 Y147.228 E.13006
G1 E-3.5 F3600
;WIPE_START
G1 F7200
G1 X147.954 Y147.168 E-.0285
G1 X147.954 Y147.124 E-.0209
G1 X148.006 Y146.886 E-.11572
G1 X148.068 Y146.784 E-.0567
;WIPE_END
G1 E-1.27818 F3600
G1 X147.993 Y145.177 F9000
G1 E5 F2400
G1 F1200
G1 X148.7 Y145.024 E.02268
G1 X149.288 Y144.999 E.01845
G1 X149.611 Y145.018 E.01014
G1 X150.258 Y145.126 E.02057
G1 X150.859 Y145.312 E.01973
;WIDTH:0.467045
G1 X151.163 Y145.493 E.01248
;WIDTH:0.51409
G1 X151.764 Y145.872 E.02784
;WIDTH:0.474312
G1 X152.062 Y146.07 E.01283
;WIDTH:0.434533
G1 X152.249 Y146.24 E.00823
;WIDTH:0.400172
G1 X152.437 Y146.411 E.00755
;WIDTH:0.36581
G1 X152.719 Y146.756 E.01196
;WIDTH:0.386776
G1 X152.843 Y146.973 E.00715
;WIDTH:0.419999
G1 X152.968 Y147.19 E.00785
G1 X153.266 Y147.862 E.02305
G1 X153.437 Y148.544 E.02205
G1 X153.497 Y149.294 E.02359
G1 X153.43 Y150.008 E.02249
G1 X153.244 Y150.698 E.02241
G1 X152.949 Y151.344 E.02227
G1 X152.802 Y151.594 E.00909
;WIDTH:0.384191
G1 X152.654 Y151.844 E.00824
;WIDTH:0.36581
G1 X152.437 Y152.089 E.00879
;WIDTH:0.404696
G1 X152.163 Y152.323 E.01084
;WIDTH:0.443582
G1 X151.89 Y152.556 E.01196
;WIDTH:0.478837
G1 X151.661 Y152.701 E.00982
;WIDTH:0.514091
G1 X151.116 Y153.029 E.02492
;WIDTH:0.467329
G1 X150.799 Y153.212 E.01292
;WIDTH:0.420566
G1 X150.1 Y153.419 E.02289
;WIDTH:0.419999
G1 X149.288 Y153.501 E.02559
G1 X148.603 Y153.455 E.02153
G1 X147.938 Y153.301 E.0214
G1 X147.268 Y153.02 E.02278
G1 X146.653 Y152.627 E.02288
G1 X146.046 Y152.05 E.02626
G1 X145.661 Y151.545 E.01991
G1 X145.321 Y150.896 E.02297
G1 X145.098 Y150.203 E.02283
G1 X144.996 Y149.485 E.02274
G1 X145.017 Y148.765 E.02258
G1 X145.159 Y148.061 E.02252
G1 X145.415 Y147.395 E.02237
G1 X145.777 Y146.783 E.02229
G1 X146.232 Y146.244 E.02212
G1 X146.77 Y145.786 E.02215
G1 X147.247 Y145.493 E.01755
G1 X147.938 Y145.2 E.02353
G1 X147.883 Y144.815 F9000
;TYPE:External perimeter
G1 F1200
G1 X148.652 Y144.649 E.02467
G1 X149.438 Y144.616 E.02467
G1 X150.193 Y144.712 E.02386
G1 X150.971 Y144.946 E.02547
G1 X151.673 Y145.3 E.02465
G1 X152.305 Y145.768 E.02466
G1 X152.689 Y146.168 E.01739
G1 X153.004 Y146.564 E.01587
G1 X153.312 Y147.035 E.01765
G1 X153.631 Y147.767 E.02504
G1 X153.813 Y148.51 E.02398
G1 X153.873 Y149.326 E.02565
G1 X153.813 Y150.034 E.02228
G1 X153.614 Y150.795 E.02466
G1 X153.29 Y151.512 E.02467
G1 X152.85 Y152.164 E.02466
G1 X152.305 Y152.732 E.02468
G1 X151.673 Y153.2 E.02466
G1 X150.97 Y153.554 E.02468
G1 X150.218 Y153.784 E.02466
G1 X149.438 Y153.884 E.02466
G1 X148.652 Y153.851 E.02467
G1 X147.883 Y153.685 E.02467
G1 X147.153 Y153.392 E.02466
G1 X146.483 Y152.979 E.02468
G1 X145.983 Y152.539 E.02088
G1 X145.753 Y152.287 E.0107
G1 X145.331 Y151.728 E.02196
G1 X144.965 Y151.022 E.02493
G1 X144.726 Y150.266 E.02486
G1 X144.619 Y149.485 E.02472
G1 X144.646 Y148.701 E.0246
G1 X144.804 Y147.935 E.02452
G1 X145.086 Y147.211 E.02436
G1 X145.483 Y146.547 E.02426
G1 X145.983 Y145.961 E.02415
G1 X146.573 Y145.465 E.02417
G1 X147.049 Y145.172 E.01753
G1 X147.342 Y145.033 E.01017
G1 X147.827 Y144.837 E.0164
G1 E-3.5 F3600
;WIPE_START
G1 F7200
G1 X147.883 Y144.815 E-.02858
G1 X148.652 Y144.649 E-.37369
G1 X149.438 Y144.616 E-.37368
G1 X150.193 Y144.712 E-.36151
G1 X150.924 Y144.932 E-.36254
;WIPE_END
G1 X152.983 Y148.585 F9000
G1 E5 F2400
;TYPE:Perimeter
;WIDTH:0.606756
G1 F1200
G1 X152.998 Y148.919 E.01567
;WIDTH:0.636846
G1 X153.013 Y149.253 E.01651
G1 X153 Y149.572 E.01577
;WIDTH:0.609683
G1 X152.986 Y149.892 E.01509
G1 X152.074 Y151.528 F9000
;TYPE:External perimeter
;WIDTH:0.419999
G1 F1200
G1 X151.433 Y151.905 E.02332
G1 X150.88 Y152.089 E.01827
G1 X150.261 Y152.16 E.01954
G1 X149.641 Y152.098 E.01954
G1 X149.093 Y151.919 E.01808
G1 X148.423 Y151.538 E.02417
G1 X148.331 Y151.388 E.00552
G1 X148.331 Y147.124 E.13369
G1 X148.369 Y147.011 E.00374
G1 X149.012 Y146.612 E.02373
G1 X149.602 Y146.411 E.01954
G1 X150.109 Y146.352 E.016
G1 X150.615 Y146.378 E.01589
G1 X150.88 Y146.411 E.00837
G1 X151.433 Y146.595 E.01827
G1 X152.059 Y146.962 E.02275
G1 X152.134 Y147.047 E.00355
G1 X152.151 Y147.956 E.02851
G1 X152.151 Y151.376 E.10723
G1 X152.101 Y151.474 E.00345
G1 E-3.5 F3600
;WIPE_START
G1 F7200
G1 X152.074 Y151.528 E-.02868
G1 X151.433 Y151.905 E-.35323
G1 X150.88 Y152.089 E-.27683
G1 X150.261 Y152.16 E-.29595
G1 X149.641 Y152.098 E-.29597
G1 X149.142 Y151.935 E-.24934
;WIPE_END
G1 X147.615 Y146.577 F9000
G1 E5 F2400
;TYPE:Solid infill
;WIDTH:0.435902
G1 F1200
G1 X147.302 Y146.263 E.01449
G1 X147.103 Y146.366 E.00732
G1 X146.968 Y146.485 E.00588
G1 X147.336 Y146.854 E.01703
G1 X147.289 Y147.041 E.0063
G1 X147.288 Y147.362 E.01049
G1 X146.672 Y146.745 E.02849
G1 X146.42 Y147.049 E.0129
G1 X147.288 Y147.917 E.04011
G1 X147.288 Y148.473 E.01817
G1 X146.191 Y147.375 E.05072
G1 X145.991 Y147.732 E.01337
G1 X147.288 Y149.028 E.05991
G1 X147.287 Y149.584 E.01817
G1 X145.84 Y148.137 E.06687
G1 X145.767 Y148.345 E.0072
G1 X145.727 Y148.579 E.00776
G1 X147.287 Y150.139 E.07209
G1 X147.287 Y150.694 E.01814
G1 X145.664 Y149.071 E.075
G1 X145.664 Y149.554 E.01578
G1 X145.681 Y149.644 E.00299
G1 X147.286 Y151.25 E.07419
G1 X147.289 Y151.461 E.0069
G1 X147.398 Y151.891 E.0145
G1 X147.434 Y151.953 E.00234
G1 X145.838 Y150.357 E.07375
G1 X145.969 Y150.729 E.01289
G1 X146.266 Y151.26 E.01988
G1 X146.606 Y151.681 E.01768
G1 X147.371 Y152.446 E.03535
; stop printing object eccentric-eccentric.stl id:3 copy 0
; printing object eccentric-eccentric.stl id:2 copy 0
G1 E-3.5 F3600
;WIPE_START
G1 F7200
G1 X146.606 Y151.681 E-.51389
G1 X146.266 Y151.26 E-.25705
G1 X145.969 Y150.729 E-.289
G1 X145.838 Y150.357 E-.18734
G1 X146.214 Y150.733 E-.25272
;WIPE_END
G1 X139.079 Y141.685 F9000
G1 E5 F2400
;TYPE:Perimeter
;WIDTH:0.470772
G1 F1200
G1 X138.799 Y141.77 E.01041
G1 X138.056 Y141.848 E.02658
;WIDTH:0.473301
G1 X137.438 Y141.81 E.02216
;WIDTH:0.512465
G1 X137.146 Y141.725 E.01187
;WIDTH:0.551629
G1 X136.544 Y141.53 E.02677
;WIDTH:0.521248
G1 X136.235 Y141.419 E.01306
;WIDTH:0.490867
G1 X135.959 Y141.27 E.01168
;WIDTH:0.455433
G1 X135.683 Y141.121 E.01076
;WIDTH:0.419999
