; generated by PrusaSlicer 2.6.1+win64 on 2023-12-24 at 16:21:23 UTC

; 

; external perimeters extrusion width = 0.42mm
; perimeters extrusion width = 0.44mm
; infill extrusion width = 0.44mm
; solid infill extrusion width = 0.44mm
; top infill extrusion width = 0.40mm
; support material extrusion width = 0.36mm
; first layer extrusion width = 0.42mm

; external perimeters extrusion width = 0.42mm
; perimeters extrusion width = 0.44mm
; infill extrusion width = 0.44mm
; solid infill extrusion width = 0.44mm
; top infill extrusion width = 0.40mm
; support material extrusion width = 0.36mm
; first layer extrusion width = 0.42mm

; external perimeters extrusion width = 0.42mm
; perimeters extrusion width = 0.44mm
; infill extrusion width = 0.44mm
; solid infill extrusion width = 0.44mm
; top infill extrusion width = 0.40mm
; support material extrusion width = 0.36mm
; first layer extrusion width = 0.42mm

M201 X500 Y500 Z100 E5000 ; sets maximum accelerations, mm/sec^2
M203 X500 Y500 Z10 E60 ; sets maximum feedrates, mm / sec
M204 S500 T1000 ; sets acceleration (S) and retract acceleration (R), mm/sec^2
M205 X8.00 Y8.00 Z0.40 E5.00 ; sets the jerk limits, mm/sec
M205 S0 T0 ; sets the minimum extruding and travel feed rate, mm/sec
;TYPE:Custom
G90 ; use absolute coordinates
M83 ; extruder relative mode
M104 S150 ; set temporary nozzle temp to prevent oozing during homing
M140 S60 ; set final bed temp
G4 S30 ; allow partial nozzle warmup
G28 ; home all axis
G1 Z50 F240
G1 X2.0 Y10 F3000
M104 S215 ; set final nozzle temp
M190 S60 ; wait for bed temp to stabilize
M109 S215 ; wait for nozzle temp to stabilize
G1 Z0.28 F240
G92 E0
G1 X2.0 Y140 E10 F1500 ; prime the nozzle
G1 X2.3 Y140 F5000
G92 E0
G1 X2.3 Y10 E10 F1200 ; prime the nozzle
G92 E0
G21 ; set units to millimeters
G90 ; use absolute coordinates
M83 ; use relative distances for extrusion
; Filament gcode
M107
;LAYER_CHANGE
;Z:0.2
;HEIGHT:0.2
;BEFORE_LAYER_CHANGE
G92 E0
;0.2


G1 E-5 F3600
G1 Z.2 F9000
;AFTER_LAYER_CHANGE
;0.2
G1 X89.452 Y89.452
G1 E5 F2400
M204 S500
;TYPE:Skirt/Brim
;WIDTH:0.42
G1 F1200
G1 X90.119 Y88.785 E.02958
G1 X91.645 Y87.817 E.05666
G1 X93.04 Y87.575 E.04439
G1 X102.957 Y87.575 E.31094
G1 X104.72 Y87.97 E.05665
G1 X106.146 Y89.08 E.05666
G1 X106.77 Y90.116 E.03792
G1 X109.477 Y96.607 E.22051
G1 X109.901 Y97.998 E.04559
G1 X110.029 Y98.701 E.0224
G1 X110.131 Y100 E.04085
G1 X110.131 Y140 E1.25417
G1 X109.908 Y141.977 E.06238
G1 X109.479 Y143.387 E.04621
G1 X106.77 Y149.884 E.22071
G1 X105.727 Y151.359 E.05664
G1 X104.154 Y152.248 E.05665
G1 X102.957 Y152.425 E.03794
G1 X93.04 Y152.425 E.31094
G1 X91.277 Y152.03 E.05665
G1 X90.119 Y151.215 E.0444
G1 X87.451 Y148.547 E.1183
G1 X86.483 Y147.021 E.05666
G1 X86.24 Y145.626 E.0444
G1 X86.24 Y94.374 E1.60697
G1 X86.636 Y92.611 E.05665
G1 X87.451 Y91.453 E.0444
G1 X89.409 Y89.494 E.08684
G1 X89.676 Y89.761 F9000
G1 F1200
G1 X90.386 Y89.051 E.03148
G1 X91.85 Y88.146 E.05397
G1 X93.04 Y87.952 E.0378
G1 X102.957 Y87.952 E.31094
G1 X104.633 Y88.346 E.05398
G1 X105.956 Y89.448 E.05399
G1 X106.422 Y90.261 E.02938
G1 X109.129 Y96.753 E.22054
G1 X109.538 Y98.097 E.04405
G1 X109.728 Y99.538 E.04557
G1 X109.754 Y140 E1.26866
G1 X109.543 Y141.88 E.05932
G1 X109.131 Y143.242 E.04462
G1 X106.422 Y149.739 E.22071
G1 X105.413 Y151.133 E.05396
G1 X103.888 Y151.931 E.05397
G1 X102.957 Y152.048 E.02942
G1 X93.04 Y152.048 E.31094
G1 X91.365 Y151.654 E.05395
G1 X90.386 Y150.949 E.03783
G1 X87.717 Y148.28 E.11835
G1 X86.811 Y146.816 E.05398
G1 X86.618 Y145.626 E.0378
G1 X86.618 Y94.374 E1.60697
G1 X87.012 Y92.699 E.05395
G1 X87.717 Y91.72 E.03783
G1 X89.634 Y89.803 E.085
G1 X89.9 Y90.07 F9000
G1 F1200
G1 X90.652 Y89.318 E.03334
G1 X92.05 Y88.477 E.05115
G1 X93.04 Y88.329 E.03139
G1 X102.957 Y88.329 E.31094
G1 X104.54 Y88.723 E.05115
G1 X106.074 Y90.406 E.0714
G1 X108.781 Y96.898 E.22054
G1 X109.174 Y98.196 E.04252
G1 X109.364 Y99.701 E.04756
G1 X109.377 Y140 E1.26355
G1 X109.179 Y141.783 E.05625
G1 X108.783 Y143.097 E.04303
G1 X106.074 Y149.594 E.22071
G1 X105.101 Y150.903 E.05114
G1 X102.957 Y151.671 E.07141
G1 X93.04 Y151.671 E.31094
G1 X91.457 Y151.277 E.05115
G1 X90.652 Y150.682 E.03139
G1 X87.984 Y148.013 E.11833
G1 X87.143 Y146.615 E.05115
G1 X86.995 Y145.626 E.03135
G1 X86.995 Y94.374 E1.60697
G1 X87.389 Y92.791 E.05115
G1 X87.984 Y91.987 E.03136
G1 X89.858 Y90.112 E.08312
; printing object eccentric-eccentricEccentric.stl id:0 copy 0
G1 E-3.5 F3600
;WIPE_START
G1 F7200
G1 X90.652 Y89.318 E-.53337
G1 X92.05 Y88.477 E-.77495
G1 X92.449 Y88.417 E-.19168
;WIPE_END
G1 X102.957 Y94.923 F9000
G1 E5 F2400
;TYPE:Support material
G1 F1200
G1 X102.506 Y94.75 E.01515
G1 X101.548 Y94.566 E.03059
G1 X100.451 Y94.567 E.0344
G1 X99.448 Y94.766 E.03206
G1 X98.589 Y95.1 E.0289
G1 X97.75 Y95.612 E.03082
G1 X96.983 Y96.3 E.03231
G1 X96.328 Y97.174 E.03425
G1 X95.919 Y97.998 E.02884
G1 X95.643 Y98.944 E.0309
G1 X95.539 Y99.967 E.03224
G1 X95.643 Y101.056 E.0343
G1 X95.919 Y102.002 E.0309
G1 X96.328 Y102.826 E.02884
G1 X96.983 Y103.7 E.03425
G1 X97.75 Y104.388 E.03231
G1 X98.589 Y104.9 E.03082
G1 X99.448 Y105.234 E.0289
G1 X100.451 Y105.433 E.03206
G1 X101.548 Y105.434 E.0344
G1 X102.506 Y105.25 E.03059
G1 X102.957 Y105.077 E.01515
G1 X102.957 Y108.294 E.10087
G1 X93.04 Y108.294 E.31094
G1 X93.04 Y106.96 E.04183
G1 X91.706 Y106.96 E.04183
G1 X91.706 Y105.626 E.04183
G1 X90.372 Y105.626 E.04183
G1 X90.372 Y94.374 E.3528
G1 X91.706 Y94.374 E.04183
G1 X91.706 Y93.04 E.04183
G1 X93.04 Y93.04 E.04183
G1 X93.04 Y91.706 E.04183
G1 X102.957 Y91.706 E.31094
G1 X102.957 Y94.866 E.09908
G1 E-3.5 F3600
;WIPE_START
G1 F7200
G1 X102.957 Y91.708 E-1.5
;WIPE_END
G1 X102.514 Y108.124 F9000
G1 E5 F2400
G1 F1200
G1 X102.514 Y105.598 E.0792
G1 X102.095 Y105.676 E.01336
G1 X102.095 Y107.955 E.07146
G1 X101.676 Y107.955 E.01314
G1 X101.676 Y105.755 E.06898
G1 X101.471 Y105.78 E.00648
G1 X101.257 Y105.781 E.00671
G1 X101.257 Y107.955 E.06816
G1 X100.838 Y107.955 E.01314
G1 X100.838 Y105.781 E.06816
G1 X100.419 Y105.771 E.01314
G1 X100.419 Y107.955 E.06848
G1 X100 Y107.955 E.01314
G1 X100 Y105.694 E.07089
G1 X99.581 Y105.616 E.01336
G1 X99.581 Y107.955 E.07334
G1 X99.162 Y107.955 E.01314
G1 X99.162 Y105.488 E.07735
G1 X98.743 Y105.325 E.0141
G1 X98.743 Y107.955 E.08246
G1 X98.324 Y107.955 E.01314
G1 X98.324 Y105.143 E.08817
G1 X97.905 Y104.883 E.01546
G1 X97.905 Y107.955 E.09632
G1 X97.486 Y107.955 E.01314
G1 X97.486 Y104.615 E.10472
G1 X97.067 Y104.238 E.01767
G1 X97.067 Y107.955 E.11654
G1 X96.648 Y107.955 E.01314
G1 X96.648 Y103.83 E.12934
G1 X96.229 Y103.275 E.0218
G1 X96.229 Y107.955 E.14674
G1 X95.81 Y107.955 E.01314
G1 X95.81 Y102.547 E.16956
G1 X95.575 Y102.053 E.01715
G1 X95.391 Y101.412 E.02091
G1 X95.391 Y107.955 E.20515
G1 X94.972 Y107.955 E.01314
G1 X94.972 Y92.045 E.49885
G1 X95.391 Y92.045 E.01314
G1 X95.391 Y98.588 E.20515
G1 X95.575 Y97.947 E.02091
G1 X95.81 Y97.453 E.01715
G1 X95.81 Y92.045 E.16956
G1 X96.229 Y92.045 E.01314
G1 X96.229 Y96.725 E.14674
G1 X96.648 Y96.17 E.0218
G1 X96.648 Y92.045 E.12934
G1 X97.067 Y92.045 E.01314
G1 X97.067 Y95.762 E.11654
G1 X97.486 Y95.385 E.01767
G1 X97.486 Y92.045 E.10472
G1 X97.905 Y92.045 E.01314
G1 X97.905 Y95.117 E.09632
G1 X98.324 Y94.857 E.01546
G1 X98.324 Y92.045 E.08817
G1 X98.743 Y92.045 E.01314
G1 X98.743 Y94.675 E.08246
G1 X99.162 Y94.512 E.0141
G1 X99.162 Y92.045 E.07735
G1 X99.581 Y92.045 E.01314
G1 X99.581 Y94.384 E.07334
G1 X100 Y94.306 E.01336
G1 X100 Y92.045 E.07089
G1 X100.419 Y92.045 E.01314
G1 X100.419 Y94.229 E.06848
G1 X100.838 Y94.219 E.01314
G1 X100.838 Y92.045 E.06816
G1 X101.257 Y92.045 E.01314
G1 X101.257 Y94.219 E.06816
G1 X101.471 Y94.22 E.00671
G1 X101.676 Y94.245 E.00648
G1 X101.676 Y92.045 E.06898
G1 X102.095 Y92.045 E.01314
G1 X102.095 Y94.324 E.07146
G1 X102.514 Y94.402 E.01336
G1 X102.514 Y91.876 E.0792
G1 E-3.5 F3600
;WIPE_START
G1 F7200
G1 X102.514 Y94.402 E-1.19985
G1 X102.095 Y94.324 E-.20244
G1 X102.095 Y94.118 E-.09771
;WIPE_END
G1 X94.553 Y108.124 F9000
G1 E5 F2400
G1 F1200
G1 X94.553 Y92.045 E.50415
G1 X94.134 Y92.045 E.01314
G1 X94.134 Y107.955 E.49885
G1 X93.715 Y107.955 E.01314
G1 X93.715 Y92.045 E.49885
G1 X93.38 Y92.045 E.0105
G1 X93.38 Y93.38 E.04186
G1 X93.296 Y93.38 E.00263
G1 X93.296 Y106.62 E.41513
G1 X92.877 Y106.62 E.01314
G1 X92.877 Y93.38 E.41513
G1 X92.458 Y93.38 E.01314
G1 X92.458 Y106.62 E.41513
G1 X92.045 Y106.62 E.01295
G1 X92.039 Y94.714 E.3733
G1 X91.62 Y94.714 E.01314
G1 X91.62 Y105.286 E.33148
G1 X91.201 Y105.286 E.01314
G1 X91.201 Y94.714 E.33148
G1 X90.783 Y94.714 E.01311
G1 X90.783 Y105.456 E.33681
G1 E-3.5 F3600
;WIPE_START
G1 F7200
G1 X90.783 Y102.298 E-1.5
;WIPE_END
G1 X97.456 Y101.707 F9000
G1 E5 F2400
;TYPE:Perimeter
;WIDTH:0.380685
G1 F1200
G1 X97.32 Y101.434 E.00857
G1 X97.118 Y100.726 E.02068
;WIDTH:0.414231
G1 X97.068 Y99.966 E.02352
G1 X97.12 Y99.26 E.02186
;WIDTH:0.380977
G1 X97.32 Y98.566 E.0203
G1 X97.455 Y98.293 E.00856
G1 X97.455 Y99.292 E.02808
;WIDTH:0.414231
G1 X97.439 Y99.984 E.02137
G1 X97.456 Y100.71 E.02242
;WIDTH:0.380685
G1 X97.456 Y101.647 E.02632
G1 E-3.5 F3600
;WIPE_START
G1 F7200
G1 X97.32 Y101.434 E-.12004
G1 X97.118 Y100.726 E-.34972
G1 X97.068 Y99.966 E-.36178
G1 X97.12 Y99.26 E-.33626
G1 X97.314 Y98.588 E-.3322
;WIPE_END
G1 X99.991 Y103.679 F9000
G1 E5 F2400
;WIDTH:0.647644
G1 F1200
G1 X100.05 Y103.66 E.00312
;WIDTH:0.615411
G1 X100.11 Y103.641 E.003
;WIDTH:0.583177
G1 X100.361 Y103.587 E.01153
;WIDTH:0.544314
G1 X100.612 Y103.533 E.0107
;WIDTH:0.505451
G1 X100.864 Y103.478 E.00992
;WIDTH:0.50485
G1 X101.136 Y103.408 E.01079
;WIDTH:0.543112
G1 X101.408 Y103.337 E.01169
G1 X101.532 Y103.249 E.00632
;WIDTH:0.502075
G1 X101.655 Y103.161 E.00577
;WIDTH:0.461037
G1 X101.779 Y103.072 E.00531
;WIDTH:0.419999
G1 X102.251 Y102.77 E.01757
G1 X102.488 Y102.44 E.01274
G1 X102.564 Y102.069 E.01187
G1 X102.564 Y97.931 E.12974
G1 X102.488 Y97.56 E.01187
G1 X102.251 Y97.23 E.01274
G1 X102.103 Y97.121 E.00576
;WIDTH:0.462295
G1 X101.884 Y96.972 E.00924
;WIDTH:0.504591
G1 X101.665 Y96.823 E.01017
;WIDTH:0.546886
G1 X101.446 Y96.674 E.0111
G1 X101.266 Y96.621 E.00786
;WIDTH:0.533114
G1 X100.956 Y96.555 E.01292
;WIDTH:0.486168
G1 X100.646 Y96.49 E.01167
;WIDTH:0.439222
G1 X99.898 Y96.431 E.02473
G1 X99.213 Y96.516 E.02275
G1 X99.939 Y96.225 E.02577
G1 X100.631 Y96.098 E.02318
;WIDTH:0.466586
G1 X100.931 Y96.109 E.01058
;WIDTH:0.506736
G1 X101.256 Y96.15 E.01263
;WIDTH:0.546886
G1 X101.76 Y96.205 E.02125
;WIDTH:0.504591
G1 X101.939 Y96.22 E.0069
;WIDTH:0.462295
G1 X102.117 Y96.234 E.00623
;WIDTH:0.419999
G1 X102.794 Y96.506 E.02288
G1 X103.414 Y96.903 E.02308
G1 X103.984 Y97.456 E.0249
G1 X104.384 Y98.013 E.0215
G1 X104.694 Y98.679 E.02303
G1 X104.873 Y99.386 E.02287
G1 X104.919 Y100.137 E.02359
G1 X104.835 Y100.824 E.0217
G1 X104.622 Y101.508 E.02246
G1 X104.291 Y102.138 E.02231
G1 X103.856 Y102.693 E.02211
G1 X103.328 Y103.162 E.02214
G1 X102.72 Y103.531 E.0223
G1 X102.049 Y103.785 E.0225
;WIDTH:0.457704
G1 X101.814 Y103.809 E.00815
;WIDTH:0.495409
G1 X101.579 Y103.833 E.00889
;WIDTH:0.533114
G1 X100.988 Y103.88 E.02417
;WIDTH:0.486168
G1 X100.631 Y103.902 E.01318
;WIDTH:0.480907
G1 X100.503 Y103.858 E.00493
;WIDTH:0.522591
G1 X100.375 Y103.813 E.00541
;WIDTH:0.564276
G1 X100.247 Y103.768 E.00588
;WIDTH:0.60596
G1 X100.119 Y103.723 E.00635
;WIDTH:0.647644
G1 X100.048 Y103.698 E.00378
G1 X99.833 Y104.149 F9000
;WIDTH:0.419999
G1 F1200
G1 X99.091 Y103.864 E.02492
G1 X98.469 Y103.481 E.0229
G1 X98.282 Y103.328 E.00758
;WIDTH:0.425568
G1 X97.842 Y102.926 E.01896
G1 X97.623 Y102.644 E.01136
;WIDTH:0.42468
G1 X97.298 Y102.191 E.0177
;WIDTH:0.419999
G1 X96.976 Y101.533 E.02297
G1 X96.763 Y100.759 E.02517
G1 X96.696 Y99.93 E.02608
G1 X96.78 Y99.146 E.02472
G1 X97.005 Y98.394 E.02461
;WIDTH:0.422425
G1 X97.359 Y97.701 E.02456
G1 X97.841 Y97.072 E.02501
;WIDTH:0.420939
G1 X98.387 Y96.573 E.02325
;WIDTH:0.419999
G1 X99.092 Y96.136 E.02601
G1 X99.833 Y95.851 E.02489
G1 X100.614 Y95.708 E.02489
G1 X101.345 Y95.709 E.02292
G1 X101.663 Y95.758 E.01009
G1 X102.254 Y95.883 E.01894
G1 X102.993 Y96.186 E.02504
G1 X103.668 Y96.624 E.02523
G1 X104.286 Y97.229 E.02712
G1 X104.722 Y97.845 E.02366
G1 X105.057 Y98.576 E.02521
G1 X105.249 Y99.354 E.02513
G1 X105.294 Y100.171 E.02566
G1 X105.237 Y100.791 E.01952
G1 X105.02 Y101.555 E.0249
G1 X104.666 Y102.266 E.0249
G1 X104.189 Y102.9 E.02488
G1 X103.603 Y103.436 E.0249
G1 X102.928 Y103.855 E.02491
G1 X102.188 Y104.143 E.0249
G1 X101.408 Y104.29 E.02489
G1 X100.614 Y104.292 E.0249
G1 X99.892 Y104.16 E.02301
G1 X99.731 Y104.513 F9000
;TYPE:External perimeter
G1 F1200
G1 X98.924 Y104.203 E.02711
G1 X98.187 Y103.751 E.02711
G1 X97.546 Y103.17 E.02713
G1 X97.023 Y102.482 E.0271
G1 X96.634 Y101.709 E.02713
G1 X96.395 Y100.878 E.02711
G1 X96.312 Y99.982 E.02821
G1 X96.395 Y99.122 E.02709
G1 X96.634 Y98.291 E.02711
G1 X97.023 Y97.518 E.02713
G1 X97.546 Y96.83 E.0271
G1 X98.159 Y96.271 E.02601
G1 X98.924 Y95.796 E.02823
G1 X99.731 Y95.487 E.02709
G1 X100.58 Y95.33 E.02707
G1 X101.444 Y95.333 E.02709
G1 X102.293 Y95.493 E.02709
G1 X103.098 Y95.807 E.02709
G1 X103.831 Y96.263 E.02707
G1 X104.469 Y96.845 E.02708
G1 X104.989 Y97.535 E.02709
G1 X105.373 Y98.309 E.02709
G1 X105.559 Y98.963 E.02132
G1 X105.625 Y99.322 E.01144
G1 X105.67 Y100.206 E.02775
G1 X105.609 Y100.86 E.02059
G1 X105.373 Y101.691 E.02709
G1 X104.989 Y102.465 E.02709
G1 X104.469 Y103.155 E.02709
G1 X103.831 Y103.737 E.02708
G1 X103.098 Y104.193 E.02707
G1 X102.293 Y104.507 E.02709
G1 X101.444 Y104.667 E.02709
G1 X100.58 Y104.67 E.02709
G1 X99.79 Y104.524 E.02519
G1 X99.632 Y104.126 F9000
G1 E-3.5 F3600
;WIPE_START
G1 F7200
G1 X98.924 Y104.203 E-.4387
G1 X98.187 Y103.751 E-.41067
G1 X97.546 Y103.17 E-.41093
G1 X97.241 Y102.768 E-.2397
;WIPE_END
G1 X98.06 Y102.528 F9000
G1 E5 F2400
;TYPE:Perimeter
;WIDTH:0.425568
G1 F1200
G1 X97.926 Y102.413 E.00562
;WIDTH:0.42468
G1 X97.813 Y102.069 E.01149
;WIDTH:0.419999
G1 X97.813 Y98.585 E.10924
;WIDTH:0.420364
G1 X97.813 Y97.931 E.02053
;WIDTH:0.43043
G1 X97.871 Y97.669 E.00865
G1 X98.109 Y97.433 E.0108
;WIDTH:0.420939
G1 X98.62 Y97.129 E.01869
;WIDTH:0.419999
G1 X99.263 Y96.901 E.02139
G1 X99.939 Y96.815 E.02137
G1 X100.604 Y96.874 E.02093
G1 X101.129 Y97.032 E.01719
G1 X101.38 Y97.129 E.00844
G1 X101.915 Y97.447 E.01951
G1 X102.141 Y97.708 E.01083
G1 X102.187 Y97.931 E.00714
G1 X102.187 Y102.069 E.12974
G1 X102.141 Y102.292 E.00714
G1 X101.91 Y102.555 E.01098
G1 X101.38 Y102.871 E.01935
G1 X100.737 Y103.099 E.02139
G1 X100.061 Y103.185 E.02137
G1 X99.381 Y103.124 E.02141
G1 X98.73 Y102.921 E.02138
;WIDTH:0.425568
G1 X98.105 Y102.567 E.02285
G1 X98.3 Y102.242 F9000
;TYPE:External perimeter
;WIDTH:0.419999
G1 F1200
G1 X98.228 Y102.183 E.00292
G1 X98.19 Y102.069 E.00377
G1 X98.19 Y97.931 E.12974
G1 X98.228 Y97.817 E.00377
G1 X98.813 Y97.453 E.0216
G1 X99.382 Y97.259 E.01885
G1 X99.98 Y97.19 E.01887
G1 X100.564 Y97.249 E.0184
G1 X101.15 Y97.437 E.0193
G1 X101.718 Y97.769 E.02063
G1 X101.795 Y97.857 E.00367
G1 X101.81 Y98.44 E.01829
G1 X101.81 Y102.069 E.11378
G1 X101.747 Y102.209 E.00481
G1 X101.187 Y102.547 E.02051
G1 X100.618 Y102.741 E.01885
G1 X100.02 Y102.81 E.01887
G1 X99.422 Y102.75 E.01884
G1 X98.85 Y102.563 E.01887
G1 X98.352 Y102.272 E.01808
G1 X98.217 Y102.282 F9000
G1 E-3.5 F3600
;WIPE_START
G1 F7200
G1 X98.228 Y102.183 E-.0725
G1 X98.19 Y102.069 E-.05708
G1 X98.19 Y99.184 E-1.37042
;WIPE_END
G1 X104.349 Y98.214 F9000
G1 E5 F2400
;TYPE:Solid infill
;WIDTH:0.430261
G1 F1200
G1 X103.617 Y97.482 E.03334
G1 X103.198 Y97.099 E.01828
G1 X102.628 Y96.745 E.02161
G1 X102.143 Y96.556 E.01676
G1 X104.442 Y98.855 E.10472
G1 X104.577 Y99.328 E.01584
G1 X104.596 Y99.557 E.0074
G1 X102.834 Y97.795 E.08026
G1 X102.854 Y97.884 E.00294
G1 X102.854 Y98.362 E.0154
G1 X104.627 Y100.136 E.08078
G1 X104.581 Y100.637 E.0162
G1 X102.854 Y98.91 E.07866
G1 X102.854 Y99.458 E.01765
G1 X104.464 Y101.068 E.07333
G1 X104.395 Y101.313 E.0082
G1 X104.317 Y101.469 E.00562
G1 X102.854 Y100.006 E.06664
G1 X102.854 Y100.553 E.01762
G1 X104.135 Y101.835 E.05837
G1 X104.096 Y101.913 E.00281
