(Exported by FreeCAD)
(Post Processor: grbl_post)
(Output Time:2024-01-06 18:07:46.254752)
(Begin preamble)
G17 G90
G21
(Begin operation: Fixture)
(Path: Fixture)
G54
(Finish operation: Fixture)
(Begin operation: TC: 1mm Endmill)
(Path: TC: 1mm Endmill)
(TC: 1mm Endmill)
(Begin toolchange)
( M6 T12 )
M3 S1000
(Finish operation: TC: 1mm Endmill)
(Begin operation: Profile)
(Path: Profile)
(Profile)
(Compensated Tool Path. Diameter: 1.0)
G0 Z5.000
G0 X43.259 Y5.465
G0 Z3.000
G1 X43.259 Y5.465 Z-0.100 F10.000
G2 X44.025 Y4.531 Z-0.100 I-2.706 J-2.999 K0.000 F30.000
G2 X44.195 Y3.896 Z-0.100 I-0.808 J-0.557 K0.000 F30.000
G2 X43.197 Y4.103 Z-0.100 I-0.495 J0.121 K0.000 F30.000
G3 X42.564 Y4.951 Z-0.100 I-1.657 J-0.577 K0.000 F30.000
G3 X38.369 Y4.771 Z-0.100 I-1.965 J-3.161 K0.000 F30.000
G3 X37.938 Y4.102 Z-0.100 I0.698 J-0.923 K0.000 F30.000
G2 X37.793 Y3.664 Z-0.100 I-0.668 J-0.021 K0.000 F30.000
G2 X36.904 Y4.136 Z-0.100 I-0.369 J0.378 K0.000 F30.000
G3 X36.201 Y5.002 Z-0.100 I-1.707 J-0.667 K0.000 F30.000
G3 X32.090 Y4.773 Z-0.100 I-1.882 J-3.231 K0.000 F30.000
G3 X31.655 Y4.102 Z-0.100 I0.693 J-0.925 K0.000 F30.000
G2 X31.425 Y3.588 Z-0.100 I-0.627 J-0.028 K0.000 F30.000
G2 X30.660 Y3.956 Z-0.100 I-0.275 J0.406 K0.000 F30.000
G2 X31.348 Y5.254 Z-0.100 I2.655 J-0.576 K0.000 F30.000
G2 X37.077 Y5.405 Z-0.100 I2.942 J-2.846 K0.000 F30.000
G3 X37.782 Y5.405 Z-0.100 I0.352 J0.491 K0.000 F30.000
G2 X43.259 Y5.465 Z-0.100 I2.771 J-2.940 K0.000 F30.000
G1 X43.259 Y5.465 Z-0.200 F10.000
G2 X44.025 Y4.531 Z-0.200 I-2.706 J-2.999 K0.000 F30.000
G2 X44.195 Y3.896 Z-0.200 I-0.808 J-0.557 K0.000 F30.000
G2 X43.197 Y4.103 Z-0.200 I-0.495 J0.121 K0.000 F30.000
G3 X42.564 Y4.951 Z-0.200 I-1.657 J-0.577 K0.000 F30.000
G3 X38.369 Y4.771 Z-0.200 I-1.965 J-3.161 K0.000 F30.000
G3 X37.938 Y4.102 Z-0.200 I0.698 J-0.923 K0.000 F30.000
G2 X37.793 Y3.664 Z-0.200 I-0.668 J-0.021 K0.000 F30.000
G2 X36.904 Y4.136 Z-0.200 I-0.369 J0.378 K0.000 F30.000
G3 X36.201 Y5.002 Z-0.200 I-1.707 J-0.667 K0.000 F30.000
G3 X32.090 Y4.773 Z-0.200 I-1.882 J-3.231 K0.000 F30.000
G3 X31.655 Y4.102 Z-0.200 I0.693 J-0.925 K0.000 F30.000
G2 X31.425 Y3.588 Z-0.200 I-0.627 J-0.028 K0.000 F30.000
G2 X30.660 Y3.956 Z-0.200 I-0.275 J0.406 K0.000 F30.000
G2 X31.348 Y5.254 Z-0.200 I2.655 J-0.576 K0.000 F30.000
G2 X37.077 Y5.405 Z-0.200 I2.942 J-2.846 K0.000 F30.000
G3 X37.782 Y5.405 Z-0.200 I0.352 J0.491 K0.000 F30.000
G2 X43.259 Y5.465 Z-0.200 I2.771 J-2.940 K0.000 F30.000
G1 X43.259 Y5.465 Z-0.300 F10.000
G2 X44.025 Y4.531 Z-0.300 I-2.706 J-2.999 K0.000 F30.000
G2 X44.195 Y3.896 Z-0.300 I-0.808 J-0.557 K0.000 F30.000
G2 X43.197 Y4.103 Z-0.300 I-0.495 J0.121 K0.000 F30.000
G3 X42.564 Y4.951 Z-0.300 I-1.657 J-0.577 K0.000 F30.000
G3 X38.369 Y4.771 Z-0.300 I-1.965 J-3.161 K0.000 F30.000
G3 X37.938 Y4.102 Z-0.300 I0.698 J-0.923 K0.000 F30.000
G2 X37.793 Y3.664 Z-0.300 I-0.668 J-0.021 K0.000 F30.000
G2 X36.904 Y4.136 Z-0.300 I-0.369 J0.378 K0.000 F30.000
G3 X36.201 Y5.002 Z-0.300 I-1.707 J-0.667 K0.000 F30.000
G3 X32.090 Y4.773 Z-0.300 I-1.882 J-3.231 K0.000 F30.000
G3 X31.655 Y4.102 Z-0.300 I0.693 J-0.925 K0.000 F30.000
G2 X31.425 Y3.588 Z-0.300 I-0.627 J-0.028 K0.000 F30.000
G2 X30.660 Y3.956 Z-0.300 I-0.275 J0.406 K0.000 F30.000
G2 X31.348 Y5.254 Z-0.300 I2.655 J-0.576 K0.000 F30.000
G2 X37.077 Y5.405 Z-0.300 I2.942 J-2.846 K0.000 F30.000
G3 X37.782 Y5.405 Z-0.300 I0.352 J0.491 K0.000 F30.000
G2 X43.259 Y5.465 Z-0.300 I2.771 J-2.940 K0.000 F30.000
G1 X43.259 Y5.465 Z-0.400 F10.000
G2 X44.025 Y4.531 Z-0.400 I-2.706 J-2.999 K0.000 F30.000
G2 X44.195 Y3.896 Z-0.400 I-0.808 J-0.557 K0.000 F30.000
G2 X43.197 Y4.103 Z-0.400 I-0.495 J0.121 K0.000 F30.000
G3 X42.564 Y4.951 Z-0.400 I-1.657 J-0.577 K0.000 F30.000
G3 X38.369 Y4.771 Z-0.400 I-1.965 J-3.161 K0.000 F30.000
G3 X37.938 Y4.102 Z-0.400 I0.698 J-0.923 K0.000 F30.000
G2 X37.793 Y3.664 Z-0.400 I-0.668 J-0.021 K0.000 F30.000
G2 X36.904 Y4.136 Z-0.400 I-0.369 J0.378 K0.000 F30.000
G3 X36.201 Y5.002 Z-0.400 I-1.707 J-0.667 K0.000 F30.000
G3 X32.090 Y4.773 Z-0.400 I-1.882 J-3.231 K0.000 F30.000
G3 X31.655 Y4.102 Z-0.400 I0.693 J-0.925 K0.000 F30.000
G2 X31.425 Y3.588 Z-0.400 I-0.627 J-0.028 K0.000 F30.000
G2 X30.660 Y3.956 Z-0.400 I-0.275 J0.406 K0.000 F30.000
G2 X31.348 Y5.254 Z-0.400 I2.655 J-0.576 K0.000 F30.000
G2 X37.077 Y5.405 Z-0.400 I2.942 J-2.846 K0.000 F30.000
G3 X37.782 Y5.405 Z-0.400 I0.352 J0.491 K0.000 F30.000
G2 X43.259 Y5.465 Z-0.400 I2.771 J-2.940 K0.000 F30.000
G1 X43.259 Y5.465 Z-0.500 F10.000
G2 X44.025 Y4.531 Z-0.500 I-2.706 J-2.999 K0.000 F30.000
G2 X44.195 Y3.896 Z-0.500 I-0.808 J-0.557 K0.000 F30.000
G2 X43.197 Y4.103 Z-0.500 I-0.495 J0.121 K0.000 F30.000
G3 X42.564 Y4.951 Z-0.500 I-1.657 J-0.577 K0.000 F30.000
G3 X38.369 Y4.771 Z-0.500 I-1.965 J-3.161 K0.000 F30.000
G3 X37.938 Y4.102 Z-0.500 I0.698 J-0.923 K0.000 F30.000
G2 X37.793 Y3.664 Z-0.500 I-0.668 J-0.021 K0.000 F30.000
G2 X36.904 Y4.136 Z-0.500 I-0.369 J0.378 K0.000 F30.000
G3 X36.201 Y5.002 Z-0.500 I-1.707 J-0.667 K0.000 F30.000
G3 X32.090 Y4.773 Z-0.500 I-1.882 J-3.231 K0.000 F30.000
G3 X31.655 Y4.102 Z-0.500 I0.693 J-0.925 K0.000 F30.000
G2 X31.425 Y3.588 Z-0.500 I-0.627 J-0.028 K0.000 F30.000
G2 X30.660 Y3.956 Z-0.500 I-0.275 J0.406 K0.000 F30.000
G2 X31.348 Y5.254 Z-0.500 I2.655 J-0.576 K0.000 F30.000
G2 X37.077 Y5.405 Z-0.500 I2.942 J-2.846 K0.000 F30.000
G3 X37.782 Y5.405 Z-0.500 I0.352 J0.491 K0.000 F30.000
G2 X43.259 Y5.465 Z-0.500 I2.771 J-2.940 K0.000 F30.000
G1 X43.259 Y5.465 Z-0.600 F10.000
G2 X44.025 Y4.531 Z-0.600 I-2.706 J-2.999 K0.000 F30.000
G2 X44.195 Y3.896 Z-0.600 I-0.808 J-0.557 K0.000 F30.000
G2 X43.197 Y4.103 Z-0.600 I-0.495 J0.121 K0.000 F30.000
G3 X42.564 Y4.951 Z-0.600 I-1.657 J-0.577 K0.000 F30.000
G3 X38.369 Y4.771 Z-0.600 I-1.965 J-3.161 K0.000 F30.000
G3 X37.938 Y4.102 Z-0.600 I0.698 J-0.923 K0.000 F30.000
G2 X37.793 Y3.664 Z-0.600 I-0.668 J-0.021 K0.000 F30.000
G2 X36.904 Y4.136 Z-0.600 I-0.369 J0.378 K0.000 F30.000
G3 X36.201 Y5.002 Z-0.600 I-1.707 J-0.667 K0.000 F30.000
G3 X32.090 Y4.773 Z-0.600 I-1.882 J-3.231 K0.000 F30.000
G3 X31.655 Y4.102 Z-0.600 I0.693 J-0.925 K0.000 F30.000
G2 X31.425 Y3.588 Z-0.600 I-0.627 J-0.028 K0.000 F30.000
G2 X30.660 Y3.956 Z-0.600 I-0.275 J0.406 K0.000 F30.000
G2 X31.348 Y5.254 Z-0.600 I2.655 J-0.576 K0.000 F30.000
G2 X37.077 Y5.405 Z-0.600 I2.942 J-2.846 K0.000 F30.000
G3 X37.782 Y5.405 Z-0.600 I0.352 J0.491 K0.000 F30.000
G2 X43.259 Y5.465 Z-0.600 I2.771 J-2.940 K0.000 F30.000
G1 X43.259 Y5.465 Z-0.700 F10.000
G2 X44.025 Y4.531 Z-0.700 I-2.706 J-2.999 K0.000 F30.000
G2 X44.195 Y3.896 Z-0.700 I-0.808 J-0.557 K0.000 F30.000
G2 X43.197 Y4.103 Z-0.700 I-0.495 J0.121 K0.000 F30.000
G3 X42.564 Y4.951 Z-0.700 I-1.657 J-0.577 K0.000 F30.000
G3 X38.369 Y4.771 Z-0.700 I-1.965 J-3.161 K0.000 F30.000
G3 X37.938 Y4.102 Z-0.700 I0.698 J-0.923 K0.000 F30.000
G2 X37.793 Y3.664 Z-0.700 I-0.668 J-0.021 K0.000 F30.000
G2 X36.904 Y4.136 Z-0.700 I-0.369 J0.378 K0.000 F30.000
G3 X36.201 Y5.002 Z-0.700 I-1.707 J-0.667 K0.000 F30.000
G3 X32.090 Y4.773 Z-0.700 I-1.882 J-3.231 K0.000 F30.000
G3 X31.655 Y4.102 Z-0.700 I0.693 J-0.925 K0.000 F30.000
G2 X31.425 Y3.588 Z-0.700 I-0.627 J-0.028 K0.000 F30.000
G2 X30.660 Y3.956 Z-0.700 I-0.275 J0.406 K0.000 F30.000
G2 X31.348 Y5.254 Z-0.700 I2.655 J-0.576 K0.000 F30.000
G2 X37.077 Y5.405 Z-0.700 I2.942 J-2.846 K0.000 F30.000
G3 X37.782 Y5.405 Z-0.700 I0.352 J0.491 K0.000 F30.000
G2 X43.259 Y5.465 Z-0.700 I2.771 J-2.940 K0.000 F30.000
G1 X43.259 Y5.465 Z-0.800 F10.000
G2 X44.025 Y4.531 Z-0.800 I-2.706 J-2.999 K0.000 F30.000
G2 X44.195 Y3.896 Z-0.800 I-0.808 J-0.557 K0.000 F30.000
G2 X43.197 Y4.103 Z-0.800 I-0.495 J0.121 K0.000 F30.000
G3 X42.564 Y4.951 Z-0.800 I-1.657 J-0.577 K0.000 F30.000
G3 X38.369 Y4.771 Z-0.800 I-1.965 J-3.161 K0.000 F30.000
G3 X37.938 Y4.102 Z-0.800 I0.698 J-0.923 K0.000 F30.000
G2 X37.793 Y3.664 Z-0.800 I-0.668 J-0.021 K0.000 F30.000
G2 X36.904 Y4.136 Z-0.800 I-0.369 J0.378 K0.000 F30.000
G3 X36.201 Y5.002 Z-0.800 I-1.707 J-0.667 K0.000 F30.000
G3 X32.090 Y4.773 Z-0.800 I-1.882 J-3.231 K0.000 F30.000
G3 X31.655 Y4.102 Z-0.800 I0.693 J-0.925 K0.000 F30.000
G2 X31.425 Y3.588 Z-0.800 I-0.627 J-0.028 K0.000 F30.000
G2 X30.660 Y3.956 Z-0.800 I-0.275 J0.406 K0.000 F30.000
G2 X31.348 Y5.254 Z-0.800 I2.655 J-0.576 K0.000 F30.000
G2 X37.077 Y5.405 Z-0.800 I2.942 J-2.846 K0.000 F30.000
G3 X37.782 Y5.405 Z-0.800 I0.352 J0.491 K0.000 F30.000
G2 X43.259 Y5.465 Z-0.800 I2.771 J-2.940 K0.000 F30.000
G1 X43.259 Y5.465 Z-0.900 F10.000
G2 X44.025 Y4.531 Z-0.900 I-2.706 J-2.999 K0.000 F30.000
G2 X44.195 Y3.896 Z-0.900 I-0.808 J-0.557 K0.000 F30.000
G2 X43.197 Y4.103 Z-0.900 I-0.495 J0.121 K0.000 F30.000
G3 X42.564 Y4.951 Z-0.900 I-1.657 J-0.577 K0.000 F30.000
G3 X38.369 Y4.771 Z-0.900 I-1.965 J-3.161 K0.000 F30.000
G3 X37.938 Y4.102 Z-0.900 I0.698 J-0.923 K0.000 F30.000
G2 X37.793 Y3.664 Z-0.900 I-0.668 J-0.021 K0.000 F30.000
G2 X36.904 Y4.136 Z-0.900 I-0.369 J0.378 K0.000 F30.000
G3 X36.201 Y5.002 Z-0.900 I-1.707 J-0.667 K0.000 F30.000
G3 X32.090 Y4.773 Z-0.900 I-1.882 J-3.231 K0.000 F30.000
G3 X31.655 Y4.102 Z-0.900 I0.693 J-0.925 K0.000 F30.000
G2 X31.425 Y3.588 Z-0.900 I-0.627 J-0.028 K0.000 F30.000
G2 X30.660 Y3.956 Z-0.900 I-0.275 J0.406 K0.000 F30.000
G2 X31.348 Y5.254 Z-0.900 I2.655 J-0.576 K0.000 F30.000
G2 X37.077 Y5.405 Z-0.900 I2.942 J-2.846 K0.000 F30.000
G3 X37.782 Y5.405 Z-0.900 I0.352 J0.491 K0.000 F30.000
G2 X43.259 Y5.465 Z-0.900 I2.771 J-2.940 K0.000 F30.000
G1 X43.259 Y5.465 Z-1.000 F10.000
G2 X44.025 Y4.531 Z-1.000 I-2.706 J-2.999 K0.000 F30.000
G2 X44.195 Y3.896 Z-1.000 I-0.808 J-0.557 K0.000 F30.000
G2 X43.197 Y4.103 Z-1.000 I-0.495 J0.121 K0.000 F30.000
G3 X42.564 Y4.951 Z-1.000 I-1.657 J-0.577 K0.000 F30.000
G3 X38.369 Y4.771 Z-1.000 I-1.965 J-3.161 K0.000 F30.000
G3 X37.938 Y4.102 Z-1.000 I0.698 J-0.923 K0.000 F30.000
G2 X37.793 Y3.664 Z-1.000 I-0.668 J-0.021 K0.000 F30.000
G2 X36.904 Y4.136 Z-1.000 I-0.369 J0.378 K0.000 F30.000
G3 X36.201 Y5.002 Z-1.000 I-1.707 J-0.667 K0.000 F30.000
G3 X32.090 Y4.773 Z-1.000 I-1.882 J-3.231 K0.000 F30.000
G3 X31.655 Y4.102 Z-1.000 I0.693 J-0.925 K0.000 F30.000
G2 X31.425 Y3.588 Z-1.000 I-0.627 J-0.028 K0.000 F30.000
G2 X30.660 Y3.956 Z-1.000 I-0.275 J0.406 K0.000 F30.000
G2 X31.348 Y5.254 Z-1.000 I2.655 J-0.576 K0.000 F30.000
G2 X37.077 Y5.405 Z-1.000 I2.942 J-2.846 K0.000 F30.000
G3 X37.782 Y5.405 Z-1.000 I0.352 J0.491 K0.000 F30.000
G2 X43.259 Y5.465 Z-1.000 I2.771 J-2.940 K0.000 F30.000
G1 X43.259 Y5.465 Z-1.100 F10.000
G2 X44.025 Y4.531 Z-1.100 I-2.706 J-2.999 K0.000 F30.000
G2 X44.195 Y3.896 Z-1.100 I-0.808 J-0.557 K0.000 F30.000
G2 X43.197 Y4.103 Z-1.100 I-0.495 J0.121 K0.000 F30.000
G3 X42.564 Y4.951 Z-1.100 I-1.657 J-0.577 K0.000 F30.000
G3 X38.369 Y4.771 Z-1.100 I-1.965 J-3.161 K0.000 F30.000
G3 X37.938 Y4.102 Z-1.100 I0.698 J-0.923 K0.000 F30.000
G2 X37.793 Y3.664 Z-1.100 I-0.668 J-0.021 K0.000 F30.000
G2 X36.904 Y4.136 Z-1.100 I-0.369 J0.378 K0.000 F30.000
G3 X36.201 Y5.002 Z-1.100 I-1.707 J-0.667 K0.000 F30.000
G3 X32.090 Y4.773 Z-1.100 I-1.882 J-3.231 K0.000 F30.000
G3 X31.655 Y4.102 Z-1.100 I0.693 J-0.925 K0.000 F30.000
G2 X31.425 Y3.588 Z-1.100 I-0.627 J-0.028 K0.000 F30.000
G2 X30.660 Y3.956 Z-1.100 I-0.275 J0.406 K0.000 F30.000
G2 X31.348 Y5.254 Z-1.100 I2.655 J-0.576 K0.000 F30.000
G2 X37.077 Y5.405 Z-1.100 I2.942 J-2.846 K0.000 F30.000
G3 X37.782 Y5.405 Z-1.100 I0.352 J0.491 K0.000 F30.000
G2 X43.259 Y5.465 Z-1.100 I2.771 J-2.940 K0.000 F30.000
G1 X43.259 Y5.465 Z-1.200 F10.000
G2 X44.025 Y4.531 Z-1.200 I-2.706 J-2.999 K0.000 F30.000
G2 X44.195 Y3.896 Z-1.200 I-0.808 J-0.557 K0.000 F30.000
G2 X43.197 Y4.103 Z-1.200 I-0.495 J0.121 K0.000 F30.000
G3 X42.564 Y4.951 Z-1.200 I-1.657 J-0.577 K0.000 F30.000
G3 X38.369 Y4.771 Z-1.200 I-1.965 J-3.161 K0.000 F30.000
G3 X37.938 Y4.102 Z-1.200 I0.698 J-0.923 K0.000 F30.000
G2 X37.793 Y3.664 Z-1.200 I-0.668 J-0.021 K0.000 F30.000
G2 X36.904 Y4.136 Z-1.200 I-0.369 J0.378 K0.000 F30.000
G3 X36.201 Y5.002 Z-1.200 I-1.707 J-0.667 K0.000 F30.000
G3 X32.090 Y4.773 Z-1.200 I-1.882 J-3.231 K0.000 F30.000
G3 X31.655 Y4.102 Z-1.200 I0.693 J-0.925 K0.000 F30.000
G2 X31.425 Y3.588 Z-1.200 I-0.627 J-0.028 K0.000 F30.000
G2 X30.660 Y3.956 Z-1.200 I-0.275 J0.406 K0.000 F30.000
G2 X31.348 Y5.254 Z-1.200 I2.655 J-0.576 K0.000 F30.000
G2 X37.077 Y5.405 Z-1.200 I2.942 J-2.846 K0.000 F30.000
G3 X37.782 Y5.405 Z-1.200 I0.352 J0.491 K0.000 F30.000
G2 X43.259 Y5.465 Z-1.200 I2.771 J-2.940 K0.000 F30.000
G1 X43.259 Y5.465 Z-1.300 F10.000
G2 X44.025 Y4.531 Z-1.300 I-2.706 J-2.999 K0.000 F30.000
G2 X44.195 Y3.896 Z-1.300 I-0.808 J-0.557 K0.000 F30.000
G2 X43.197 Y4.103 Z-1.300 I-0.495 J0.121 K0.000 F30.000
G3 X42.564 Y4.951 Z-1.300 I-1.657 J-0.577 K0.000 F30.000
G3 X38.369 Y4.771 Z-1.300 I-1.965 J-3.161 K0.000 F30.000
G3 X37.938 Y4.102 Z-1.300 I0.698 J-0.923 K0.000 F30.000
G2 X37.793 Y3.664 Z-1.300 I-0.668 J-0.021 K0.000 F30.000
G2 X36.904 Y4.136 Z-1.300 I-0.369 J0.378 K0.000 F30.000
G3 X36.201 Y5.002 Z-1.300 I-1.707 J-0.667 K0.000 F30.000
G3 X32.090 Y4.773 Z-1.300 I-1.882 J-3.231 K0.000 F30.000
G3 X31.655 Y4.102 Z-1.300 I0.693 J-0.925 K0.000 F30.000
G2 X31.425 Y3.588 Z-1.300 I-0.627 J-0.028 K0.000 F30.000
G2 X30.660 Y3.956 Z-1.300 I-0.275 J0.406 K0.000 F30.000
G2 X31.348 Y5.254 Z-1.300 I2.655 J-0.576 K0.000 F30.000
G2 X37.077 Y5.405 Z-1.300 I2.942 J-2.846 K0.000 F30.000
G3 X37.782 Y5.405 Z-1.300 I0.352 J0.491 K0.000 F30.000
G2 X43.259 Y5.465 Z-1.300 I2.771 J-2.940 K0.000 F30.000
G1 X43.259 Y5.465 Z-1.400 F10.000
G2 X44.025 Y4.531 Z-1.400 I-2.706 J-2.999 K0.000 F30.000
G2 X44.195 Y3.896 Z-1.400 I-0.808 J-0.557 K0.000 F30.000
G2 X43.197 Y4.103 Z-1.400 I-0.495 J0.121 K0.000 F30.000
G3 X42.564 Y4.951 Z-1.400 I-1.657 J-0.577 K0.000 F30.000
G3 X38.369 Y4.771 Z-1.400 I-1.965 J-3.161 K0.000 F30.000
G3 X37.938 Y4.102 Z-1.400 I0.698 J-0.923 K0.000 F30.000
G2 X37.793 Y3.664 Z-1.400 I-0.668 J-0.021 K0.000 F30.000
G2 X36.904 Y4.136 Z-1.400 I-0.369 J0.378 K0.000 F30.000
G3 X36.201 Y5.002 Z-1.400 I-1.707 J-0.667 K0.000 F30.000
G3 X32.090 Y4.773 Z-1.400 I-1.882 J-3.231 K0.000 F30.000
G3 X31.655 Y4.102 Z-1.400 I0.693 J-0.925 K0.000 F30.000
G2 X31.425 Y3.588 Z-1.400 I-0.627 J-0.028 K0.000 F30.000
G2 X30.660 Y3.956 Z-1.400 I-0.275 J0.406 K0.000 F30.000
G2 X31.348 Y5.254 Z-1.400 I2.655 J-0.576 K0.000 F30.000
G2 X37.077 Y5.405 Z-1.400 I2.942 J-2.846 K0.000 F30.000
G3 X37.782 Y5.405 Z-1.400 I0.352 J0.491 K0.000 F30.000
G2 X43.259 Y5.465 Z-1.400 I2.771 J-2.940 K0.000 F30.000
G1 X43.259 Y5.465 Z-1.500 F10.000
G2 X44.025 Y4.531 Z-1.500 I-2.706 J-2.999 K0.000 F30.000
G2 X44.195 Y3.896 Z-1.500 I-0.808 J-0.557 K0.000 F30.000
G2 X43.197 Y4.103 Z-1.500 I-0.495 J0.121 K0.000 F30.000
G3 X42.564 Y4.951 Z-1.500 I-1.657 J-0.577 K0.000 F30.000
G3 X38.369 Y4.771 Z-1.500 I-1.965 J-3.161 K0.000 F30.000
G3 X37.938 Y4.102 Z-1.500 I0.698 J-0.923 K0.000 F30.000
G2 X37.793 Y3.664 Z-1.500 I-0.668 J-0.021 K0.000 F30.000
G2 X36.904 Y4.136 Z-1.500 I-0.369 J0.378 K0.000 F30.000
G3 X36.201 Y5.002 Z-1.500 I-1.707 J-0.667 K0.000 F30.000
G3 X32.090 Y4.773 Z-1.500 I-1.882 J-3.231 K0.000 F30.000
G3 X31.655 Y4.102 Z-1.500 I0.693 J-0.925 K0.000 F30.000
G2 X31.425 Y3.588 Z-1.500 I-0.627 J-0.028 K0.000 F30.000
G2 X30.660 Y3.956 Z-1.500 I-0.275 J0.406 K0.000 F30.000
G2 X31.348 Y5.254 Z-1.500 I2.655 J-0.576 K0.000 F30.000
G2 X37.077 Y5.405 Z-1.500 I2.942 J-2.846 K0.000 F30.000
G3 X37.782 Y5.405 Z-1.500 I0.352 J0.491 K0.000 F30.000
G2 X43.259 Y5.465 Z-1.500 I2.771 J-2.940 K0.000 F30.000
G1 X43.259 Y5.465 Z-1.600 F10.000
G2 X44.025 Y4.531 Z-1.600 I-2.706 J-2.999 K0.000 F30.000
G2 X44.195 Y3.896 Z-1.600 I-0.808 J-0.557 K0.000 F30.000
G2 X43.197 Y4.103 Z-1.600 I-0.495 J0.121 K0.000 F30.000
G3 X42.564 Y4.951 Z-1.600 I-1.657 J-0.577 K0.000 F30.000
G3 X38.369 Y4.771 Z-1.600 I-1.965 J-3.161 K0.000 F30.000
G3 X37.938 Y4.102 Z-1.600 I0.698 J-0.923 K0.000 F30.000
G2 X37.793 Y3.664 Z-1.600 I-0.668 J-0.021 K0.000 F30.000
G2 X36.904 Y4.136 Z-1.600 I-0.369 J0.378 K0.000 F30.000
G3 X36.201 Y5.002 Z-1.600 I-1.707 J-0.667 K0.000 F30.000
G3 X32.090 Y4.773 Z-1.600 I-1.882 J-3.231 K0.000 F30.000
G3 X31.655 Y4.102 Z-1.600 I0.693 J-0.925 K0.000 F30.000
G2 X31.425 Y3.588 Z-1.600 I-0.627 J-0.028 K0.000 F30.000
G2 X30.660 Y3.956 Z-1.600 I-0.275 J0.406 K0.000 F30.000
G2 X31.348 Y5.254 Z-1.600 I2.655 J-0.576 K0.000 F30.000
G2 X37.077 Y5.405 Z-1.600 I2.942 J-2.846 K0.000 F30.000
G3 X37.782 Y5.405 Z-1.600 I0.352 J0.491 K0.000 F30.000
G2 X43.259 Y5.465 Z-1.600 I2.771 J-2.940 K0.000 F30.000
G1 X43.259 Y5.465 Z-1.700 F10.000
G2 X44.025 Y4.531 Z-1.700 I-2.706 J-2.999 K0.000 F30.000
G2 X44.195 Y3.896 Z-1.700 I-0.808 J-0.557 K0.000 F30.000
G2 X43.197 Y4.103 Z-1.700 I-0.495 J0.121 K0.000 F30.000
G3 X42.564 Y4.951 Z-1.700 I-1.657 J-0.577 K0.000 F30.000
G3 X38.369 Y4.771 Z-1.700 I-1.965 J-3.161 K0.000 F30.000
G3 X37.938 Y4.102 Z-1.700 I0.698 J-0.923 K0.000 F30.000
G2 X37.793 Y3.664 Z-1.700 I-0.668 J-0.021 K0.000 F30.000
G2 X36.904 Y4.136 Z-1.700 I-0.369 J0.378 K0.000 F30.000
G3 X36.201 Y5.002 Z-1.700 I-1.707 J-0.667 K0.000 F30.000
G3 X32.090 Y4.773 Z-1.700 I-1.882 J-3.231 K0.000 F30.000
G3 X31.655 Y4.102 Z-1.700 I0.693 J-0.925 K0.000 F30.000
G2 X31.425 Y3.588 Z-1.700 I-0.627 J-0.028 K0.000 F30.000
G2 X30.660 Y3.956 Z-1.700 I-0.275 J0.406 K0.000 F30.000
G2 X31.348 Y5.254 Z-1.700 I2.655 J-0.576 K0.000 F30.000
G2 X37.077 Y5.405 Z-1.700 I2.942 J-2.846 K0.000 F30.000
G3 X37.782 Y5.405 Z-1.700 I0.352 J0.491 K0.000 F30.000
G2 X43.259 Y5.465 Z-1.700 I2.771 J-2.940 K0.000 F30.000
G1 X43.259 Y5.465 Z-1.800 F10.000
G2 X44.025 Y4.531 Z-1.800 I-2.706 J-2.999 K0.000 F30.000
G2 X44.195 Y3.896 Z-1.800 I-0.808 J-0.557 K0.000 F30.000
G2 X43.197 Y4.103 Z-1.800 I-0.495 J0.121 K0.000 F30.000
G3 X42.564 Y4.951 Z-1.800 I-1.657 J-0.577 K0.000 F30.000
G3 X38.369 Y4.771 Z-1.800 I-1.965 J-3.161 K0.000 F30.000
G3 X37.938 Y4.102 Z-1.800 I0.698 J-0.923 K0.000 F30.000
G2 X37.793 Y3.664 Z-1.800 I-0.668 J-0.021 K0.000 F30.000
G2 X36.904 Y4.136 Z-1.800 I-0.369 J0.378 K0.000 F30.000
G3 X36.201 Y5.002 Z-1.800 I-1.707 J-0.667 K0.000 F30.000
G3 X32.090 Y4.773 Z-1.800 I-1.882 J-3.231 K0.000 F30.000
G3 X31.655 Y4.102 Z-1.800 I0.693 J-0.925 K0.000 F30.000
G2 X31.425 Y3.588 Z-1.800 I-0.627 J-0.028 K0.000 F30.000
G2 X30.660 Y3.956 Z-1.800 I-0.275 J0.406 K0.000 F30.000
G2 X31.348 Y5.254 Z-1.800 I2.655 J-0.576 K0.000 F30.000
G2 X37.077 Y5.405 Z-1.800 I2.942 J-2.846 K0.000 F30.000
G3 X37.782 Y5.405 Z-1.800 I0.352 J0.491 K0.000 F30.000
G2 X43.259 Y5.465 Z-1.800 I2.771 J-2.940 K0.000 F30.000
G1 X43.259 Y5.465 Z-1.900 F10.000
G2 X44.025 Y4.531 Z-1.900 I-2.706 J-2.999 K0.000 F30.000
G2 X44.195 Y3.896 Z-1.900 I-0.808 J-0.557 K0.000 F30.000
G2 X43.197 Y4.103 Z-1.900 I-0.495 J0.121 K0.000 F30.000
G3 X42.564 Y4.951 Z-1.900 I-1.657 J-0.577 K0.000 F30.000
G3 X38.369 Y4.771 Z-1.900 I-1.965 J-3.161 K0.000 F30.000
G3 X37.938 Y4.102 Z-1.900 I0.698 J-0.923 K0.000 F30.000
G2 X37.793 Y3.664 Z-1.900 I-0.668 J-0.021 K0.000 F30.000
G2 X36.904 Y4.136 Z-1.900 I-0.369 J0.378 K0.000 F30.000
G3 X36.201 Y5.002 Z-1.900 I-1.707 J-0.667 K0.000 F30.000
G3 X32.090 Y4.773 Z-1.900 I-1.882 J-3.231 K0.000 F30.000
G3 X31.655 Y4.102 Z-1.900 I0.693 J-0.925 K0.000 F30.000
G2 X31.425 Y3.588 Z-1.900 I-0.627 J-0.028 K0.000 F30.000
G2 X30.660 Y3.956 Z-1.900 I-0.275 J0.406 K0.000 F30.000
G2 X31.348 Y5.254 Z-1.900 I2.655 J-0.576 K0.000 F30.000
G2 X37.077 Y5.405 Z-1.900 I2.942 J-2.846 K0.000 F30.000
G3 X37.782 Y5.405 Z-1.900 I0.352 J0.491 K0.000 F30.000
G2 X43.259 Y5.465 Z-1.900 I2.771 J-2.940 K0.000 F30.000
G1 X43.259 Y5.465 Z-2.000 F10.000
G2 X44.025 Y4.531 Z-2.000 I-2.706 J-2.999 K0.000 F30.000
G2 X44.195 Y3.896 Z-2.000 I-0.808 J-0.557 K0.000 F30.000
G2 X43.197 Y4.103 Z-2.000 I-0.495 J0.121 K0.000 F30.000
G3 X42.564 Y4.951 Z-2.000 I-1.657 J-0.577 K0.000 F30.000
G3 X38.369 Y4.771 Z-2.000 I-1.965 J-3.161 K0.000 F30.000
G3 X37.938 Y4.102 Z-2.000 I0.698 J-0.923 K0.000 F30.000
G2 X37.793 Y3.664 Z-2.000 I-0.668 J-0.021 K0.000 F30.000
G2 X36.904 Y4.136 Z-2.000 I-0.369 J0.378 K0.000 F30.000
G3 X36.201 Y5.002 Z-2.000 I-1.707 J-0.667 K0.000 F30.000
G3 X32.090 Y4.773 Z-2.000 I-1.882 J-3.231 K0.000 F30.000
G3 X31.655 Y4.102 Z-2.000 I0.693 J-0.925 K0.000 F30.000
G2 X31.425 Y3.588 Z-2.000 I-0.627 J-0.028 K0.000 F30.000
G2 X30.660 Y3.956 Z-2.000 I-0.275 J0.406 K0.000 F30.000
G2 X31.348 Y5.254 Z-2.000 I2.655 J-0.576 K0.000 F30.000
G2 X37.077 Y5.405 Z-2.000 I2.942 J-2.846 K0.000 F30.000
G3 X37.782 Y5.405 Z-2.000 I0.352 J0.491 K0.000 F30.000
G2 X43.259 Y5.465 Z-2.000 I2.771 J-2.940 K0.000 F30.000
G1 X43.259 Y5.465 Z-2.100 F10.000
G2 X44.025 Y4.531 Z-2.100 I-2.706 J-2.999 K0.000 F30.000
G2 X44.195 Y3.896 Z-2.100 I-0.808 J-0.557 K0.000 F30.000
G2 X43.197 Y4.103 Z-2.100 I-0.495 J0.121 K0.000 F30.000
G3 X42.564 Y4.951 Z-2.100 I-1.657 J-0.577 K0.000 F30.000
G3 X38.369 Y4.771 Z-2.100 I-1.965 J-3.161 K0.000 F30.000
G3 X37.938 Y4.102 Z-2.100 I0.698 J-0.923 K0.000 F30.000
G2 X37.793 Y3.664 Z-2.100 I-0.668 J-0.021 K0.000 F30.000
G2 X36.904 Y4.136 Z-2.100 I-0.369 J0.378 K0.000 F30.000
G3 X36.201 Y5.002 Z-2.100 I-1.707 J-0.667 K0.000 F30.000
G3 X32.090 Y4.773 Z-2.100 I-1.882 J-3.231 K0.000 F30.000
G3 X31.655 Y4.102 Z-2.100 I0.693 J-0.925 K0.000 F30.000
G2 X31.425 Y3.588 Z-2.100 I-0.627 J-0.028 K0.000 F30.000
G2 X30.660 Y3.956 Z-2.100 I-0.275 J0.406 K0.000 F30.000
G2 X31.348 Y5.254 Z-2.100 I2.655 J-0.576 K0.000 F30.000
G2 X37.077 Y5.405 Z-2.100 I2.942 J-2.846 K0.000 F30.000
G3 X37.782 Y5.405 Z-2.100 I0.352 J0.491 K0.000 F30.000
G2 X43.259 Y5.465 Z-2.100 I2.771 J-2.940 K0.000 F30.000
G1 X43.259 Y5.465 Z-2.200 F10.000
G2 X44.025 Y4.531 Z-2.200 I-2.706 J-2.999 K0.000 F30.000
G2 X44.195 Y3.896 Z-2.200 I-0.808 J-0.557 K0.000 F30.000
G2 X43.197 Y4.103 Z-2.200 I-0.495 J0.121 K0.000 F30.000
G3 X42.564 Y4.951 Z-2.200 I-1.657 J-0.577 K0.000 F30.000
G3 X38.369 Y4.771 Z-2.200 I-1.965 J-3.161 K0.000 F30.000
G3 X37.938 Y4.102 Z-2.200 I0.698 J-0.923 K0.000 F30.000
G2 X37.793 Y3.664 Z-2.200 I-0.668 J-0.021 K0.000 F30.000
G2 X36.904 Y4.136 Z-2.200 I-0.369 J0.378 K0.000 F30.000
G3 X36.201 Y5.002 Z-2.200 I-1.707 J-0.667 K0.000 F30.000
G3 X32.090 Y4.773 Z-2.200 I-1.882 J-3.231 K0.000 F30.000
G3 X31.655 Y4.102 Z-2.200 I0.693 J-0.925 K0.000 F30.000
G2 X31.425 Y3.588 Z-2.200 I-0.627 J-0.028 K0.000 F30.000
G2 X30.660 Y3.956 Z-2.200 I-0.275 J0.406 K0.000 F30.000
G2 X31.348 Y5.254 Z-2.200 I2.655 J-0.576 K0.000 F30.000
G2 X37.077 Y5.405 Z-2.200 I2.942 J-2.846 K0.000 F30.000
G3 X37.782 Y5.405 Z-2.200 I0.352 J0.491 K0.000 F30.000
G2 X43.259 Y5.465 Z-2.200 I2.771 J-2.940 K0.000 F30.000
G0 Z5.000
G0 Z5.000
(Finish operation: Profile)
(Begin operation: Profile001)
(Path: Profile001)
(Profile001)
(Compensated Tool Path. Diameter: 1.0)
G0 Z5.000
G0 X9.181 Y18.181
G0 Z3.000
G1 X9.181 Y18.181 Z-0.100 F10.000
G2 X5.908 Y10.502 Z-0.100 I-3.181 J-3.181 K0.000 F30.000
G1 X5.353 Y10.548 Z-0.100 F30.000
G2 X6.421 Y19.479 Z-0.100 I0.647 J4.452 K0.000 F30.000
G2 X9.181 Y18.181 Z-0.100 I-0.421 J-4.479 K0.000 F30.000
G1 X9.181 Y18.181 Z-0.200 F10.000
G2 X5.908 Y10.502 Z-0.200 I-3.181 J-3.181 K0.000 F30.000
G1 X5.353 Y10.548 Z-0.200 F30.000
G2 X6.421 Y19.479 Z-0.200 I0.647 J4.452 K0.000 F30.000
G2 X9.181 Y18.181 Z-0.200 I-0.421 J-4.479 K0.000 F30.000
G1 X9.181 Y18.181 Z-0.300 F10.000
G2 X5.908 Y10.502 Z-0.300 I-3.181 J-3.181 K0.000 F30.000
G1 X5.353 Y10.548 Z-0.300 F30.000
G2 X6.421 Y19.479 Z-0.300 I0.647 J4.452 K0.000 F30.000
G2 X9.181 Y18.181 Z-0.300 I-0.421 J-4.479 K0.000 F30.000
G1 X9.181 Y18.181 Z-0.400 F10.000
G2 X5.908 Y10.502 Z-0.400 I-3.181 J-3.181 K0.000 F30.000
G1 X5.353 Y10.548 Z-0.400 F30.000
G2 X6.421 Y19.479 Z-0.400 I0.647 J4.452 K0.000 F30.000
G2 X9.181 Y18.181 Z-0.400 I-0.421 J-4.479 K0.000 F30.000
G1 X9.181 Y18.181 Z-0.500 F10.000
G2 X5.908 Y10.502 Z-0.500 I-3.181 J-3.181 K0.000 F30.000
G1 X5.353 Y10.548 Z-0.500 F30.000
G2 X6.421 Y19.479 Z-0.500 I0.647 J4.452 K0.000 F30.000
G2 X9.181 Y18.181 Z-0.500 I-0.421 J-4.479 K0.000 F30.000
G1 X9.181 Y18.181 Z-0.600 F10.000
G2 X5.908 Y10.502 Z-0.600 I-3.181 J-3.181 K0.000 F30.000
G1 X5.353 Y10.548 Z-0.600 F30.000
G2 X6.421 Y19.479 Z-0.600 I0.647 J4.452 K0.000 F30.000
G2 X9.181 Y18.181 Z-0.600 I-0.421 J-4.479 K0.000 F30.000
G1 X9.181 Y18.181 Z-0.700 F10.000
G2 X5.908 Y10.502 Z-0.700 I-3.181 J-3.181 K0.000 F30.000
G1 X5.353 Y10.548 Z-0.700 F30.000
G2 X6.421 Y19.479 Z-0.700 I0.647 J4.452 K0.000 F30.000
G2 X9.181 Y18.181 Z-0.700 I-0.421 J-4.479 K0.000 F30.000
G1 X9.181 Y18.181 Z-0.800 F10.000
G2 X5.908 Y10.502 Z-0.800 I-3.181 J-3.181 K0.000 F30.000
G1 X5.353 Y10.548 Z-0.800 F30.000
G2 X6.421 Y19.479 Z-0.800 I0.647 J4.452 K0.000 F30.000
G2 X9.181 Y18.181 Z-0.800 I-0.421 J-4.479 K0.000 F30.000
G1 X9.181 Y18.181 Z-0.900 F10.000
G2 X5.908 Y10.502 Z-0.900 I-3.181 J-3.181 K0.000 F30.000
G1 X5.353 Y10.548 Z-0.900 F30.000
G2 X6.421 Y19.479 Z-0.900 I0.647 J4.452 K0.000 F30.000
G2 X9.181 Y18.181 Z-0.900 I-0.421 J-4.479 K0.000 F30.000
G1 X9.181 Y18.181 Z-1.000 F10.000
G2 X5.908 Y10.502 Z-1.000 I-3.181 J-3.181 K0.000 F30.000
G1 X5.353 Y10.548 Z-1.000 F30.000
G2 X6.421 Y19.479 Z-1.000 I0.647 J4.452 K0.000 F30.000
G2 X9.181 Y18.181 Z-1.000 I-0.421 J-4.479 K0.000 F30.000
G1 X9.181 Y18.181 Z-1.100 F10.000
G2 X5.908 Y10.502 Z-1.100 I-3.181 J-3.181 K0.000 F30.000
G1 X5.353 Y10.548 Z-1.100 F30.000
G2 X6.421 Y19.479 Z-1.100 I0.647 J4.452 K0.000 F30.000
G2 X9.181 Y18.181 Z-1.100 I-0.421 J-4.479 K0.000 F30.000
G1 X9.181 Y18.181 Z-1.200 F10.000
G2 X5.908 Y10.502 Z-1.200 I-3.181 J-3.181 K0.000 F30.000
G1 X5.353 Y10.548 Z-1.200 F30.000
G2 X6.421 Y19.479 Z-1.200 I0.647 J4.452 K0.000 F30.000
G2 X9.181 Y18.181 Z-1.200 I-0.421 J-4.479 K0.000 F30.000
G1 X9.181 Y18.181 Z-1.300 F10.000
G2 X5.908 Y10.502 Z-1.300 I-3.181 J-3.181 K0.000 F30.000
G1 X5.353 Y10.548 Z-1.300 F30.000
G2 X6.421 Y19.479 Z-1.300 I0.647 J4.452 K0.000 F30.000
G2 X9.181 Y18.181 Z-1.300 I-0.421 J-4.479 K0.000 F30.000
G1 X9.181 Y18.181 Z-1.400 F10.000
G2 X5.908 Y10.502 Z-1.400 I-3.181 J-3.181 K0.000 F30.000
G1 X5.353 Y10.548 Z-1.400 F30.000
G2 X6.421 Y19.479 Z-1.400 I0.647 J4.452 K0.000 F30.000
G2 X9.181 Y18.181 Z-1.400 I-0.421 J-4.479 K0.000 F30.000
G1 X9.181 Y18.181 Z-1.500 F10.000
G2 X5.908 Y10.502 Z-1.500 I-3.181 J-3.181 K0.000 F30.000
G1 X5.353 Y10.548 Z-1.500 F30.000
G2 X6.421 Y19.479 Z-1.500 I0.647 J4.452 K0.000 F30.000
G2 X9.181 Y18.181 Z-1.500 I-0.421 J-4.479 K0.000 F30.000
G1 X9.181 Y18.181 Z-1.600 F10.000
G2 X5.908 Y10.502 Z-1.600 I-3.181 J-3.181 K0.000 F30.000
G1 X5.353 Y10.548 Z-1.600 F30.000
G2 X6.421 Y19.479 Z-1.600 I0.647 J4.452 K0.000 F30.000
G2 X9.181 Y18.181 Z-1.600 I-0.421 J-4.479 K0.000 F30.000
G1 X9.181 Y18.181 Z-1.700 F10.000
G2 X5.908 Y10.502 Z-1.700 I-3.181 J-3.181 K0.000 F30.000
G1 X5.353 Y10.548 Z-1.700 F30.000
G2 X6.421 Y19.479 Z-1.700 I0.647 J4.452 K0.000 F30.000
G2 X9.181 Y18.181 Z-1.700 I-0.421 J-4.479 K0.000 F30.000
G1 X9.181 Y18.181 Z-1.800 F10.000
G2 X5.908 Y10.502 Z-1.800 I-3.181 J-3.181 K0.000 F30.000
G1 X5.353 Y10.548 Z-1.800 F30.000
G2 X6.421 Y19.479 Z-1.800 I0.647 J4.452 K0.000 F30.000
G2 X9.181 Y18.181 Z-1.800 I-0.421 J-4.479 K0.000 F30.000
G1 X9.181 Y18.181 Z-1.900 F10.000
G2 X5.908 Y10.502 Z-1.900 I-3.181 J-3.181 K0.000 F30.000
G1 X5.353 Y10.548 Z-1.900 F30.000
G2 X6.421 Y19.479 Z-1.900 I0.647 J4.452 K0.000 F30.000
G2 X9.181 Y18.181 Z-1.900 I-0.421 J-4.479 K0.000 F30.000
G1 X9.181 Y18.181 Z-2.000 F10.000
G2 X5.908 Y10.502 Z-2.000 I-3.181 J-3.181 K0.000 F30.000
G1 X5.353 Y10.548 Z-2.000 F30.000
G2 X6.421 Y19.479 Z-2.000 I0.647 J4.452 K0.000 F30.000
G2 X9.181 Y18.181 Z-2.000 I-0.421 J-4.479 K0.000 F30.000
G1 X9.181 Y18.181 Z-2.100 F10.000
G2 X5.908 Y10.502 Z-2.100 I-3.181 J-3.181 K0.000 F30.000
G1 X5.353 Y10.548 Z-2.100 F30.000
G2 X6.421 Y19.479 Z-2.100 I0.647 J4.452 K0.000 F30.000
G2 X9.181 Y18.181 Z-2.100 I-0.421 J-4.479 K0.000 F30.000
G1 X9.181 Y18.181 Z-2.200 F10.000
G2 X5.908 Y10.502 Z-2.200 I-3.181 J-3.181 K0.000 F30.000
G1 X5.353 Y10.548 Z-2.200 F30.000
G2 X6.421 Y19.479 Z-2.200 I0.647 J4.452 K0.000 F30.000
G2 X9.181 Y18.181 Z-2.200 I-0.421 J-4.479 K0.000 F30.000
G0 Z5.000
G0 Z5.000
G0 X9.181 Y18.181
G0 X87.504 Y15.173
G0 X87.504 Y15.173 Z3.000
G1 X87.504 Y15.173 Z-0.100 F10.000
G2 X87.509 Y15.268 Z-0.100 I4.496 J-0.173 K0.000 F30.000
G2 X96.497 Y15.121 Z-0.100 I4.491 J-0.268 K0.000 F30.000
G1 X96.478 Y14.562 Z-0.100 F30.000
G2 X87.504 Y15.173 Z-0.100 I-4.478 J0.438 K0.000 F30.000
G1 X87.504 Y15.173 Z-0.200 F10.000
G2 X87.509 Y15.268 Z-0.200 I4.496 J-0.173 K0.000 F30.000
G2 X96.497 Y15.121 Z-0.200 I4.491 J-0.268 K0.000 F30.000
G1 X96.478 Y14.562 Z-0.200 F30.000
G2 X87.504 Y15.173 Z-0.200 I-4.478 J0.438 K0.000 F30.000
G1 X87.504 Y15.173 Z-0.300 F10.000
G2 X87.509 Y15.268 Z-0.300 I4.496 J-0.173 K0.000 F30.000
G2 X96.497 Y15.121 Z-0.300 I4.491 J-0.268 K0.000 F30.000
G1 X96.478 Y14.562 Z-0.300 F30.000
G2 X87.504 Y15.173 Z-0.300 I-4.478 J0.438 K0.000 F30.000
G1 X87.504 Y15.173 Z-0.400 F10.000
G2 X87.509 Y15.268 Z-0.400 I4.496 J-0.173 K0.000 F30.000
G2 X96.497 Y15.121 Z-0.400 I4.491 J-0.268 K0.000 F30.000
G1 X96.478 Y14.562 Z-0.400 F30.000
G2 X87.504 Y15.173 Z-0.400 I-4.478 J0.438 K0.000 F30.000
G1 X87.504 Y15.173 Z-0.500 F10.000
G2 X87.509 Y15.268 Z-0.500 I4.496 J-0.173 K0.000 F30.000
G2 X96.497 Y15.121 Z-0.500 I4.491 J-0.268 K0.000 F30.000
G1 X96.478 Y14.562 Z-0.500 F30.000
G2 X87.504 Y15.173 Z-0.500 I-4.478 J0.438 K0.000 F30.000
G1 X87.504 Y15.173 Z-0.600 F10.000
G2 X87.509 Y15.268 Z-0.600 I4.496 J-0.173 K0.000 F30.000
G2 X96.497 Y15.121 Z-0.600 I4.491 J-0.268 K0.000 F30.000
G1 X96.478 Y14.562 Z-0.600 F30.000
G2 X87.504 Y15.173 Z-0.600 I-4.478 J0.438 K0.000 F30.000
G1 X87.504 Y15.173 Z-0.700 F10.000
G2 X87.509 Y15.268 Z-0.700 I4.496 J-0.173 K0.000 F30.000
G2 X96.497 Y15.121 Z-0.700 I4.491 J-0.268 K0.000 F30.000
G1 X96.478 Y14.562 Z-0.700 F30.000
G2 X87.504 Y15.173 Z-0.700 I-4.478 J0.438 K0.000 F30.000
G1 X87.504 Y15.173 Z-0.800 F10.000
G2 X87.509 Y15.268 Z-0.800 I4.496 J-0.173 K0.000 F30.000
G2 X96.497 Y15.121 Z-0.800 I4.491 J-0.268 K0.000 F30.000
G1 X96.478 Y14.562 Z-0.800 F30.000
G2 X87.504 Y15.173 Z-0.800 I-4.478 J0.438 K0.000 F30.000
G1 X87.504 Y15.173 Z-0.900 F10.000
G2 X87.509 Y15.268 Z-0.900 I4.496 J-0.173 K0.000 F30.000
G2 X96.497 Y15.121 Z-0.900 I4.491 J-0.268 K0.000 F30.000
G1 X96.478 Y14.562 Z-0.900 F30.000
G2 X87.504 Y15.173 Z-0.900 I-4.478 J0.438 K0.000 F30.000
G1 X87.504 Y15.173 Z-1.000 F10.000
G2 X87.509 Y15.268 Z-1.000 I4.496 J-0.173 K0.000 F30.000
G2 X96.497 Y15.121 Z-1.000 I4.491 J-0.268 K0.000 F30.000
G1 X96.478 Y14.562 Z-1.000 F30.000
G2 X87.504 Y15.173 Z-1.000 I-4.478 J0.438 K0.000 F30.000
G1 X87.504 Y15.173 Z-1.100 F10.000
G2 X87.509 Y15.268 Z-1.100 I4.496 J-0.173 K0.000 F30.000
G2 X96.497 Y15.121 Z-1.100 I4.491 J-0.268 K0.000 F30.000
G1 X96.478 Y14.562 Z-1.100 F30.000
G2 X87.504 Y15.173 Z-1.100 I-4.478 J0.438 K0.000 F30.000
G1 X87.504 Y15.173 Z-1.200 F10.000
G2 X87.509 Y15.268 Z-1.200 I4.496 J-0.173 K0.000 F30.000
G2 X96.497 Y15.121 Z-1.200 I4.491 J-0.268 K0.000 F30.000
G1 X96.478 Y14.562 Z-1.200 F30.000
G2 X87.504 Y15.173 Z-1.200 I-4.478 J0.438 K0.000 F30.000
G1 X87.504 Y15.173 Z-1.300 F10.000
G2 X87.509 Y15.268 Z-1.300 I4.496 J-0.173 K0.000 F30.000
G2 X96.497 Y15.121 Z-1.300 I4.491 J-0.268 K0.000 F30.000
G1 X96.478 Y14.562 Z-1.300 F30.000
G2 X87.504 Y15.173 Z-1.300 I-4.478 J0.438 K0.000 F30.000
G1 X87.504 Y15.173 Z-1.400 F10.000
G2 X87.509 Y15.268 Z-1.400 I4.496 J-0.173 K0.000 F30.000
G2 X96.497 Y15.121 Z-1.400 I4.491 J-0.268 K0.000 F30.000
G1 X96.478 Y14.562 Z-1.400 F30.000
G2 X87.504 Y15.173 Z-1.400 I-4.478 J0.438 K0.000 F30.000
G1 X87.504 Y15.173 Z-1.500 F10.000
G2 X87.509 Y15.268 Z-1.500 I4.496 J-0.173 K0.000 F30.000
G2 X96.497 Y15.121 Z-1.500 I4.491 J-0.268 K0.000 F30.000
G1 X96.478 Y14.562 Z-1.500 F30.000
G2 X87.504 Y15.173 Z-1.500 I-4.478 J0.438 K0.000 F30.000
G1 X87.504 Y15.173 Z-1.600 F10.000
G2 X87.509 Y15.268 Z-1.600 I4.496 J-0.173 K0.000 F30.000
G2 X96.497 Y15.121 Z-1.600 I4.491 J-0.268 K0.000 F30.000
G1 X96.478 Y14.562 Z-1.600 F30.000
G2 X87.504 Y15.173 Z-1.600 I-4.478 J0.438 K0.000 F30.000
G1 X87.504 Y15.173 Z-1.700 F10.000
G2 X87.509 Y15.268 Z-1.700 I4.496 J-0.173 K0.000 F30.000
G2 X96.497 Y15.121 Z-1.700 I4.491 J-0.268 K0.000 F30.000
G1 X96.478 Y14.562 Z-1.700 F30.000
G2 X87.504 Y15.173 Z-1.700 I-4.478 J0.438 K0.000 F30.000
G1 X87.504 Y15.173 Z-1.800 F10.000
G2 X87.509 Y15.268 Z-1.800 I4.496 J-0.173 K0.000 F30.000
G2 X96.497 Y15.121 Z-1.800 I4.491 J-0.268 K0.000 F30.000
G1 X96.478 Y14.562 Z-1.800 F30.000
G2 X87.504 Y15.173 Z-1.800 I-4.478 J0.438 K0.000 F30.000
G1 X87.504 Y15.173 Z-1.900 F10.000
G2 X87.509 Y15.268 Z-1.900 I4.496 J-0.173 K0.000 F30.000
G2 X96.497 Y15.121 Z-1.900 I4.491 J-0.268 K0.000 F30.000
G1 X96.478 Y14.562 Z-1.900 F30.000
G2 X87.504 Y15.173 Z-1.900 I-4.478 J0.438 K0.000 F30.000
G1 X87.504 Y15.173 Z-2.000 F10.000
G2 X87.509 Y15.268 Z-2.000 I4.496 J-0.173 K0.000 F30.000
G2 X96.497 Y15.121 Z-2.000 I4.491 J-0.268 K0.000 F30.000
G1 X96.478 Y14.562 Z-2.000 F30.000
G2 X87.504 Y15.173 Z-2.000 I-4.478 J0.438 K0.000 F30.000
G1 X87.504 Y15.173 Z-2.100 F10.000
G2 X87.509 Y15.268 Z-2.100 I4.496 J-0.173 K0.000 F30.000
G2 X96.497 Y15.121 Z-2.100 I4.491 J-0.268 K0.000 F30.000
G1 X96.478 Y14.562 Z-2.100 F30.000
G2 X87.504 Y15.173 Z-2.100 I-4.478 J0.438 K0.000 F30.000
G1 X87.504 Y15.173 Z-2.200 F10.000
G2 X87.509 Y15.268 Z-2.200 I4.496 J-0.173 K0.000 F30.000
G2 X96.497 Y15.121 Z-2.200 I4.491 J-0.268 K0.000 F30.000
G1 X96.478 Y14.562 Z-2.200 F30.000
G2 X87.504 Y15.173 Z-2.200 I-4.478 J0.438 K0.000 F30.000
G0 Z5.000
G0 Z5.000
(Finish operation: Profile001)
(Begin operation: Profile002)
(Path: Profile002)
(Profile002)
(Compensated Tool Path. Diameter: 1.0)
G0 Z5.000
G0 X63.257 Y5.467
G0 Z3.000
G1 X63.257 Y5.467 Z-0.100 F10.000
G2 X64.025 Y4.531 Z-0.100 I-2.704 J-3.001 K0.000 F30.000
G2 X64.195 Y3.896 Z-0.100 I-0.808 J-0.557 K0.000 F30.000
G2 X63.197 Y4.103 Z-0.100 I-0.495 J0.121 K0.000 F30.000
G3 X62.564 Y4.951 Z-0.100 I-1.657 J-0.577 K0.000 F30.000
G3 X58.369 Y4.771 Z-0.100 I-1.965 J-3.161 K0.000 F30.000
G3 X57.914 Y3.903 Z-0.100 I0.685 J-0.912 K0.000 F30.000
G2 X56.914 Y4.103 Z-0.100 I-0.497 J0.115 K0.000 F30.000
G3 X56.280 Y4.951 Z-0.100 I-1.658 J-0.578 K0.000 F30.000
G3 X52.086 Y4.771 Z-0.100 I-1.965 J-3.161 K0.000 F30.000
G3 X51.655 Y4.102 Z-0.100 I0.698 J-0.923 K0.000 F30.000
G2 X51.405 Y3.578 Z-0.100 I-0.616 J-0.027 K0.000 F30.000
G2 X50.666 Y4.161 Z-0.100 I-0.256 J0.435 K0.000 F30.000
G2 X51.604 Y5.477 Z-0.100 I3.543 J-1.533 K0.000 F30.000
G2 X57.078 Y5.404 Z-0.100 I2.698 J-2.998 K0.000 F30.000
G3 X57.782 Y5.405 Z-0.100 I0.351 J0.492 K0.000 F30.000
G2 X63.257 Y5.467 Z-0.100 I2.771 J-2.940 K0.000 F30.000
G1 X63.257 Y5.467 Z-0.200 F10.000
G2 X64.025 Y4.531 Z-0.200 I-2.704 J-3.001 K0.000 F30.000
G2 X64.195 Y3.896 Z-0.200 I-0.808 J-0.557 K0.000 F30.000
G2 X63.197 Y4.103 Z-0.200 I-0.495 J0.121 K0.000 F30.000
G3 X62.564 Y4.951 Z-0.200 I-1.657 J-0.577 K0.000 F30.000
G3 X58.369 Y4.771 Z-0.200 I-1.965 J-3.161 K0.000 F30.000
G3 X57.914 Y3.903 Z-0.200 I0.685 J-0.912 K0.000 F30.000
G2 X56.914 Y4.103 Z-0.200 I-0.497 J0.115 K0.000 F30.000
G3 X56.280 Y4.951 Z-0.200 I-1.658 J-0.578 K0.000 F30.000
G3 X52.086 Y4.771 Z-0.200 I-1.965 J-3.161 K0.000 F30.000
G3 X51.655 Y4.102 Z-0.200 I0.698 J-0.923 K0.000 F30.000
G2 X51.405 Y3.578 Z-0.200 I-0.616 J-0.027 K0.000 F30.000
G2 X50.666 Y4.161 Z-0.200 I-0.256 J0.435 K0.000 F30.000
G2 X51.604 Y5.477 Z-0.200 I3.543 J-1.533 K0.000 F30.000
G2 X57.078 Y5.404 Z-0.200 I2.698 J-2.998 K0.000 F30.000
G3 X57.782 Y5.405 Z-0.200 I0.351 J0.492 K0.000 F30.000
G2 X63.257 Y5.467 Z-0.200 I2.771 J-2.940 K0.000 F30.000
G1 X63.257 Y5.467 Z-0.300 F10.000
G2 X64.025 Y4.531 Z-0.300 I-2.704 J-3.001 K0.000 F30.000
G2 X64.195 Y3.896 Z-0.300 I-0.808 J-0.557 K0.000 F30.000
G2 X63.197 Y4.103 Z-0.300 I-0.495 J0.121 K0.000 F30.000
G3 X62.564 Y4.951 Z-0.300 I-1.657 J-0.577 K0.000 F30.000
G3 X58.369 Y4.771 Z-0.300 I-1.965 J-3.161 K0.000 F30.000
G3 X57.914 Y3.903 Z-0.300 I0.685 J-0.912 K0.000 F30.000
G2 X56.914 Y4.103 Z-0.300 I-0.497 J0.115 K0.000 F30.000
G3 X56.280 Y4.951 Z-0.300 I-1.658 J-0.578 K0.000 F30.000
G3 X52.086 Y4.771 Z-0.300 I-1.965 J-3.161 K0.000 F30.000
G3 X51.655 Y4.102 Z-0.300 I0.698 J-0.923 K0.000 F30.000
G2 X51.405 Y3.578 Z-0.300 I-0.616 J-0.027 K0.000 F30.000
G2 X50.666 Y4.161 Z-0.300 I-0.256 J0.435 K0.000 F30.000
G2 X51.604 Y5.477 Z-0.300 I3.543 J-1.533 K0.000 F30.000
G2 X57.078 Y5.404 Z-0.300 I2.698 J-2.998 K0.000 F30.000
G3 X57.782 Y5.405 Z-0.300 I0.351 J0.492 K0.000 F30.000
G2 X63.257 Y5.467 Z-0.300 I2.771 J-2.940 K0.000 F30.000
G1 X63.257 Y5.467 Z-0.400 F10.000
G2 X64.025 Y4.531 Z-0.400 I-2.704 J-3.001 K0.000 F30.000
G2 X64.195 Y3.896 Z-0.400 I-0.808 J-0.557 K0.000 F30.000
G2 X63.197 Y4.103 Z-0.400 I-0.495 J0.121 K0.000 F30.000
G3 X62.564 Y4.951 Z-0.400 I-1.657 J-0.577 K0.000 F30.000
G3 X58.369 Y4.771 Z-0.400 I-1.965 J-3.161 K0.000 F30.000
G3 X57.914 Y3.903 Z-0.400 I0.685 J-0.912 K0.000 F30.000
G2 X56.914 Y4.103 Z-0.400 I-0.497 J0.115 K0.000 F30.000
G3 X56.280 Y4.951 Z-0.400 I-1.658 J-0.578 K0.000 F30.000
G3 X52.086 Y4.771 Z-0.400 I-1.965 J-3.161 K0.000 F30.000
G3 X51.655 Y4.102 Z-0.400 I0.698 J-0.923 K0.000 F30.000
G2 X51.405 Y3.578 Z-0.400 I-0.616 J-0.027 K0.000 F30.000
G2 X50.666 Y4.161 Z-0.400 I-0.256 J0.435 K0.000 F30.000
G2 X51.604 Y5.477 Z-0.400 I3.543 J-1.533 K0.000 F30.000
G2 X57.078 Y5.404 Z-0.400 I2.698 J-2.998 K0.000 F30.000
G3 X57.782 Y5.405 Z-0.400 I0.351 J0.492 K0.000 F30.000
G2 X63.257 Y5.467 Z-0.400 I2.771 J-2.940 K0.000 F30.000
G1 X63.257 Y5.467 Z-0.500 F10.000
G2 X64.025 Y4.531 Z-0.500 I-2.704 J-3.001 K0.000 F30.000
G2 X64.195 Y3.896 Z-0.500 I-0.808 J-0.557 K0.000 F30.000
G2 X63.197 Y4.103 Z-0.500 I-0.495 J0.121 K0.000 F30.000
G3 X62.564 Y4.951 Z-0.500 I-1.657 J-0.577 K0.000 F30.000
G3 X58.369 Y4.771 Z-0.500 I-1.965 J-3.161 K0.000 F30.000
G3 X57.914 Y3.903 Z-0.500 I0.685 J-0.912 K0.000 F30.000
G2 X56.914 Y4.103 Z-0.500 I-0.497 J0.115 K0.000 F30.000
G3 X56.280 Y4.951 Z-0.500 I-1.658 J-0.578 K0.000 F30.000
G3 X52.086 Y4.771 Z-0.500 I-1.965 J-3.161 K0.000 F30.000
G3 X51.655 Y4.102 Z-0.500 I0.698 J-0.923 K0.000 F30.000
G2 X51.405 Y3.578 Z-0.500 I-0.616 J-0.027 K0.000 F30.000
G2 X50.666 Y4.161 Z-0.500 I-0.256 J0.435 K0.000 F30.000
G2 X51.604 Y5.477 Z-0.500 I3.543 J-1.533 K0.000 F30.000
G2 X57.078 Y5.404 Z-0.500 I2.698 J-2.998 K0.000 F30.000
G3 X57.782 Y5.405 Z-0.500 I0.351 J0.492 K0.000 F30.000
G2 X63.257 Y5.467 Z-0.500 I2.771 J-2.940 K0.000 F30.000
G1 X63.257 Y5.467 Z-0.600 F10.000
G2 X64.025 Y4.531 Z-0.600 I-2.704 J-3.001 K0.000 F30.000
G2 X64.195 Y3.896 Z-0.600 I-0.808 J-0.557 K0.000 F30.000
G2 X63.197 Y4.103 Z-0.600 I-0.495 J0.121 K0.000 F30.000
G3 X62.564 Y4.951 Z-0.600 I-1.657 J-0.577 K0.000 F30.000
G3 X58.369 Y4.771 Z-0.600 I-1.965 J-3.161 K0.000 F30.000
G3 X57.914 Y3.903 Z-0.600 I0.685 J-0.912 K0.000 F30.000
G2 X56.914 Y4.103 Z-0.600 I-0.497 J0.115 K0.000 F30.000
G3 X56.280 Y4.951 Z-0.600 I-1.658 J-0.578 K0.000 F30.000
G3 X52.086 Y4.771 Z-0.600 I-1.965 J-3.161 K0.000 F30.000
G3 X51.655 Y4.102 Z-0.600 I0.698 J-0.923 K0.000 F30.000
G2 X51.405 Y3.578 Z-0.600 I-0.616 J-0.027 K0.000 F30.000
G2 X50.666 Y4.161 Z-0.600 I-0.256 J0.435 K0.000 F30.000
G2 X51.604 Y5.477 Z-0.600 I3.543 J-1.533 K0.000 F30.000
G2 X57.078 Y5.404 Z-0.600 I2.698 J-2.998 K0.000 F30.000
G3 X57.782 Y5.405 Z-0.600 I0.351 J0.492 K0.000 F30.000
G2 X63.257 Y5.467 Z-0.600 I2.771 J-2.940 K0.000 F30.000
G1 X63.257 Y5.467 Z-0.700 F10.000
G2 X64.025 Y4.531 Z-0.700 I-2.704 J-3.001 K0.000 F30.000
G2 X64.195 Y3.896 Z-0.700 I-0.808 J-0.557 K0.000 F30.000
G2 X63.197 Y4.103 Z-0.700 I-0.495 J0.121 K0.000 F30.000
G3 X62.564 Y4.951 Z-0.700 I-1.657 J-0.577 K0.000 F30.000
G3 X58.369 Y4.771 Z-0.700 I-1.965 J-3.161 K0.000 F30.000
G3 X57.914 Y3.903 Z-0.700 I0.685 J-0.912 K0.000 F30.000
G2 X56.914 Y4.103 Z-0.700 I-0.497 J0.115 K0.000 F30.000
G3 X56.280 Y4.951 Z-0.700 I-1.658 J-0.578 K0.000 F30.000
G3 X52.086 Y4.771 Z-0.700 I-1.965 J-3.161 K0.000 F30.000
G3 X51.655 Y4.102 Z-0.700 I0.698 J-0.923 K0.000 F30.000
G2 X51.405 Y3.578 Z-0.700 I-0.616 J-0.027 K0.000 F30.000
G2 X50.666 Y4.161 Z-0.700 I-0.256 J0.435 K0.000 F30.000
G2 X51.604 Y5.477 Z-0.700 I3.543 J-1.533 K0.000 F30.000
G2 X57.078 Y5.404 Z-0.700 I2.698 J-2.998 K0.000 F30.000
G3 X57.782 Y5.405 Z-0.700 I0.351 J0.492 K0.000 F30.000
G2 X63.257 Y5.467 Z-0.700 I2.771 J-2.940 K0.000 F30.000
G1 X63.257 Y5.467 Z-0.800 F10.000
G2 X64.025 Y4.531 Z-0.800 I-2.704 J-3.001 K0.000 F30.000
G2 X64.195 Y3.896 Z-0.800 I-0.808 J-0.557 K0.000 F30.000
G2 X63.197 Y4.103 Z-0.800 I-0.495 J0.121 K0.000 F30.000
G3 X62.564 Y4.951 Z-0.800 I-1.657 J-0.577 K0.000 F30.000
G3 X58.369 Y4.771 Z-0.800 I-1.965 J-3.161 K0.000 F30.000
G3 X57.914 Y3.903 Z-0.800 I0.685 J-0.912 K0.000 F30.000
G2 X56.914 Y4.103 Z-0.800 I-0.497 J0.115 K0.000 F30.000
G3 X56.280 Y4.951 Z-0.800 I-1.658 J-0.578 K0.000 F30.000
G3 X52.086 Y4.771 Z-0.800 I-1.965 J-3.161 K0.000 F30.000
G3 X51.655 Y4.102 Z-0.800 I0.698 J-0.923 K0.000 F30.000
G2 X51.405 Y3.578 Z-0.800 I-0.616 J-0.027 K0.000 F30.000
G2 X50.666 Y4.161 Z-0.800 I-0.256 J0.435 K0.000 F30.000
G2 X51.604 Y5.477 Z-0.800 I3.543 J-1.533 K0.000 F30.000
G2 X57.078 Y5.404 Z-0.800 I2.698 J-2.998 K0.000 F30.000
G3 X57.782 Y5.405 Z-0.800 I0.351 J0.492 K0.000 F30.000
G2 X63.257 Y5.467 Z-0.800 I2.771 J-2.940 K0.000 F30.000
G1 X63.257 Y5.467 Z-0.900 F10.000
G2 X64.025 Y4.531 Z-0.900 I-2.704 J-3.001 K0.000 F30.000
G2 X64.195 Y3.896 Z-0.900 I-0.808 J-0.557 K0.000 F30.000
G2 X63.197 Y4.103 Z-0.900 I-0.495 J0.121 K0.000 F30.000
G3 X62.564 Y4.951 Z-0.900 I-1.657 J-0.577 K0.000 F30.000
G3 X58.369 Y4.771 Z-0.900 I-1.965 J-3.161 K0.000 F30.000
G3 X57.914 Y3.903 Z-0.900 I0.685 J-0.912 K0.000 F30.000
G2 X56.914 Y4.103 Z-0.900 I-0.497 J0.115 K0.000 F30.000
G3 X56.280 Y4.951 Z-0.900 I-1.658 J-0.578 K0.000 F30.000
G3 X52.086 Y4.771 Z-0.900 I-1.965 J-3.161 K0.000 F30.000
G3 X51.655 Y4.102 Z-0.900 I0.698 J-0.923 K0.000 F30.000
G2 X51.405 Y3.578 Z-0.900 I-0.616 J-0.027 K0.000 F30.000
G2 X50.666 Y4.161 Z-0.900 I-0.256 J0.435 K0.000 F30.000
G2 X51.604 Y5.477 Z-0.900 I3.543 J-1.533 K0.000 F30.000
G2 X57.078 Y5.404 Z-0.900 I2.698 J-2.998 K0.000 F30.000
G3 X57.782 Y5.405 Z-0.900 I0.351 J0.492 K0.000 F30.000
G2 X63.257 Y5.467 Z-0.900 I2.771 J-2.940 K0.000 F30.000
G1 X63.257 Y5.467 Z-1.000 F10.000
G2 X64.025 Y4.531 Z-1.000 I-2.704 J-3.001 K0.000 F30.000
G2 X64.195 Y3.896 Z-1.000 I-0.808 J-0.557 K0.000 F30.000
G2 X63.197 Y4.103 Z-1.000 I-0.495 J0.121 K0.000 F30.000
G3 X62.564 Y4.951 Z-1.000 I-1.657 J-0.577 K0.000 F30.000
G3 X58.369 Y4.771 Z-1.000 I-1.965 J-3.161 K0.000 F30.000
G3 X57.914 Y3.903 Z-1.000 I0.685 J-0.912 K0.000 F30.000
G2 X56.914 Y4.103 Z-1.000 I-0.497 J0.115 K0.000 F30.000
G3 X56.280 Y4.951 Z-1.000 I-1.658 J-0.578 K0.000 F30.000
G3 X52.086 Y4.771 Z-1.000 I-1.965 J-3.161 K0.000 F30.000
G3 X51.655 Y4.102 Z-1.000 I0.698 J-0.923 K0.000 F30.000
G2 X51.405 Y3.578 Z-1.000 I-0.616 J-0.027 K0.000 F30.000
G2 X50.666 Y4.161 Z-1.000 I-0.256 J0.435 K0.000 F30.000
G2 X51.604 Y5.477 Z-1.000 I3.543 J-1.533 K0.000 F30.000
G2 X57.078 Y5.404 Z-1.000 I2.698 J-2.998 K0.000 F30.000
G3 X57.782 Y5.405 Z-1.000 I0.351 J0.492 K0.000 F30.000
G2 X63.257 Y5.467 Z-1.000 I2.771 J-2.940 K0.000 F30.000
G1 X63.257 Y5.467 Z-1.100 F10.000
G2 X64.025 Y4.531 Z-1.100 I-2.704 J-3.001 K0.000 F30.000
G2 X64.195 Y3.896 Z-1.100 I-0.808 J-0.557 K0.000 F30.000
G2 X63.197 Y4.103 Z-1.100 I-0.495 J0.121 K0.000 F30.000
G3 X62.564 Y4.951 Z-1.100 I-1.657 J-0.577 K0.000 F30.000
G3 X58.369 Y4.771 Z-1.100 I-1.965 J-3.161 K0.000 F30.000
G3 X57.914 Y3.903 Z-1.100 I0.685 J-0.912 K0.000 F30.000
G2 X56.914 Y4.103 Z-1.100 I-0.497 J0.115 K0.000 F30.000
G3 X56.280 Y4.951 Z-1.100 I-1.658 J-0.578 K0.000 F30.000
G3 X52.086 Y4.771 Z-1.100 I-1.965 J-3.161 K0.000 F30.000
G3 X51.655 Y4.102 Z-1.100 I0.698 J-0.923 K0.000 F30.000
G2 X51.405 Y3.578 Z-1.100 I-0.616 J-0.027 K0.000 F30.000
G2 X50.666 Y4.161 Z-1.100 I-0.256 J0.435 K0.000 F30.000
G2 X51.604 Y5.477 Z-1.100 I3.543 J-1.533 K0.000 F30.000
G2 X57.078 Y5.404 Z-1.100 I2.698 J-2.998 K0.000 F30.000
G3 X57.782 Y5.405 Z-1.100 I0.351 J0.492 K0.000 F30.000
G2 X63.257 Y5.467 Z-1.100 I2.771 J-2.940 K0.000 F30.000
G1 X63.257 Y5.467 Z-1.200 F10.000
G2 X64.025 Y4.531 Z-1.200 I-2.704 J-3.001 K0.000 F30.000
G2 X64.195 Y3.896 Z-1.200 I-0.808 J-0.557 K0.000 F30.000
G2 X63.197 Y4.103 Z-1.200 I-0.495 J0.121 K0.000 F30.000
G3 X62.564 Y4.951 Z-1.200 I-1.657 J-0.577 K0.000 F30.000
G3 X58.369 Y4.771 Z-1.200 I-1.965 J-3.161 K0.000 F30.000
G3 X57.914 Y3.903 Z-1.200 I0.685 J-0.912 K0.000 F30.000
G2 X56.914 Y4.103 Z-1.200 I-0.497 J0.115 K0.000 F30.000
G3 X56.280 Y4.951 Z-1.200 I-1.658 J-0.578 K0.000 F30.000
G3 X52.086 Y4.771 Z-1.200 I-1.965 J-3.161 K0.000 F30.000
G3 X51.655 Y4.102 Z-1.200 I0.698 J-0.923 K0.000 F30.000
G2 X51.405 Y3.578 Z-1.200 I-0.616 J-0.027 K0.000 F30.000
G2 X50.666 Y4.161 Z-1.200 I-0.256 J0.435 K0.000 F30.000
G2 X51.604 Y5.477 Z-1.200 I3.543 J-1.533 K0.000 F30.000
G2 X57.078 Y5.404 Z-1.200 I2.698 J-2.998 K0.000 F30.000
G3 X57.782 Y5.405 Z-1.200 I0.351 J0.492 K0.000 F30.000
G2 X63.257 Y5.467 Z-1.200 I2.771 J-2.940 K0.000 F30.000
G1 X63.257 Y5.467 Z-1.300 F10.000
G2 X64.025 Y4.531 Z-1.300 I-2.704 J-3.001 K0.000 F30.000
G2 X64.195 Y3.896 Z-1.300 I-0.808 J-0.557 K0.000 F30.000
G2 X63.197 Y4.103 Z-1.300 I-0.495 J0.121 K0.000 F30.000
G3 X62.564 Y4.951 Z-1.300 I-1.657 J-0.577 K0.000 F30.000
G3 X58.369 Y4.771 Z-1.300 I-1.965 J-3.161 K0.000 F30.000
G3 X57.914 Y3.903 Z-1.300 I0.685 J-0.912 K0.000 F30.000
G2 X56.914 Y4.103 Z-1.300 I-0.497 J0.115 K0.000 F30.000
G3 X56.280 Y4.951 Z-1.300 I-1.658 J-0.578 K0.000 F30.000
G3 X52.086 Y4.771 Z-1.300 I-1.965 J-3.161 K0.000 F30.000
G3 X51.655 Y4.102 Z-1.300 I0.698 J-0.923 K0.000 F30.000
G2 X51.405 Y3.578 Z-1.300 I-0.616 J-0.027 K0.000 F30.000
G2 X50.666 Y4.161 Z-1.300 I-0.256 J0.435 K0.000 F30.000
G2 X51.604 Y5.477 Z-1.300 I3.543 J-1.533 K0.000 F30.000
G2 X57.078 Y5.404 Z-1.300 I2.698 J-2.998 K0.000 F30.000
G3 X57.782 Y5.405 Z-1.300 I0.351 J0.492 K0.000 F30.000
G2 X63.257 Y5.467 Z-1.300 I2.771 J-2.940 K0.000 F30.000
G1 X63.257 Y5.467 Z-1.400 F10.000
G2 X64.025 Y4.531 Z-1.400 I-2.704 J-3.001 K0.000 F30.000
G2 X64.195 Y3.896 Z-1.400 I-0.808 J-0.557 K0.000 F30.000
G2 X63.197 Y4.103 Z-1.400 I-0.495 J0.121 K0.000 F30.000
G3 X62.564 Y4.951 Z-1.400 I-1.657 J-0.577 K0.000 F30.000
G3 X58.369 Y4.771 Z-1.400 I-1.965 J-3.161 K0.000 F30.000
G3 X57.914 Y3.903 Z-1.400 I0.685 J-0.912 K0.000 F30.000
G2 X56.914 Y4.103 Z-1.400 I-0.497 J0.115 K0.000 F30.000
G3 X56.280 Y4.951 Z-1.400 I-1.658 J-0.578 K0.000 F30.000
G3 X52.086 Y4.771 Z-1.400 I-1.965 J-3.161 K0.000 F30.000
G3 X51.655 Y4.102 Z-1.400 I0.698 J-0.923 K0.000 F30.000
G2 X51.405 Y3.578 Z-1.400 I-0.616 J-0.027 K0.000 F30.000
G2 X50.666 Y4.161 Z-1.400 I-0.256 J0.435 K0.000 F30.000
G2 X51.604 Y5.477 Z-1.400 I3.543 J-1.533 K0.000 F30.000
G2 X57.078 Y5.404 Z-1.400 I2.698 J-2.998 K0.000 F30.000
G3 X57.782 Y5.405 Z-1.400 I0.351 J0.492 K0.000 F30.000
G2 X63.257 Y5.467 Z-1.400 I2.771 J-2.940 K0.000 F30.000
G1 X63.257 Y5.467 Z-1.500 F10.000
G2 X64.025 Y4.531 Z-1.500 I-2.704 J-3.001 K0.000 F30.000
G2 X64.195 Y3.896 Z-1.500 I-0.808 J-0.557 K0.000 F30.000
G2 X63.197 Y4.103 Z-1.500 I-0.495 J0.121 K0.000 F30.000
G3 X62.564 Y4.951 Z-1.500 I-1.657 J-0.577 K0.000 F30.000
G3 X58.369 Y4.771 Z-1.500 I-1.965 J-3.161 K0.000 F30.000
G3 X57.914 Y3.903 Z-1.500 I0.685 J-0.912 K0.000 F30.000
G2 X56.914 Y4.103 Z-1.500 I-0.497 J0.115 K0.000 F30.000
G3 X56.280 Y4.951 Z-1.500 I-1.658 J-0.578 K0.000 F30.000
G3 X52.086 Y4.771 Z-1.500 I-1.965 J-3.161 K0.000 F30.000
G3 X51.655 Y4.102 Z-1.500 I0.698 J-0.923 K0.000 F30.000
G2 X51.405 Y3.578 Z-1.500 I-0.616 J-0.027 K0.000 F30.000
G2 X50.666 Y4.161 Z-1.500 I-0.256 J0.435 K0.000 F30.000
G2 X51.604 Y5.477 Z-1.500 I3.543 J-1.533 K0.000 F30.000
G2 X57.078 Y5.404 Z-1.500 I2.698 J-2.998 K0.000 F30.000
G3 X57.782 Y5.405 Z-1.500 I0.351 J0.492 K0.000 F30.000
G2 X63.257 Y5.467 Z-1.500 I2.771 J-2.940 K0.000 F30.000
G1 X63.257 Y5.467 Z-1.600 F10.000
G2 X64.025 Y4.531 Z-1.600 I-2.704 J-3.001 K0.000 F30.000
G2 X64.195 Y3.896 Z-1.600 I-0.808 J-0.557 K0.000 F30.000
G2 X63.197 Y4.103 Z-1.600 I-0.495 J0.121 K0.000 F30.000
G3 X62.564 Y4.951 Z-1.600 I-1.657 J-0.577 K0.000 F30.000
G3 X58.369 Y4.771 Z-1.600 I-1.965 J-3.161 K0.000 F30.000
G3 X57.914 Y3.903 Z-1.600 I0.685 J-0.912 K0.000 F30.000
G2 X56.914 Y4.103 Z-1.600 I-0.497 J0.115 K0.000 F30.000
G3 X56.280 Y4.951 Z-1.600 I-1.658 J-0.578 K0.000 F30.000
G3 X52.086 Y4.771 Z-1.600 I-1.965 J-3.161 K0.000 F30.000
G3 X51.655 Y4.102 Z-1.600 I0.698 J-0.923 K0.000 F30.000
G2 X51.405 Y3.578 Z-1.600 I-0.616 J-0.027 K0.000 F30.000
G2 X50.666 Y4.161 Z-1.600 I-0.256 J0.435 K0.000 F30.000
G2 X51.604 Y5.477 Z-1.600 I3.543 J-1.533 K0.000 F30.000
G2 X57.078 Y5.404 Z-1.600 I2.698 J-2.998 K0.000 F30.000
G3 X57.782 Y5.405 Z-1.600 I0.351 J0.492 K0.000 F30.000
G2 X63.257 Y5.467 Z-1.600 I2.771 J-2.940 K0.000 F30.000
G1 X63.257 Y5.467 Z-1.700 F10.000
G2 X64.025 Y4.531 Z-1.700 I-2.704 J-3.001 K0.000 F30.000
G2 X64.195 Y3.896 Z-1.700 I-0.808 J-0.557 K0.000 F30.000
G2 X63.197 Y4.103 Z-1.700 I-0.495 J0.121 K0.000 F30.000
G3 X62.564 Y4.951 Z-1.700 I-1.657 J-0.577 K0.000 F30.000
G3 X58.369 Y4.771 Z-1.700 I-1.965 J-3.161 K0.000 F30.000
G3 X57.914 Y3.903 Z-1.700 I0.685 J-0.912 K0.000 F30.000
G2 X56.914 Y4.103 Z-1.700 I-0.497 J0.115 K0.000 F30.000
G3 X56.280 Y4.951 Z-1.700 I-1.658 J-0.578 K0.000 F30.000
G3 X52.086 Y4.771 Z-1.700 I-1.965 J-3.161 K0.000 F30.000
G3 X51.655 Y4.102 Z-1.700 I0.698 J-0.923 K0.000 F30.000
G2 X51.405 Y3.578 Z-1.700 I-0.616 J-0.027 K0.000 F30.000
G2 X50.666 Y4.161 Z-1.700 I-0.256 J0.435 K0.000 F30.000
G2 X51.604 Y5.477 Z-1.700 I3.543 J-1.533 K0.000 F30.000
G2 X57.078 Y5.404 Z-1.700 I2.698 J-2.998 K0.000 F30.000
G3 X57.782 Y5.405 Z-1.700 I0.351 J0.492 K0.000 F30.000
G2 X63.257 Y5.467 Z-1.700 I2.771 J-2.940 K0.000 F30.000
G1 X63.257 Y5.467 Z-1.800 F10.000
G2 X64.025 Y4.531 Z-1.800 I-2.704 J-3.001 K0.000 F30.000
G2 X64.195 Y3.896 Z-1.800 I-0.808 J-0.557 K0.000 F30.000
G2 X63.197 Y4.103 Z-1.800 I-0.495 J0.121 K0.000 F30.000
G3 X62.564 Y4.951 Z-1.800 I-1.657 J-0.577 K0.000 F30.000
G3 X58.369 Y4.771 Z-1.800 I-1.965 J-3.161 K0.000 F30.000
G3 X57.914 Y3.903 Z-1.800 I0.685 J-0.912 K0.000 F30.000
G2 X56.914 Y4.103 Z-1.800 I-0.497 J0.115 K0.000 F30.000
G3 X56.280 Y4.951 Z-1.800 I-1.658 J-0.578 K0.000 F30.000
G3 X52.086 Y4.771 Z-1.800 I-1.965 J-3.161 K0.000 F30.000
G3 X51.655 Y4.102 Z-1.800 I0.698 J-0.923 K0.000 F30.000
G2 X51.405 Y3.578 Z-1.800 I-0.616 J-0.027 K0.000 F30.000
G2 X50.666 Y4.161 Z-1.800 I-0.256 J0.435 K0.000 F30.000
G2 X51.604 Y5.477 Z-1.800 I3.543 J-1.533 K0.000 F30.000
G2 X57.078 Y5.404 Z-1.800 I2.698 J-2.998 K0.000 F30.000
G3 X57.782 Y5.405 Z-1.800 I0.351 J0.492 K0.000 F30.000
G2 X63.257 Y5.467 Z-1.800 I2.771 J-2.940 K0.000 F30.000
G1 X63.257 Y5.467 Z-1.900 F10.000
G2 X64.025 Y4.531 Z-1.900 I-2.704 J-3.001 K0.000 F30.000
G2 X64.195 Y3.896 Z-1.900 I-0.808 J-0.557 K0.000 F30.000
G2 X63.197 Y4.103 Z-1.900 I-0.495 J0.121 K0.000 F30.000
G3 X62.564 Y4.951 Z-1.900 I-1.657 J-0.577 K0.000 F30.000
G3 X58.369 Y4.771 Z-1.900 I-1.965 J-3.161 K0.000 F30.000
G3 X57.914 Y3.903 Z-1.900 I0.685 J-0.912 K0.000 F30.000
G2 X56.914 Y4.103 Z-1.900 I-0.497 J0.115 K0.000 F30.000
G3 X56.280 Y4.951 Z-1.900 I-1.658 J-0.578 K0.000 F30.000
G3 X52.086 Y4.771 Z-1.900 I-1.965 J-3.161 K0.000 F30.000
G3 X51.655 Y4.102 Z-1.900 I0.698 J-0.923 K0.000 F30.000
G2 X51.405 Y3.578 Z-1.900 I-0.616 J-0.027 K0.000 F30.000
G2 X50.666 Y4.161 Z-1.900 I-0.256 J0.435 K0.000 F30.000
G2 X51.604 Y5.477 Z-1.900 I3.543 J-1.533 K0.000 F30.000
G2 X57.078 Y5.404 Z-1.900 I2.698 J-2.998 K0.000 F30.000
G3 X57.782 Y5.405 Z-1.900 I0.351 J0.492 K0.000 F30.000
G2 X63.257 Y5.467 Z-1.900 I2.771 J-2.940 K0.000 F30.000
G1 X63.257 Y5.467 Z-2.000 F10.000
G2 X64.025 Y4.531 Z-2.000 I-2.704 J-3.001 K0.000 F30.000
G2 X64.195 Y3.896 Z-2.000 I-0.808 J-0.557 K0.000 F30.000
G2 X63.197 Y4.103 Z-2.000 I-0.495 J0.121 K0.000 F30.000
G3 X62.564 Y4.951 Z-2.000 I-1.657 J-0.577 K0.000 F30.000
G3 X58.369 Y4.771 Z-2.000 I-1.965 J-3.161 K0.000 F30.000
G3 X57.914 Y3.903 Z-2.000 I0.685 J-0.912 K0.000 F30.000
G2 X56.914 Y4.103 Z-2.000 I-0.497 J0.115 K0.000 F30.000
G3 X56.280 Y4.951 Z-2.000 I-1.658 J-0.578 K0.000 F30.000
G3 X52.086 Y4.771 Z-2.000 I-1.965 J-3.161 K0.000 F30.000
G3 X51.655 Y4.102 Z-2.000 I0.698 J-0.923 K0.000 F30.000
G2 X51.405 Y3.578 Z-2.000 I-0.616 J-0.027 K0.000 F30.000
G2 X50.666 Y4.161 Z-2.000 I-0.256 J0.435 K0.000 F30.000
G2 X51.604 Y5.477 Z-2.000 I3.543 J-1.533 K0.000 F30.000
G2 X57.078 Y5.404 Z-2.000 I2.698 J-2.998 K0.000 F30.000
G3 X57.782 Y5.405 Z-2.000 I0.351 J0.492 K0.000 F30.000
G2 X63.257 Y5.467 Z-2.000 I2.771 J-2.940 K0.000 F30.000
G1 X63.257 Y5.467 Z-2.100 F10.000
G2 X64.025 Y4.531 Z-2.100 I-2.704 J-3.001 K0.000 F30.000
G2 X64.195 Y3.896 Z-2.100 I-0.808 J-0.557 K0.000 F30.000
G2 X63.197 Y4.103 Z-2.100 I-0.495 J0.121 K0.000 F30.000
G3 X62.564 Y4.951 Z-2.100 I-1.657 J-0.577 K0.000 F30.000
G3 X58.369 Y4.771 Z-2.100 I-1.965 J-3.161 K0.000 F30.000
G3 X57.914 Y3.903 Z-2.100 I0.685 J-0.912 K0.000 F30.000
G2 X56.914 Y4.103 Z-2.100 I-0.497 J0.115 K0.000 F30.000
G3 X56.280 Y4.951 Z-2.100 I-1.658 J-0.578 K0.000 F30.000
G3 X52.086 Y4.771 Z-2.100 I-1.965 J-3.161 K0.000 F30.000
G3 X51.655 Y4.102 Z-2.100 I0.698 J-0.923 K0.000 F30.000
G2 X51.405 Y3.578 Z-2.100 I-0.616 J-0.027 K0.000 F30.000
G2 X50.666 Y4.161 Z-2.100 I-0.256 J0.435 K0.000 F30.000
G2 X51.604 Y5.477 Z-2.100 I3.543 J-1.533 K0.000 F30.000
G2 X57.078 Y5.404 Z-2.100 I2.698 J-2.998 K0.000 F30.000
G3 X57.782 Y5.405 Z-2.100 I0.351 J0.492 K0.000 F30.000
G2 X63.257 Y5.467 Z-2.100 I2.771 J-2.940 K0.000 F30.000
G1 X63.257 Y5.467 Z-2.200 F10.000
G2 X64.025 Y4.531 Z-2.200 I-2.704 J-3.001 K0.000 F30.000
G2 X64.195 Y3.896 Z-2.200 I-0.808 J-0.557 K0.000 F30.000
G2 X63.197 Y4.103 Z-2.200 I-0.495 J0.121 K0.000 F30.000
G3 X62.564 Y4.951 Z-2.200 I-1.657 J-0.577 K0.000 F30.000
G3 X58.369 Y4.771 Z-2.200 I-1.965 J-3.161 K0.000 F30.000
G3 X57.914 Y3.903 Z-2.200 I0.685 J-0.912 K0.000 F30.000
G2 X56.914 Y4.103 Z-2.200 I-0.497 J0.115 K0.000 F30.000
G3 X56.280 Y4.951 Z-2.200 I-1.658 J-0.578 K0.000 F30.000
G3 X52.086 Y4.771 Z-2.200 I-1.965 J-3.161 K0.000 F30.000
G3 X51.655 Y4.102 Z-2.200 I0.698 J-0.923 K0.000 F30.000
G2 X51.405 Y3.578 Z-2.200 I-0.616 J-0.027 K0.000 F30.000
G2 X50.666 Y4.161 Z-2.200 I-0.256 J0.435 K0.000 F30.000
G2 X51.604 Y5.477 Z-2.200 I3.543 J-1.533 K0.000 F30.000
G2 X57.078 Y5.404 Z-2.200 I2.698 J-2.998 K0.000 F30.000
G3 X57.782 Y5.405 Z-2.200 I0.351 J0.492 K0.000 F30.000
G2 X63.257 Y5.467 Z-2.200 I2.771 J-2.940 K0.000 F30.000
G0 Z5.000
G0 Z5.000
(Finish operation: Profile002)
(Begin operation: Profile003)
(Path: Profile003)
(Profile003)
(Compensated Tool Path. Diameter: 1.0)
G0 Z5.000
G0 X43.259 Y25.465
G0 Z3.000
G1 X43.259 Y25.465 Z-0.100 F10.000
G2 X44.025 Y24.531 Z-0.100 I-2.706 J-2.999 K0.000 F30.000
G2 X44.076 Y23.664 Z-0.100 I-0.541 J-0.467 K0.000 F30.000
G2 X43.187 Y24.136 Z-0.100 I-0.369 J0.378 K0.000 F30.000
G3 X42.484 Y25.002 Z-0.100 I-1.707 J-0.667 K0.000 F30.000
G3 X38.373 Y24.773 Z-0.100 I-1.882 J-3.231 K0.000 F30.000
G3 X37.914 Y23.903 Z-0.100 I0.681 J-0.914 K0.000 F30.000
G2 X36.914 Y24.103 Z-0.100 I-0.497 J0.115 K0.000 F30.000
G3 X36.280 Y24.951 Z-0.100 I-1.658 J-0.578 K0.000 F30.000
G3 X32.086 Y24.771 Z-0.100 I-1.965 J-3.161 K0.000 F30.000
G3 X31.655 Y24.102 Z-0.100 I0.698 J-0.923 K0.000 F30.000
G2 X31.425 Y23.588 Z-0.100 I-0.627 J-0.028 K0.000 F30.000
G2 X30.660 Y23.956 Z-0.100 I-0.275 J0.406 K0.000 F30.000
G2 X31.348 Y25.254 Z-0.100 I2.655 J-0.576 K0.000 F30.000
G2 X37.077 Y25.405 Z-0.100 I2.942 J-2.846 K0.000 F30.000
G3 X37.782 Y25.405 Z-0.100 I0.352 J0.491 K0.000 F30.000
G2 X43.259 Y25.465 Z-0.100 I2.771 J-2.940 K0.000 F30.000
G1 X43.259 Y25.465 Z-0.200 F10.000
G2 X44.025 Y24.531 Z-0.200 I-2.706 J-2.999 K0.000 F30.000
G2 X44.076 Y23.664 Z-0.200 I-0.541 J-0.467 K0.000 F30.000
G2 X43.187 Y24.136 Z-0.200 I-0.369 J0.378 K0.000 F30.000
G3 X42.484 Y25.002 Z-0.200 I-1.707 J-0.667 K0.000 F30.000
G3 X38.373 Y24.773 Z-0.200 I-1.882 J-3.231 K0.000 F30.000
G3 X37.914 Y23.903 Z-0.200 I0.681 J-0.914 K0.000 F30.000
G2 X36.914 Y24.103 Z-0.200 I-0.497 J0.115 K0.000 F30.000
G3 X36.280 Y24.951 Z-0.200 I-1.658 J-0.578 K0.000 F30.000
G3 X32.086 Y24.771 Z-0.200 I-1.965 J-3.161 K0.000 F30.000
G3 X31.655 Y24.102 Z-0.200 I0.698 J-0.923 K0.000 F30.000
G2 X31.425 Y23.588 Z-0.200 I-0.627 J-0.028 K0.000 F30.000
G2 X30.660 Y23.956 Z-0.200 I-0.275 J0.406 K0.000 F30.000
G2 X31.348 Y25.254 Z-0.200 I2.655 J-0.576 K0.000 F30.000
G2 X37.077 Y25.405 Z-0.200 I2.942 J-2.846 K0.000 F30.000
G3 X37.782 Y25.405 Z-0.200 I0.352 J0.491 K0.000 F30.000
G2 X43.259 Y25.465 Z-0.200 I2.771 J-2.940 K0.000 F30.000
G1 X43.259 Y25.465 Z-0.300 F10.000
G2 X44.025 Y24.531 Z-0.300 I-2.706 J-2.999 K0.000 F30.000
G2 X44.076 Y23.664 Z-0.300 I-0.541 J-0.467 K0.000 F30.000
G2 X43.187 Y24.136 Z-0.300 I-0.369 J0.378 K0.000 F30.000
G3 X42.484 Y25.002 Z-0.300 I-1.707 J-0.667 K0.000 F30.000
G3 X38.373 Y24.773 Z-0.300 I-1.882 J-3.231 K0.000 F30.000
G3 X37.914 Y23.903 Z-0.300 I0.681 J-0.914 K0.000 F30.000
G2 X36.914 Y24.103 Z-0.300 I-0.497 J0.115 K0.000 F30.000
G3 X36.280 Y24.951 Z-0.300 I-1.658 J-0.578 K0.000 F30.000
G3 X32.086 Y24.771 Z-0.300 I-1.965 J-3.161 K0.000 F30.000
G3 X31.655 Y24.102 Z-0.300 I0.698 J-0.923 K0.000 F30.000
G2 X31.425 Y23.588 Z-0.300 I-0.627 J-0.028 K0.000 F30.000
G2 X30.660 Y23.956 Z-0.300 I-0.275 J0.406 K0.000 F30.000
G2 X31.348 Y25.254 Z-0.300 I2.655 J-0.576 K0.000 F30.000
G2 X37.077 Y25.405 Z-0.300 I2.942 J-2.846 K0.000 F30.000
G3 X37.782 Y25.405 Z-0.300 I0.352 J0.491 K0.000 F30.000
G2 X43.259 Y25.465 Z-0.300 I2.771 J-2.940 K0.000 F30.000
G1 X43.259 Y25.465 Z-0.400 F10.000
G2 X44.025 Y24.531 Z-0.400 I-2.706 J-2.999 K0.000 F30.000
G2 X44.076 Y23.664 Z-0.400 I-0.541 J-0.467 K0.000 F30.000
G2 X43.187 Y24.136 Z-0.400 I-0.369 J0.378 K0.000 F30.000
G3 X42.484 Y25.002 Z-0.400 I-1.707 J-0.667 K0.000 F30.000
G3 X38.373 Y24.773 Z-0.400 I-1.882 J-3.231 K0.000 F30.000
G3 X37.914 Y23.903 Z-0.400 I0.681 J-0.914 K0.000 F30.000
G2 X36.914 Y24.103 Z-0.400 I-0.497 J0.115 K0.000 F30.000
G3 X36.280 Y24.951 Z-0.400 I-1.658 J-0.578 K0.000 F30.000
G3 X32.086 Y24.771 Z-0.400 I-1.965 J-3.161 K0.000 F30.000
G3 X31.655 Y24.102 Z-0.400 I0.698 J-0.923 K0.000 F30.000
G2 X31.425 Y23.588 Z-0.400 I-0.627 J-0.028 K0.000 F30.000
G2 X30.660 Y23.956 Z-0.400 I-0.275 J0.406 K0.000 F30.000
G2 X31.348 Y25.254 Z-0.400 I2.655 J-0.576 K0.000 F30.000
G2 X37.077 Y25.405 Z-0.400 I2.942 J-2.846 K0.000 F30.000
G3 X37.782 Y25.405 Z-0.400 I0.352 J0.491 K0.000 F30.000
G2 X43.259 Y25.465 Z-0.400 I2.771 J-2.940 K0.000 F30.000
G1 X43.259 Y25.465 Z-0.500 F10.000
G2 X44.025 Y24.531 Z-0.500 I-2.706 J-2.999 K0.000 F30.000
G2 X44.076 Y23.664 Z-0.500 I-0.541 J-0.467 K0.000 F30.000
G2 X43.187 Y24.136 Z-0.500 I-0.369 J0.378 K0.000 F30.000
G3 X42.484 Y25.002 Z-0.500 I-1.707 J-0.667 K0.000 F30.000
G3 X38.373 Y24.773 Z-0.500 I-1.882 J-3.231 K0.000 F30.000
G3 X37.914 Y23.903 Z-0.500 I0.681 J-0.914 K0.000 F30.000
G2 X36.914 Y24.103 Z-0.500 I-0.497 J0.115 K0.000 F30.000
G3 X36.280 Y24.951 Z-0.500 I-1.658 J-0.578 K0.000 F30.000
G3 X32.086 Y24.771 Z-0.500 I-1.965 J-3.161 K0.000 F30.000
G3 X31.655 Y24.102 Z-0.500 I0.698 J-0.923 K0.000 F30.000
G2 X31.425 Y23.588 Z-0.500 I-0.627 J-0.028 K0.000 F30.000
G2 X30.660 Y23.956 Z-0.500 I-0.275 J0.406 K0.000 F30.000
G2 X31.348 Y25.254 Z-0.500 I2.655 J-0.576 K0.000 F30.000
G2 X37.077 Y25.405 Z-0.500 I2.942 J-2.846 K0.000 F30.000
G3 X37.782 Y25.405 Z-0.500 I0.352 J0.491 K0.000 F30.000
G2 X43.259 Y25.465 Z-0.500 I2.771 J-2.940 K0.000 F30.000
G1 X43.259 Y25.465 Z-0.600 F10.000
G2 X44.025 Y24.531 Z-0.600 I-2.706 J-2.999 K0.000 F30.000
G2 X44.076 Y23.664 Z-0.600 I-0.541 J-0.467 K0.000 F30.000
G2 X43.187 Y24.136 Z-0.600 I-0.369 J0.378 K0.000 F30.000
G3 X42.484 Y25.002 Z-0.600 I-1.707 J-0.667 K0.000 F30.000
G3 X38.373 Y24.773 Z-0.600 I-1.882 J-3.231 K0.000 F30.000
G3 X37.914 Y23.903 Z-0.600 I0.681 J-0.914 K0.000 F30.000
G2 X36.914 Y24.103 Z-0.600 I-0.497 J0.115 K0.000 F30.000
G3 X36.280 Y24.951 Z-0.600 I-1.658 J-0.578 K0.000 F30.000
G3 X32.086 Y24.771 Z-0.600 I-1.965 J-3.161 K0.000 F30.000
G3 X31.655 Y24.102 Z-0.600 I0.698 J-0.923 K0.000 F30.000
G2 X31.425 Y23.588 Z-0.600 I-0.627 J-0.028 K0.000 F30.000
G2 X30.660 Y23.956 Z-0.600 I-0.275 J0.406 K0.000 F30.000
G2 X31.348 Y25.254 Z-0.600 I2.655 J-0.576 K0.000 F30.000
G2 X37.077 Y25.405 Z-0.600 I2.942 J-2.846 K0.000 F30.000
G3 X37.782 Y25.405 Z-0.600 I0.352 J0.491 K0.000 F30.000
G2 X43.259 Y25.465 Z-0.600 I2.771 J-2.940 K0.000 F30.000
G1 X43.259 Y25.465 Z-0.700 F10.000
G2 X44.025 Y24.531 Z-0.700 I-2.706 J-2.999 K0.000 F30.000
G2 X44.076 Y23.664 Z-0.700 I-0.541 J-0.467 K0.000 F30.000
G2 X43.187 Y24.136 Z-0.700 I-0.369 J0.378 K0.000 F30.000
G3 X42.484 Y25.002 Z-0.700 I-1.707 J-0.667 K0.000 F30.000
G3 X38.373 Y24.773 Z-0.700 I-1.882 J-3.231 K0.000 F30.000
G3 X37.914 Y23.903 Z-0.700 I0.681 J-0.914 K0.000 F30.000
G2 X36.914 Y24.103 Z-0.700 I-0.497 J0.115 K0.000 F30.000
G3 X36.280 Y24.951 Z-0.700 I-1.658 J-0.578 K0.000 F30.000
G3 X32.086 Y24.771 Z-0.700 I-1.965 J-3.161 K0.000 F30.000
G3 X31.655 Y24.102 Z-0.700 I0.698 J-0.923 K0.000 F30.000
G2 X31.425 Y23.588 Z-0.700 I-0.627 J-0.028 K0.000 F30.000
G2 X30.660 Y23.956 Z-0.700 I-0.275 J0.406 K0.000 F30.000
G2 X31.348 Y25.254 Z-0.700 I2.655 J-0.576 K0.000 F30.000
G2 X37.077 Y25.405 Z-0.700 I2.942 J-2.846 K0.000 F30.000
G3 X37.782 Y25.405 Z-0.700 I0.352 J0.491 K0.000 F30.000
G2 X43.259 Y25.465 Z-0.700 I2.771 J-2.940 K0.000 F30.000
G1 X43.259 Y25.465 Z-0.800 F10.000
G2 X44.025 Y24.531 Z-0.800 I-2.706 J-2.999 K0.000 F30.000
G2 X44.076 Y23.664 Z-0.800 I-0.541 J-0.467 K0.000 F30.000
G2 X43.187 Y24.136 Z-0.800 I-0.369 J0.378 K0.000 F30.000
G3 X42.484 Y25.002 Z-0.800 I-1.707 J-0.667 K0.000 F30.000
G3 X38.373 Y24.773 Z-0.800 I-1.882 J-3.231 K0.000 F30.000
G3 X37.914 Y23.903 Z-0.800 I0.681 J-0.914 K0.000 F30.000
G2 X36.914 Y24.103 Z-0.800 I-0.497 J0.115 K0.000 F30.000
G3 X36.280 Y24.951 Z-0.800 I-1.658 J-0.578 K0.000 F30.000
G3 X32.086 Y24.771 Z-0.800 I-1.965 J-3.161 K0.000 F30.000
G3 X31.655 Y24.102 Z-0.800 I0.698 J-0.923 K0.000 F30.000
G2 X31.425 Y23.588 Z-0.800 I-0.627 J-0.028 K0.000 F30.000
G2 X30.660 Y23.956 Z-0.800 I-0.275 J0.406 K0.000 F30.000
G2 X31.348 Y25.254 Z-0.800 I2.655 J-0.576 K0.000 F30.000
G2 X37.077 Y25.405 Z-0.800 I2.942 J-2.846 K0.000 F30.000
G3 X37.782 Y25.405 Z-0.800 I0.352 J0.491 K0.000 F30.000
G2 X43.259 Y25.465 Z-0.800 I2.771 J-2.940 K0.000 F30.000
G1 X43.259 Y25.465 Z-0.900 F10.000
G2 X44.025 Y24.531 Z-0.900 I-2.706 J-2.999 K0.000 F30.000
G2 X44.076 Y23.664 Z-0.900 I-0.541 J-0.467 K0.000 F30.000
G2 X43.187 Y24.136 Z-0.900 I-0.369 J0.378 K0.000 F30.000
G3 X42.484 Y25.002 Z-0.900 I-1.707 J-0.667 K0.000 F30.000
G3 X38.373 Y24.773 Z-0.900 I-1.882 J-3.231 K0.000 F30.000
G3 X37.914 Y23.903 Z-0.900 I0.681 J-0.914 K0.000 F30.000
G2 X36.914 Y24.103 Z-0.900 I-0.497 J0.115 K0.000 F30.000
G3 X36.280 Y24.951 Z-0.900 I-1.658 J-0.578 K0.000 F30.000
G3 X32.086 Y24.771 Z-0.900 I-1.965 J-3.161 K0.000 F30.000
G3 X31.655 Y24.102 Z-0.900 I0.698 J-0.923 K0.000 F30.000
G2 X31.425 Y23.588 Z-0.900 I-0.627 J-0.028 K0.000 F30.000
G2 X30.660 Y23.956 Z-0.900 I-0.275 J0.406 K0.000 F30.000
G2 X31.348 Y25.254 Z-0.900 I2.655 J-0.576 K0.000 F30.000
G2 X37.077 Y25.405 Z-0.900 I2.942 J-2.846 K0.000 F30.000
G3 X37.782 Y25.405 Z-0.900 I0.352 J0.491 K0.000 F30.000
G2 X43.259 Y25.465 Z-0.900 I2.771 J-2.940 K0.000 F30.000
G1 X43.259 Y25.465 Z-1.000 F10.000
G2 X44.025 Y24.531 Z-1.000 I-2.706 J-2.999 K0.000 F30.000
G2 X44.076 Y23.664 Z-1.000 I-0.541 J-0.467 K0.000 F30.000
G2 X43.187 Y24.136 Z-1.000 I-0.369 J0.378 K0.000 F30.000
G3 X42.484 Y25.002 Z-1.000 I-1.707 J-0.667 K0.000 F30.000
G3 X38.373 Y24.773 Z-1.000 I-1.882 J-3.231 K0.000 F30.000
G3 X37.914 Y23.903 Z-1.000 I0.681 J-0.914 K0.000 F30.000
G2 X36.914 Y24.103 Z-1.000 I-0.497 J0.115 K0.000 F30.000
G3 X36.280 Y24.951 Z-1.000 I-1.658 J-0.578 K0.000 F30.000
G3 X32.086 Y24.771 Z-1.000 I-1.965 J-3.161 K0.000 F30.000
G3 X31.655 Y24.102 Z-1.000 I0.698 J-0.923 K0.000 F30.000
G2 X31.425 Y23.588 Z-1.000 I-0.627 J-0.028 K0.000 F30.000
G2 X30.660 Y23.956 Z-1.000 I-0.275 J0.406 K0.000 F30.000
G2 X31.348 Y25.254 Z-1.000 I2.655 J-0.576 K0.000 F30.000
G2 X37.077 Y25.405 Z-1.000 I2.942 J-2.846 K0.000 F30.000
G3 X37.782 Y25.405 Z-1.000 I0.352 J0.491 K0.000 F30.000
G2 X43.259 Y25.465 Z-1.000 I2.771 J-2.940 K0.000 F30.000
G1 X43.259 Y25.465 Z-1.100 F10.000
G2 X44.025 Y24.531 Z-1.100 I-2.706 J-2.999 K0.000 F30.000
G2 X44.076 Y23.664 Z-1.100 I-0.541 J-0.467 K0.000 F30.000
G2 X43.187 Y24.136 Z-1.100 I-0.369 J0.378 K0.000 F30.000
G3 X42.484 Y25.002 Z-1.100 I-1.707 J-0.667 K0.000 F30.000
G3 X38.373 Y24.773 Z-1.100 I-1.882 J-3.231 K0.000 F30.000
G3 X37.914 Y23.903 Z-1.100 I0.681 J-0.914 K0.000 F30.000
G2 X36.914 Y24.103 Z-1.100 I-0.497 J0.115 K0.000 F30.000
G3 X36.280 Y24.951 Z-1.100 I-1.658 J-0.578 K0.000 F30.000
G3 X32.086 Y24.771 Z-1.100 I-1.965 J-3.161 K0.000 F30.000
G3 X31.655 Y24.102 Z-1.100 I0.698 J-0.923 K0.000 F30.000
G2 X31.425 Y23.588 Z-1.100 I-0.627 J-0.028 K0.000 F30.000
G2 X30.660 Y23.956 Z-1.100 I-0.275 J0.406 K0.000 F30.000
G2 X31.348 Y25.254 Z-1.100 I2.655 J-0.576 K0.000 F30.000
G2 X37.077 Y25.405 Z-1.100 I2.942 J-2.846 K0.000 F30.000
G3 X37.782 Y25.405 Z-1.100 I0.352 J0.491 K0.000 F30.000
G2 X43.259 Y25.465 Z-1.100 I2.771 J-2.940 K0.000 F30.000
G1 X43.259 Y25.465 Z-1.200 F10.000
G2 X44.025 Y24.531 Z-1.200 I-2.706 J-2.999 K0.000 F30.000
G2 X44.076 Y23.664 Z-1.200 I-0.541 J-0.467 K0.000 F30.000
G2 X43.187 Y24.136 Z-1.200 I-0.369 J0.378 K0.000 F30.000
G3 X42.484 Y25.002 Z-1.200 I-1.707 J-0.667 K0.000 F30.000
G3 X38.373 Y24.773 Z-1.200 I-1.882 J-3.231 K0.000 F30.000
G3 X37.914 Y23.903 Z-1.200 I0.681 J-0.914 K0.000 F30.000
G2 X36.914 Y24.103 Z-1.200 I-0.497 J0.115 K0.000 F30.000
G3 X36.280 Y24.951 Z-1.200 I-1.658 J-0.578 K0.000 F30.000
G3 X32.086 Y24.771 Z-1.200 I-1.965 J-3.161 K0.000 F30.000
G3 X31.655 Y24.102 Z-1.200 I0.698 J-0.923 K0.000 F30.000
G2 X31.425 Y23.588 Z-1.200 I-0.627 J-0.028 K0.000 F30.000
G2 X30.660 Y23.956 Z-1.200 I-0.275 J0.406 K0.000 F30.000
G2 X31.348 Y25.254 Z-1.200 I2.655 J-0.576 K0.000 F30.000
G2 X37.077 Y25.405 Z-1.200 I2.942 J-2.846 K0.000 F30.000
G3 X37.782 Y25.405 Z-1.200 I0.352 J0.491 K0.000 F30.000
G2 X43.259 Y25.465 Z-1.200 I2.771 J-2.940 K0.000 F30.000
G1 X43.259 Y25.465 Z-1.300 F10.000
G2 X44.025 Y24.531 Z-1.300 I-2.706 J-2.999 K0.000 F30.000
G2 X44.076 Y23.664 Z-1.300 I-0.541 J-0.467 K0.000 F30.000
G2 X43.187 Y24.136 Z-1.300 I-0.369 J0.378 K0.000 F30.000
G3 X42.484 Y25.002 Z-1.300 I-1.707 J-0.667 K0.000 F30.000
G3 X38.373 Y24.773 Z-1.300 I-1.882 J-3.231 K0.000 F30.000
G3 X37.914 Y23.903 Z-1.300 I0.681 J-0.914 K0.000 F30.000
G2 X36.914 Y24.103 Z-1.300 I-0.497 J0.115 K0.000 F30.000
G3 X36.280 Y24.951 Z-1.300 I-1.658 J-0.578 K0.000 F30.000
G3 X32.086 Y24.771 Z-1.300 I-1.965 J-3.161 K0.000 F30.000
G3 X31.655 Y24.102 Z-1.300 I0.698 J-0.923 K0.000 F30.000
G2 X31.425 Y23.588 Z-1.300 I-0.627 J-0.028 K0.000 F30.000
G2 X30.660 Y23.956 Z-1.300 I-0.275 J0.406 K0.000 F30.000
G2 X31.348 Y25.254 Z-1.300 I2.655 J-0.576 K0.000 F30.000
G2 X37.077 Y25.405 Z-1.300 I2.942 J-2.846 K0.000 F30.000
G3 X37.782 Y25.405 Z-1.300 I0.352 J0.491 K0.000 F30.000
G2 X43.259 Y25.465 Z-1.300 I2.771 J-2.940 K0.000 F30.000
G1 X43.259 Y25.465 Z-1.400 F10.000
G2 X44.025 Y24.531 Z-1.400 I-2.706 J-2.999 K0.000 F30.000
G2 X44.076 Y23.664 Z-1.400 I-0.541 J-0.467 K0.000 F30.000
G2 X43.187 Y24.136 Z-1.400 I-0.369 J0.378 K0.000 F30.000
G3 X42.484 Y25.002 Z-1.400 I-1.707 J-0.667 K0.000 F30.000
G3 X38.373 Y24.773 Z-1.400 I-1.882 J-3.231 K0.000 F30.000
G3 X37.914 Y23.903 Z-1.400 I0.681 J-0.914 K0.000 F30.000
G2 X36.914 Y24.103 Z-1.400 I-0.497 J0.115 K0.000 F30.000
G3 X36.280 Y24.951 Z-1.400 I-1.658 J-0.578 K0.000 F30.000
G3 X32.086 Y24.771 Z-1.400 I-1.965 J-3.161 K0.000 F30.000
G3 X31.655 Y24.102 Z-1.400 I0.698 J-0.923 K0.000 F30.000
G2 X31.425 Y23.588 Z-1.400 I-0.627 J-0.028 K0.000 F30.000
G2 X30.660 Y23.956 Z-1.400 I-0.275 J0.406 K0.000 F30.000
G2 X31.348 Y25.254 Z-1.400 I2.655 J-0.576 K0.000 F30.000
G2 X37.077 Y25.405 Z-1.400 I2.942 J-2.846 K0.000 F30.000
G3 X37.782 Y25.405 Z-1.400 I0.352 J0.491 K0.000 F30.000
G2 X43.259 Y25.465 Z-1.400 I2.771 J-2.940 K0.000 F30.000
G1 X43.259 Y25.465 Z-1.500 F10.000
G2 X44.025 Y24.531 Z-1.500 I-2.706 J-2.999 K0.000 F30.000
G2 X44.076 Y23.664 Z-1.500 I-0.541 J-0.467 K0.000 F30.000
G2 X43.187 Y24.136 Z-1.500 I-0.369 J0.378 K0.000 F30.000
G3 X42.484 Y25.002 Z-1.500 I-1.707 J-0.667 K0.000 F30.000
G3 X38.373 Y24.773 Z-1.500 I-1.882 J-3.231 K0.000 F30.000
G3 X37.914 Y23.903 Z-1.500 I0.681 J-0.914 K0.000 F30.000
G2 X36.914 Y24.103 Z-1.500 I-0.497 J0.115 K0.000 F30.000
G3 X36.280 Y24.951 Z-1.500 I-1.658 J-0.578 K0.000 F30.000
G3 X32.086 Y24.771 Z-1.500 I-1.965 J-3.161 K0.000 F30.000
G3 X31.655 Y24.102 Z-1.500 I0.698 J-0.923 K0.000 F30.000
G2 X31.425 Y23.588 Z-1.500 I-0.627 J-0.028 K0.000 F30.000
G2 X30.660 Y23.956 Z-1.500 I-0.275 J0.406 K0.000 F30.000
G2 X31.348 Y25.254 Z-1.500 I2.655 J-0.576 K0.000 F30.000
G2 X37.077 Y25.405 Z-1.500 I2.942 J-2.846 K0.000 F30.000
G3 X37.782 Y25.405 Z-1.500 I0.352 J0.491 K0.000 F30.000
G2 X43.259 Y25.465 Z-1.500 I2.771 J-2.940 K0.000 F30.000
G1 X43.259 Y25.465 Z-1.600 F10.000
G2 X44.025 Y24.531 Z-1.600 I-2.706 J-2.999 K0.000 F30.000
G2 X44.076 Y23.664 Z-1.600 I-0.541 J-0.467 K0.000 F30.000
G2 X43.187 Y24.136 Z-1.600 I-0.369 J0.378 K0.000 F30.000
G3 X42.484 Y25.002 Z-1.600 I-1.707 J-0.667 K0.000 F30.000
G3 X38.373 Y24.773 Z-1.600 I-1.882 J-3.231 K0.000 F30.000
G3 X37.914 Y23.903 Z-1.600 I0.681 J-0.914 K0.000 F30.000
G2 X36.914 Y24.103 Z-1.600 I-0.497 J0.115 K0.000 F30.000
G3 X36.280 Y24.951 Z-1.600 I-1.658 J-0.578 K0.000 F30.000
G3 X32.086 Y24.771 Z-1.600 I-1.965 J-3.161 K0.000 F30.000
G3 X31.655 Y24.102 Z-1.600 I0.698 J-0.923 K0.000 F30.000
G2 X31.425 Y23.588 Z-1.600 I-0.627 J-0.028 K0.000 F30.000
G2 X30.660 Y23.956 Z-1.600 I-0.275 J0.406 K0.000 F30.000
G2 X31.348 Y25.254 Z-1.600 I2.655 J-0.576 K0.000 F30.000
G2 X37.077 Y25.405 Z-1.600 I2.942 J-2.846 K0.000 F30.000
G3 X37.782 Y25.405 Z-1.600 I0.352 J0.491 K0.000 F30.000
G2 X43.259 Y25.465 Z-1.600 I2.771 J-2.940 K0.000 F30.000
G1 X43.259 Y25.465 Z-1.700 F10.000
G2 X44.025 Y24.531 Z-1.700 I-2.706 J-2.999 K0.000 F30.000
G2 X44.076 Y23.664 Z-1.700 I-0.541 J-0.467 K0.000 F30.000
G2 X43.187 Y24.136 Z-1.700 I-0.369 J0.378 K0.000 F30.000
G3 X42.484 Y25.002 Z-1.700 I-1.707 J-0.667 K0.000 F30.000
G3 X38.373 Y24.773 Z-1.700 I-1.882 J-3.231 K0.000 F30.000
G3 X37.914 Y23.903 Z-1.700 I0.681 J-0.914 K0.000 F30.000
G2 X36.914 Y24.103 Z-1.700 I-0.497 J0.115 K0.000 F30.000
G3 X36.280 Y24.951 Z-1.700 I-1.658 J-0.578 K0.000 F30.000
G3 X32.086 Y24.771 Z-1.700 I-1.965 J-3.161 K0.000 F30.000
G3 X31.655 Y24.102 Z-1.700 I0.698 J-0.923 K0.000 F30.000
G2 X31.425 Y23.588 Z-1.700 I-0.627 J-0.028 K0.000 F30.000
G2 X30.660 Y23.956 Z-1.700 I-0.275 J0.406 K0.000 F30.000
G2 X31.348 Y25.254 Z-1.700 I2.655 J-0.576 K0.000 F30.000
G2 X37.077 Y25.405 Z-1.700 I2.942 J-2.846 K0.000 F30.000
G3 X37.782 Y25.405 Z-1.700 I0.352 J0.491 K0.000 F30.000
G2 X43.259 Y25.465 Z-1.700 I2.771 J-2.940 K0.000 F30.000
G1 X43.259 Y25.465 Z-1.800 F10.000
G2 X44.025 Y24.531 Z-1.800 I-2.706 J-2.999 K0.000 F30.000
G2 X44.076 Y23.664 Z-1.800 I-0.541 J-0.467 K0.000 F30.000
G2 X43.187 Y24.136 Z-1.800 I-0.369 J0.378 K0.000 F30.000
G3 X42.484 Y25.002 Z-1.800 I-1.707 J-0.667 K0.000 F30.000
G3 X38.373 Y24.773 Z-1.800 I-1.882 J-3.231 K0.000 F30.000
G3 X37.914 Y23.903 Z-1.800 I0.681 J-0.914 K0.000 F30.000
G2 X36.914 Y24.103 Z-1.800 I-0.497 J0.115 K0.000 F30.000
G3 X36.280 Y24.951 Z-1.800 I-1.658 J-0.578 K0.000 F30.000
G3 X32.086 Y24.771 Z-1.800 I-1.965 J-3.161 K0.000 F30.000
G3 X31.655 Y24.102 Z-1.800 I0.698 J-0.923 K0.000 F30.000
G2 X31.425 Y23.588 Z-1.800 I-0.627 J-0.028 K0.000 F30.000
G2 X30.660 Y23.956 Z-1.800 I-0.275 J0.406 K0.000 F30.000
G2 X31.348 Y25.254 Z-1.800 I2.655 J-0.576 K0.000 F30.000
G2 X37.077 Y25.405 Z-1.800 I2.942 J-2.846 K0.000 F30.000
G3 X37.782 Y25.405 Z-1.800 I0.352 J0.491 K0.000 F30.000
G2 X43.259 Y25.465 Z-1.800 I2.771 J-2.940 K0.000 F30.000
G1 X43.259 Y25.465 Z-1.900 F10.000
G2 X44.025 Y24.531 Z-1.900 I-2.706 J-2.999 K0.000 F30.000
G2 X44.076 Y23.664 Z-1.900 I-0.541 J-0.467 K0.000 F30.000
G2 X43.187 Y24.136 Z-1.900 I-0.369 J0.378 K0.000 F30.000
G3 X42.484 Y25.002 Z-1.900 I-1.707 J-0.667 K0.000 F30.000
G3 X38.373 Y24.773 Z-1.900 I-1.882 J-3.231 K0.000 F30.000
G3 X37.914 Y23.903 Z-1.900 I0.681 J-0.914 K0.000 F30.000
G2 X36.914 Y24.103 Z-1.900 I-0.497 J0.115 K0.000 F30.000
G3 X36.280 Y24.951 Z-1.900 I-1.658 J-0.578 K0.000 F30.000
G3 X32.086 Y24.771 Z-1.900 I-1.965 J-3.161 K0.000 F30.000
G3 X31.655 Y24.102 Z-1.900 I0.698 J-0.923 K0.000 F30.000
G2 X31.425 Y23.588 Z-1.900 I-0.627 J-0.028 K0.000 F30.000
G2 X30.660 Y23.956 Z-1.900 I-0.275 J0.406 K0.000 F30.000
G2 X31.348 Y25.254 Z-1.900 I2.655 J-0.576 K0.000 F30.000
G2 X37.077 Y25.405 Z-1.900 I2.942 J-2.846 K0.000 F30.000
G3 X37.782 Y25.405 Z-1.900 I0.352 J0.491 K0.000 F30.000
G2 X43.259 Y25.465 Z-1.900 I2.771 J-2.940 K0.000 F30.000
G1 X43.259 Y25.465 Z-2.000 F10.000
G2 X44.025 Y24.531 Z-2.000 I-2.706 J-2.999 K0.000 F30.000
G2 X44.076 Y23.664 Z-2.000 I-0.541 J-0.467 K0.000 F30.000
G2 X43.187 Y24.136 Z-2.000 I-0.369 J0.378 K0.000 F30.000
G3 X42.484 Y25.002 Z-2.000 I-1.707 J-0.667 K0.000 F30.000
G3 X38.373 Y24.773 Z-2.000 I-1.882 J-3.231 K0.000 F30.000
G3 X37.914 Y23.903 Z-2.000 I0.681 J-0.914 K0.000 F30.000
G2 X36.914 Y24.103 Z-2.000 I-0.497 J0.115 K0.000 F30.000
G3 X36.280 Y24.951 Z-2.000 I-1.658 J-0.578 K0.000 F30.000
G3 X32.086 Y24.771 Z-2.000 I-1.965 J-3.161 K0.000 F30.000
G3 X31.655 Y24.102 Z-2.000 I0.698 J-0.923 K0.000 F30.000
G2 X31.425 Y23.588 Z-2.000 I-0.627 J-0.028 K0.000 F30.000
G2 X30.660 Y23.956 Z-2.000 I-0.275 J0.406 K0.000 F30.000
G2 X31.348 Y25.254 Z-2.000 I2.655 J-0.576 K0.000 F30.000
G2 X37.077 Y25.405 Z-2.000 I2.942 J-2.846 K0.000 F30.000
G3 X37.782 Y25.405 Z-2.000 I0.352 J0.491 K0.000 F30.000
G2 X43.259 Y25.465 Z-2.000 I2.771 J-2.940 K0.000 F30.000
G1 X43.259 Y25.465 Z-2.100 F10.000
G2 X44.025 Y24.531 Z-2.100 I-2.706 J-2.999 K0.000 F30.000
G2 X44.076 Y23.664 Z-2.100 I-0.541 J-0.467 K0.000 F30.000
G2 X43.187 Y24.136 Z-2.100 I-0.369 J0.378 K0.000 F30.000
G3 X42.484 Y25.002 Z-2.100 I-1.707 J-0.667 K0.000 F30.000
G3 X38.373 Y24.773 Z-2.100 I-1.882 J-3.231 K0.000 F30.000
G3 X37.914 Y23.903 Z-2.100 I0.681 J-0.914 K0.000 F30.000
G2 X36.914 Y24.103 Z-2.100 I-0.497 J0.115 K0.000 F30.000
G3 X36.280 Y24.951 Z-2.100 I-1.658 J-0.578 K0.000 F30.000
G3 X32.086 Y24.771 Z-2.100 I-1.965 J-3.161 K0.000 F30.000
G3 X31.655 Y24.102 Z-2.100 I0.698 J-0.923 K0.000 F30.000
G2 X31.425 Y23.588 Z-2.100 I-0.627 J-0.028 K0.000 F30.000
G2 X30.660 Y23.956 Z-2.100 I-0.275 J0.406 K0.000 F30.000
G2 X31.348 Y25.254 Z-2.100 I2.655 J-0.576 K0.000 F30.000
G2 X37.077 Y25.405 Z-2.100 I2.942 J-2.846 K0.000 F30.000
G3 X37.782 Y25.405 Z-2.100 I0.352 J0.491 K0.000 F30.000
G2 X43.259 Y25.465 Z-2.100 I2.771 J-2.940 K0.000 F30.000
G1 X43.259 Y25.465 Z-2.200 F10.000
G2 X44.025 Y24.531 Z-2.200 I-2.706 J-2.999 K0.000 F30.000
G2 X44.076 Y23.664 Z-2.200 I-0.541 J-0.467 K0.000 F30.000
G2 X43.187 Y24.136 Z-2.200 I-0.369 J0.378 K0.000 F30.000
G3 X42.484 Y25.002 Z-2.200 I-1.707 J-0.667 K0.000 F30.000
G3 X38.373 Y24.773 Z-2.200 I-1.882 J-3.231 K0.000 F30.000
G3 X37.914 Y23.903 Z-2.200 I0.681 J-0.914 K0.000 F30.000
G2 X36.914 Y24.103 Z-2.200 I-0.497 J0.115 K0.000 F30.000
G3 X36.280 Y24.951 Z-2.200 I-1.658 J-0.578 K0.000 F30.000
G3 X32.086 Y24.771 Z-2.200 I-1.965 J-3.161 K0.000 F30.000
G3 X31.655 Y24.102 Z-2.200 I0.698 J-0.923 K0.000 F30.000
G2 X31.425 Y23.588 Z-2.200 I-0.627 J-0.028 K0.000 F30.000
G2 X30.660 Y23.956 Z-2.200 I-0.275 J0.406 K0.000 F30.000
G2 X31.348 Y25.254 Z-2.200 I2.655 J-0.576 K0.000 F30.000
G2 X37.077 Y25.405 Z-2.200 I2.942 J-2.846 K0.000 F30.000
G3 X37.782 Y25.405 Z-2.200 I0.352 J0.491 K0.000 F30.000
G2 X43.259 Y25.465 Z-2.200 I2.771 J-2.940 K0.000 F30.000
G0 Z5.000
G0 Z5.000
(Finish operation: Profile003)
(Begin operation: Profile004)
(Path: Profile004)
(Profile004)
(Compensated Tool Path. Diameter: 1.0)
G0 Z5.000
G0 X63.259 Y25.465
G0 Z3.000
G1 X63.259 Y25.465 Z-0.100 F10.000
G2 X64.025 Y24.531 Z-0.100 I-2.706 J-2.999 K0.000 F30.000
G2 X64.076 Y23.664 Z-0.100 I-0.541 J-0.467 K0.000 F30.000
G2 X63.187 Y24.136 Z-0.100 I-0.369 J0.378 K0.000 F30.000
G3 X62.484 Y25.002 Z-0.100 I-1.707 J-0.667 K0.000 F30.000
G3 X58.373 Y24.773 Z-0.100 I-1.882 J-3.231 K0.000 F30.000
G3 X57.914 Y23.903 Z-0.100 I0.681 J-0.914 K0.000 F30.000
G2 X56.914 Y24.103 Z-0.100 I-0.497 J0.115 K0.000 F30.000
G3 X56.280 Y24.951 Z-0.100 I-1.658 J-0.578 K0.000 F30.000
G3 X52.086 Y24.771 Z-0.100 I-1.965 J-3.161 K0.000 F30.000
G3 X51.655 Y24.102 Z-0.100 I0.698 J-0.923 K0.000 F30.000
G2 X51.425 Y23.588 Z-0.100 I-0.627 J-0.028 K0.000 F30.000
G2 X50.660 Y23.956 Z-0.100 I-0.275 J0.406 K0.000 F30.000
G2 X51.348 Y25.254 Z-0.100 I2.655 J-0.576 K0.000 F30.000
G2 X57.077 Y25.405 Z-0.100 I2.942 J-2.846 K0.000 F30.000
G3 X57.782 Y25.405 Z-0.100 I0.352 J0.491 K0.000 F30.000
G2 X63.259 Y25.465 Z-0.100 I2.771 J-2.940 K0.000 F30.000
G1 X63.259 Y25.465 Z-0.200 F10.000
G2 X64.025 Y24.531 Z-0.200 I-2.706 J-2.999 K0.000 F30.000
G2 X64.076 Y23.664 Z-0.200 I-0.541 J-0.467 K0.000 F30.000
G2 X63.187 Y24.136 Z-0.200 I-0.369 J0.378 K0.000 F30.000
G3 X62.484 Y25.002 Z-0.200 I-1.707 J-0.667 K0.000 F30.000
G3 X58.373 Y24.773 Z-0.200 I-1.882 J-3.231 K0.000 F30.000
G3 X57.914 Y23.903 Z-0.200 I0.681 J-0.914 K0.000 F30.000
G2 X56.914 Y24.103 Z-0.200 I-0.497 J0.115 K0.000 F30.000
G3 X56.280 Y24.951 Z-0.200 I-1.658 J-0.578 K0.000 F30.000
G3 X52.086 Y24.771 Z-0.200 I-1.965 J-3.161 K0.000 F30.000
G3 X51.655 Y24.102 Z-0.200 I0.698 J-0.923 K0.000 F30.000
G2 X51.425 Y23.588 Z-0.200 I-0.627 J-0.028 K0.000 F30.000
G2 X50.660 Y23.956 Z-0.200 I-0.275 J0.406 K0.000 F30.000
G2 X51.348 Y25.254 Z-0.200 I2.655 J-0.576 K0.000 F30.000
G2 X57.077 Y25.405 Z-0.200 I2.942 J-2.846 K0.000 F30.000
G3 X57.782 Y25.405 Z-0.200 I0.352 J0.491 K0.000 F30.000
G2 X63.259 Y25.465 Z-0.200 I2.771 J-2.940 K0.000 F30.000
G1 X63.259 Y25.465 Z-0.300 F10.000
G2 X64.025 Y24.531 Z-0.300 I-2.706 J-2.999 K0.000 F30.000
G2 X64.076 Y23.664 Z-0.300 I-0.541 J-0.467 K0.000 F30.000
G2 X63.187 Y24.136 Z-0.300 I-0.369 J0.378 K0.000 F30.000
G3 X62.484 Y25.002 Z-0.300 I-1.707 J-0.667 K0.000 F30.000
G3 X58.373 Y24.773 Z-0.300 I-1.882 J-3.231 K0.000 F30.000
G3 X57.914 Y23.903 Z-0.300 I0.681 J-0.914 K0.000 F30.000
G2 X56.914 Y24.103 Z-0.300 I-0.497 J0.115 K0.000 F30.000
G3 X56.280 Y24.951 Z-0.300 I-1.658 J-0.578 K0.000 F30.000
G3 X52.086 Y24.771 Z-0.300 I-1.965 J-3.161 K0.000 F30.000
G3 X51.655 Y24.102 Z-0.300 I0.698 J-0.923 K0.000 F30.000
G2 X51.425 Y23.588 Z-0.300 I-0.627 J-0.028 K0.000 F30.000
G2 X50.660 Y23.956 Z-0.300 I-0.275 J0.406 K0.000 F30.000
G2 X51.348 Y25.254 Z-0.300 I2.655 J-0.576 K0.000 F30.000
G2 X57.077 Y25.405 Z-0.300 I2.942 J-2.846 K0.000 F30.000
G3 X57.782 Y25.405 Z-0.300 I0.352 J0.491 K0.000 F30.000
G2 X63.259 Y25.465 Z-0.300 I2.771 J-2.940 K0.000 F30.000
G1 X63.259 Y25.465 Z-0.400 F10.000
G2 X64.025 Y24.531 Z-0.400 I-2.706 J-2.999 K0.000 F30.000
G2 X64.076 Y23.664 Z-0.400 I-0.541 J-0.467 K0.000 F30.000
G2 X63.187 Y24.136 Z-0.400 I-0.369 J0.378 K0.000 F30.000
G3 X62.484 Y25.002 Z-0.400 I-1.707 J-0.667 K0.000 F30.000
G3 X58.373 Y24.773 Z-0.400 I-1.882 J-3.231 K0.000 F30.000
G3 X57.914 Y23.903 Z-0.400 I0.681 J-0.914 K0.000 F30.000
G2 X56.914 Y24.103 Z-0.400 I-0.497 J0.115 K0.000 F30.000
G3 X56.280 Y24.951 Z-0.400 I-1.658 J-0.578 K0.000 F30.000
G3 X52.086 Y24.771 Z-0.400 I-1.965 J-3.161 K0.000 F30.000
G3 X51.655 Y24.102 Z-0.400 I0.698 J-0.923 K0.000 F30.000
G2 X51.425 Y23.588 Z-0.400 I-0.627 J-0.028 K0.000 F30.000
G2 X50.660 Y23.956 Z-0.400 I-0.275 J0.406 K0.000 F30.000
G2 X51.348 Y25.254 Z-0.400 I2.655 J-0.576 K0.000 F30.000
G2 X57.077 Y25.405 Z-0.400 I2.942 J-2.846 K0.000 F30.000
G3 X57.782 Y25.405 Z-0.400 I0.352 J0.491 K0.000 F30.000
G2 X63.259 Y25.465 Z-0.400 I2.771 J-2.940 K0.000 F30.000
G1 X63.259 Y25.465 Z-0.500 F10.000
G2 X64.025 Y24.531 Z-0.500 I-2.706 J-2.999 K0.000 F30.000
G2 X64.076 Y23.664 Z-0.500 I-0.541 J-0.467 K0.000 F30.000
G2 X63.187 Y24.136 Z-0.500 I-0.369 J0.378 K0.000 F30.000
G3 X62.484 Y25.002 Z-0.500 I-1.707 J-0.667 K0.000 F30.000
G3 X58.373 Y24.773 Z-0.500 I-1.882 J-3.231 K0.000 F30.000
G3 X57.914 Y23.903 Z-0.500 I0.681 J-0.914 K0.000 F30.000
G2 X56.914 Y24.103 Z-0.500 I-0.497 J0.115 K0.000 F30.000
G3 X56.280 Y24.951 Z-0.500 I-1.658 J-0.578 K0.000 F30.000
G3 X52.086 Y24.771 Z-0.500 I-1.965 J-3.161 K0.000 F30.000
G3 X51.655 Y24.102 Z-0.500 I0.698 J-0.923 K0.000 F30.000
G2 X51.425 Y23.588 Z-0.500 I-0.627 J-0.028 K0.000 F30.000
G2 X50.660 Y23.956 Z-0.500 I-0.275 J0.406 K0.000 F30.000
G2 X51.348 Y25.254 Z-0.500 I2.655 J-0.576 K0.000 F30.000
G2 X57.077 Y25.405 Z-0.500 I2.942 J-2.846 K0.000 F30.000
G3 X57.782 Y25.405 Z-0.500 I0.352 J0.491 K0.000 F30.000
G2 X63.259 Y25.465 Z-0.500 I2.771 J-2.940 K0.000 F30.000
G1 X63.259 Y25.465 Z-0.600 F10.000
G2 X64.025 Y24.531 Z-0.600 I-2.706 J-2.999 K0.000 F30.000
G2 X64.076 Y23.664 Z-0.600 I-0.541 J-0.467 K0.000 F30.000
G2 X63.187 Y24.136 Z-0.600 I-0.369 J0.378 K0.000 F30.000
G3 X62.484 Y25.002 Z-0.600 I-1.707 J-0.667 K0.000 F30.000
G3 X58.373 Y24.773 Z-0.600 I-1.882 J-3.231 K0.000 F30.000
G3 X57.914 Y23.903 Z-0.600 I0.681 J-0.914 K0.000 F30.000
G2 X56.914 Y24.103 Z-0.600 I-0.497 J0.115 K0.000 F30.000
G3 X56.280 Y24.951 Z-0.600 I-1.658 J-0.578 K0.000 F30.000
G3 X52.086 Y24.771 Z-0.600 I-1.965 J-3.161 K0.000 F30.000
G3 X51.655 Y24.102 Z-0.600 I0.698 J-0.923 K0.000 F30.000
G2 X51.425 Y23.588 Z-0.600 I-0.627 J-0.028 K0.000 F30.000
G2 X50.660 Y23.956 Z-0.600 I-0.275 J0.406 K0.000 F30.000
G2 X51.348 Y25.254 Z-0.600 I2.655 J-0.576 K0.000 F30.000
G2 X57.077 Y25.405 Z-0.600 I2.942 J-2.846 K0.000 F30.000
G3 X57.782 Y25.405 Z-0.600 I0.352 J0.491 K0.000 F30.000
G2 X63.259 Y25.465 Z-0.600 I2.771 J-2.940 K0.000 F30.000
G1 X63.259 Y25.465 Z-0.700 F10.000
G2 X64.025 Y24.531 Z-0.700 I-2.706 J-2.999 K0.000 F30.000
G2 X64.076 Y23.664 Z-0.700 I-0.541 J-0.467 K0.000 F30.000
G2 X63.187 Y24.136 Z-0.700 I-0.369 J0.378 K0.000 F30.000
G3 X62.484 Y25.002 Z-0.700 I-1.707 J-0.667 K0.000 F30.000
G3 X58.373 Y24.773 Z-0.700 I-1.882 J-3.231 K0.000 F30.000
G3 X57.914 Y23.903 Z-0.700 I0.681 J-0.914 K0.000 F30.000
G2 X56.914 Y24.103 Z-0.700 I-0.497 J0.115 K0.000 F30.000
G3 X56.280 Y24.951 Z-0.700 I-1.658 J-0.578 K0.000 F30.000
G3 X52.086 Y24.771 Z-0.700 I-1.965 J-3.161 K0.000 F30.000
G3 X51.655 Y24.102 Z-0.700 I0.698 J-0.923 K0.000 F30.000
G2 X51.425 Y23.588 Z-0.700 I-0.627 J-0.028 K0.000 F30.000
G2 X50.660 Y23.956 Z-0.700 I-0.275 J0.406 K0.000 F30.000
G2 X51.348 Y25.254 Z-0.700 I2.655 J-0.576 K0.000 F30.000
G2 X57.077 Y25.405 Z-0.700 I2.942 J-2.846 K0.000 F30.000
G3 X57.782 Y25.405 Z-0.700 I0.352 J0.491 K0.000 F30.000
G2 X63.259 Y25.465 Z-0.700 I2.771 J-2.940 K0.000 F30.000
G1 X63.259 Y25.465 Z-0.800 F10.000
G2 X64.025 Y24.531 Z-0.800 I-2.706 J-2.999 K0.000 F30.000
G2 X64.076 Y23.664 Z-0.800 I-0.541 J-0.467 K0.000 F30.000
G2 X63.187 Y24.136 Z-0.800 I-0.369 J0.378 K0.000 F30.000
G3 X62.484 Y25.002 Z-0.800 I-1.707 J-0.667 K0.000 F30.000
G3 X58.373 Y24.773 Z-0.800 I-1.882 J-3.231 K0.000 F30.000
G3 X57.914 Y23.903 Z-0.800 I0.681 J-0.914 K0.000 F30.000
G2 X56.914 Y24.103 Z-0.800 I-0.497 J0.115 K0.000 F30.000
G3 X56.280 Y24.951 Z-0.800 I-1.658 J-0.578 K0.000 F30.000
G3 X52.086 Y24.771 Z-0.800 I-1.965 J-3.161 K0.000 F30.000
G3 X51.655 Y24.102 Z-0.800 I0.698 J-0.923 K0.000 F30.000
G2 X51.425 Y23.588 Z-0.800 I-0.627 J-0.028 K0.000 F30.000
G2 X50.660 Y23.956 Z-0.800 I-0.275 J0.406 K0.000 F30.000
G2 X51.348 Y25.254 Z-0.800 I2.655 J-0.576 K0.000 F30.000
G2 X57.077 Y25.405 Z-0.800 I2.942 J-2.846 K0.000 F30.000
G3 X57.782 Y25.405 Z-0.800 I0.352 J0.491 K0.000 F30.000
G2 X63.259 Y25.465 Z-0.800 I2.771 J-2.940 K0.000 F30.000
G1 X63.259 Y25.465 Z-0.900 F10.000
G2 X64.025 Y24.531 Z-0.900 I-2.706 J-2.999 K0.000 F30.000
G2 X64.076 Y23.664 Z-0.900 I-0.541 J-0.467 K0.000 F30.000
G2 X63.187 Y24.136 Z-0.900 I-0.369 J0.378 K0.000 F30.000
G3 X62.484 Y25.002 Z-0.900 I-1.707 J-0.667 K0.000 F30.000
G3 X58.373 Y24.773 Z-0.900 I-1.882 J-3.231 K0.000 F30.000
G3 X57.914 Y23.903 Z-0.900 I0.681 J-0.914 K0.000 F30.000
G2 X56.914 Y24.103 Z-0.900 I-0.497 J0.115 K0.000 F30.000
G3 X56.280 Y24.951 Z-0.900 I-1.658 J-0.578 K0.000 F30.000
G3 X52.086 Y24.771 Z-0.900 I-1.965 J-3.161 K0.000 F30.000
G3 X51.655 Y24.102 Z-0.900 I0.698 J-0.923 K0.000 F30.000
G2 X51.425 Y23.588 Z-0.900 I-0.627 J-0.028 K0.000 F30.000
G2 X50.660 Y23.956 Z-0.900 I-0.275 J0.406 K0.000 F30.000
G2 X51.348 Y25.254 Z-0.900 I2.655 J-0.576 K0.000 F30.000
G2 X57.077 Y25.405 Z-0.900 I2.942 J-2.846 K0.000 F30.000
G3 X57.782 Y25.405 Z-0.900 I0.352 J0.491 K0.000 F30.000
G2 X63.259 Y25.465 Z-0.900 I2.771 J-2.940 K0.000 F30.000
G1 X63.259 Y25.465 Z-1.000 F10.000
G2 X64.025 Y24.531 Z-1.000 I-2.706 J-2.999 K0.000 F30.000
G2 X64.076 Y23.664 Z-1.000 I-0.541 J-0.467 K0.000 F30.000
G2 X63.187 Y24.136 Z-1.000 I-0.369 J0.378 K0.000 F30.000
G3 X62.484 Y25.002 Z-1.000 I-1.707 J-0.667 K0.000 F30.000
G3 X58.373 Y24.773 Z-1.000 I-1.882 J-3.231 K0.000 F30.000
G3 X57.914 Y23.903 Z-1.000 I0.681 J-0.914 K0.000 F30.000
G2 X56.914 Y24.103 Z-1.000 I-0.497 J0.115 K0.000 F30.000
G3 X56.280 Y24.951 Z-1.000 I-1.658 J-0.578 K0.000 F30.000
G3 X52.086 Y24.771 Z-1.000 I-1.965 J-3.161 K0.000 F30.000
G3 X51.655 Y24.102 Z-1.000 I0.698 J-0.923 K0.000 F30.000
G2 X51.425 Y23.588 Z-1.000 I-0.627 J-0.028 K0.000 F30.000
G2 X50.660 Y23.956 Z-1.000 I-0.275 J0.406 K0.000 F30.000
G2 X51.348 Y25.254 Z-1.000 I2.655 J-0.576 K0.000 F30.000
G2 X57.077 Y25.405 Z-1.000 I2.942 J-2.846 K0.000 F30.000
G3 X57.782 Y25.405 Z-1.000 I0.352 J0.491 K0.000 F30.000
G2 X63.259 Y25.465 Z-1.000 I2.771 J-2.940 K0.000 F30.000
G1 X63.259 Y25.465 Z-1.100 F10.000
G2 X64.025 Y24.531 Z-1.100 I-2.706 J-2.999 K0.000 F30.000
G2 X64.076 Y23.664 Z-1.100 I-0.541 J-0.467 K0.000 F30.000
G2 X63.187 Y24.136 Z-1.100 I-0.369 J0.378 K0.000 F30.000
G3 X62.484 Y25.002 Z-1.100 I-1.707 J-0.667 K0.000 F30.000
G3 X58.373 Y24.773 Z-1.100 I-1.882 J-3.231 K0.000 F30.000
G3 X57.914 Y23.903 Z-1.100 I0.681 J-0.914 K0.000 F30.000
G2 X56.914 Y24.103 Z-1.100 I-0.497 J0.115 K0.000 F30.000
G3 X56.280 Y24.951 Z-1.100 I-1.658 J-0.578 K0.000 F30.000
G3 X52.086 Y24.771 Z-1.100 I-1.965 J-3.161 K0.000 F30.000
G3 X51.655 Y24.102 Z-1.100 I0.698 J-0.923 K0.000 F30.000
G2 X51.425 Y23.588 Z-1.100 I-0.627 J-0.028 K0.000 F30.000
G2 X50.660 Y23.956 Z-1.100 I-0.275 J0.406 K0.000 F30.000
G2 X51.348 Y25.254 Z-1.100 I2.655 J-0.576 K0.000 F30.000
G2 X57.077 Y25.405 Z-1.100 I2.942 J-2.846 K0.000 F30.000
G3 X57.782 Y25.405 Z-1.100 I0.352 J0.491 K0.000 F30.000
G2 X63.259 Y25.465 Z-1.100 I2.771 J-2.940 K0.000 F30.000
G1 X63.259 Y25.465 Z-1.200 F10.000
G2 X64.025 Y24.531 Z-1.200 I-2.706 J-2.999 K0.000 F30.000
G2 X64.076 Y23.664 Z-1.200 I-0.541 J-0.467 K0.000 F30.000
G2 X63.187 Y24.136 Z-1.200 I-0.369 J0.378 K0.000 F30.000
G3 X62.484 Y25.002 Z-1.200 I-1.707 J-0.667 K0.000 F30.000
G3 X58.373 Y24.773 Z-1.200 I-1.882 J-3.231 K0.000 F30.000
G3 X57.914 Y23.903 Z-1.200 I0.681 J-0.914 K0.000 F30.000
G2 X56.914 Y24.103 Z-1.200 I-0.497 J0.115 K0.000 F30.000
G3 X56.280 Y24.951 Z-1.200 I-1.658 J-0.578 K0.000 F30.000
G3 X52.086 Y24.771 Z-1.200 I-1.965 J-3.161 K0.000 F30.000
G3 X51.655 Y24.102 Z-1.200 I0.698 J-0.923 K0.000 F30.000
G2 X51.425 Y23.588 Z-1.200 I-0.627 J-0.028 K0.000 F30.000
G2 X50.660 Y23.956 Z-1.200 I-0.275 J0.406 K0.000 F30.000
G2 X51.348 Y25.254 Z-1.200 I2.655 J-0.576 K0.000 F30.000
G2 X57.077 Y25.405 Z-1.200 I2.942 J-2.846 K0.000 F30.000
G3 X57.782 Y25.405 Z-1.200 I0.352 J0.491 K0.000 F30.000
G2 X63.259 Y25.465 Z-1.200 I2.771 J-2.940 K0.000 F30.000
G1 X63.259 Y25.465 Z-1.300 F10.000
G2 X64.025 Y24.531 Z-1.300 I-2.706 J-2.999 K0.000 F30.000
G2 X64.076 Y23.664 Z-1.300 I-0.541 J-0.467 K0.000 F30.000
G2 X63.187 Y24.136 Z-1.300 I-0.369 J0.378 K0.000 F30.000
G3 X62.484 Y25.002 Z-1.300 I-1.707 J-0.667 K0.000 F30.000
G3 X58.373 Y24.773 Z-1.300 I-1.882 J-3.231 K0.000 F30.000
G3 X57.914 Y23.903 Z-1.300 I0.681 J-0.914 K0.000 F30.000
G2 X56.914 Y24.103 Z-1.300 I-0.497 J0.115 K0.000 F30.000
G3 X56.280 Y24.951 Z-1.300 I-1.658 J-0.578 K0.000 F30.000
G3 X52.086 Y24.771 Z-1.300 I-1.965 J-3.161 K0.000 F30.000
G3 X51.655 Y24.102 Z-1.300 I0.698 J-0.923 K0.000 F30.000
G2 X51.425 Y23.588 Z-1.300 I-0.627 J-0.028 K0.000 F30.000
G2 X50.660 Y23.956 Z-1.300 I-0.275 J0.406 K0.000 F30.000
G2 X51.348 Y25.254 Z-1.300 I2.655 J-0.576 K0.000 F30.000
G2 X57.077 Y25.405 Z-1.300 I2.942 J-2.846 K0.000 F30.000
G3 X57.782 Y25.405 Z-1.300 I0.352 J0.491 K0.000 F30.000
G2 X63.259 Y25.465 Z-1.300 I2.771 J-2.940 K0.000 F30.000
G1 X63.259 Y25.465 Z-1.400 F10.000
G2 X64.025 Y24.531 Z-1.400 I-2.706 J-2.999 K0.000 F30.000
G2 X64.076 Y23.664 Z-1.400 I-0.541 J-0.467 K0.000 F30.000
G2 X63.187 Y24.136 Z-1.400 I-0.369 J0.378 K0.000 F30.000
G3 X62.484 Y25.002 Z-1.400 I-1.707 J-0.667 K0.000 F30.000
G3 X58.373 Y24.773 Z-1.400 I-1.882 J-3.231 K0.000 F30.000
G3 X57.914 Y23.903 Z-1.400 I0.681 J-0.914 K0.000 F30.000
G2 X56.914 Y24.103 Z-1.400 I-0.497 J0.115 K0.000 F30.000
G3 X56.280 Y24.951 Z-1.400 I-1.658 J-0.578 K0.000 F30.000
G3 X52.086 Y24.771 Z-1.400 I-1.965 J-3.161 K0.000 F30.000
G3 X51.655 Y24.102 Z-1.400 I0.698 J-0.923 K0.000 F30.000
G2 X51.425 Y23.588 Z-1.400 I-0.627 J-0.028 K0.000 F30.000
G2 X50.660 Y23.956 Z-1.400 I-0.275 J0.406 K0.000 F30.000
G2 X51.348 Y25.254 Z-1.400 I2.655 J-0.576 K0.000 F30.000
G2 X57.077 Y25.405 Z-1.400 I2.942 J-2.846 K0.000 F30.000
G3 X57.782 Y25.405 Z-1.400 I0.352 J0.491 K0.000 F30.000
G2 X63.259 Y25.465 Z-1.400 I2.771 J-2.940 K0.000 F30.000
G1 X63.259 Y25.465 Z-1.500 F10.000
G2 X64.025 Y24.531 Z-1.500 I-2.706 J-2.999 K0.000 F30.000
G2 X64.076 Y23.664 Z-1.500 I-0.541 J-0.467 K0.000 F30.000
G2 X63.187 Y24.136 Z-1.500 I-0.369 J0.378 K0.000 F30.000
G3 X62.484 Y25.002 Z-1.500 I-1.707 J-0.667 K0.000 F30.000
G3 X58.373 Y24.773 Z-1.500 I-1.882 J-3.231 K0.000 F30.000
G3 X57.914 Y23.903 Z-1.500 I0.681 J-0.914 K0.000 F30.000
G2 X56.914 Y24.103 Z-1.500 I-0.497 J0.115 K0.000 F30.000
G3 X56.280 Y24.951 Z-1.500 I-1.658 J-0.578 K0.000 F30.000
G3 X52.086 Y24.771 Z-1.500 I-1.965 J-3.161 K0.000 F30.000
G3 X51.655 Y24.102 Z-1.500 I0.698 J-0.923 K0.000 F30.000
G2 X51.425 Y23.588 Z-1.500 I-0.627 J-0.028 K0.000 F30.000
G2 X50.660 Y23.956 Z-1.500 I-0.275 J0.406 K0.000 F30.000
G2 X51.348 Y25.254 Z-1.500 I2.655 J-0.576 K0.000 F30.000
G2 X57.077 Y25.405 Z-1.500 I2.942 J-2.846 K0.000 F30.000
G3 X57.782 Y25.405 Z-1.500 I0.352 J0.491 K0.000 F30.000
G2 X63.259 Y25.465 Z-1.500 I2.771 J-2.940 K0.000 F30.000
G1 X63.259 Y25.465 Z-1.600 F10.000
G2 X64.025 Y24.531 Z-1.600 I-2.706 J-2.999 K0.000 F30.000
G2 X64.076 Y23.664 Z-1.600 I-0.541 J-0.467 K0.000 F30.000
G2 X63.187 Y24.136 Z-1.600 I-0.369 J0.378 K0.000 F30.000
G3 X62.484 Y25.002 Z-1.600 I-1.707 J-0.667 K0.000 F30.000
G3 X58.373 Y24.773 Z-1.600 I-1.882 J-3.231 K0.000 F30.000
G3 X57.914 Y23.903 Z-1.600 I0.681 J-0.914 K0.000 F30.000
G2 X56.914 Y24.103 Z-1.600 I-0.497 J0.115 K0.000 F30.000
G3 X56.280 Y24.951 Z-1.600 I-1.658 J-0.578 K0.000 F30.000
G3 X52.086 Y24.771 Z-1.600 I-1.965 J-3.161 K0.000 F30.000
G3 X51.655 Y24.102 Z-1.600 I0.698 J-0.923 K0.000 F30.000
G2 X51.425 Y23.588 Z-1.600 I-0.627 J-0.028 K0.000 F30.000
G2 X50.660 Y23.956 Z-1.600 I-0.275 J0.406 K0.000 F30.000
G2 X51.348 Y25.254 Z-1.600 I2.655 J-0.576 K0.000 F30.000
G2 X57.077 Y25.405 Z-1.600 I2.942 J-2.846 K0.000 F30.000
G3 X57.782 Y25.405 Z-1.600 I0.352 J0.491 K0.000 F30.000
G2 X63.259 Y25.465 Z-1.600 I2.771 J-2.940 K0.000 F30.000
G1 X63.259 Y25.465 Z-1.700 F10.000
G2 X64.025 Y24.531 Z-1.700 I-2.706 J-2.999 K0.000 F30.000
G2 X64.076 Y23.664 Z-1.700 I-0.541 J-0.467 K0.000 F30.000
G2 X63.187 Y24.136 Z-1.700 I-0.369 J0.378 K0.000 F30.000
G3 X62.484 Y25.002 Z-1.700 I-1.707 J-0.667 K0.000 F30.000
G3 X58.373 Y24.773 Z-1.700 I-1.882 J-3.231 K0.000 F30.000
G3 X57.914 Y23.903 Z-1.700 I0.681 J-0.914 K0.000 F30.000
G2 X56.914 Y24.103 Z-1.700 I-0.497 J0.115 K0.000 F30.000
G3 X56.280 Y24.951 Z-1.700 I-1.658 J-0.578 K0.000 F30.000
G3 X52.086 Y24.771 Z-1.700 I-1.965 J-3.161 K0.000 F30.000
G3 X51.655 Y24.102 Z-1.700 I0.698 J-0.923 K0.000 F30.000
G2 X51.425 Y23.588 Z-1.700 I-0.627 J-0.028 K0.000 F30.000
G2 X50.660 Y23.956 Z-1.700 I-0.275 J0.406 K0.000 F30.000
G2 X51.348 Y25.254 Z-1.700 I2.655 J-0.576 K0.000 F30.000
G2 X57.077 Y25.405 Z-1.700 I2.942 J-2.846 K0.000 F30.000
G3 X57.782 Y25.405 Z-1.700 I0.352 J0.491 K0.000 F30.000
G2 X63.259 Y25.465 Z-1.700 I2.771 J-2.940 K0.000 F30.000
G1 X63.259 Y25.465 Z-1.800 F10.000
G2 X64.025 Y24.531 Z-1.800 I-2.706 J-2.999 K0.000 F30.000
G2 X64.076 Y23.664 Z-1.800 I-0.541 J-0.467 K0.000 F30.000
G2 X63.187 Y24.136 Z-1.800 I-0.369 J0.378 K0.000 F30.000
G3 X62.484 Y25.002 Z-1.800 I-1.707 J-0.667 K0.000 F30.000
G3 X58.373 Y24.773 Z-1.800 I-1.882 J-3.231 K0.000 F30.000
G3 X57.914 Y23.903 Z-1.800 I0.681 J-0.914 K0.000 F30.000
G2 X56.914 Y24.103 Z-1.800 I-0.497 J0.115 K0.000 F30.000
G3 X56.280 Y24.951 Z-1.800 I-1.658 J-0.578 K0.000 F30.000
G3 X52.086 Y24.771 Z-1.800 I-1.965 J-3.161 K0.000 F30.000
G3 X51.655 Y24.102 Z-1.800 I0.698 J-0.923 K0.000 F30.000
G2 X51.425 Y23.588 Z-1.800 I-0.627 J-0.028 K0.000 F30.000
G2 X50.660 Y23.956 Z-1.800 I-0.275 J0.406 K0.000 F30.000
G2 X51.348 Y25.254 Z-1.800 I2.655 J-0.576 K0.000 F30.000
G2 X57.077 Y25.405 Z-1.800 I2.942 J-2.846 K0.000 F30.000
G3 X57.782 Y25.405 Z-1.800 I0.352 J0.491 K0.000 F30.000
G2 X63.259 Y25.465 Z-1.800 I2.771 J-2.940 K0.000 F30.000
G1 X63.259 Y25.465 Z-1.900 F10.000
G2 X64.025 Y24.531 Z-1.900 I-2.706 J-2.999 K0.000 F30.000
G2 X64.076 Y23.664 Z-1.900 I-0.541 J-0.467 K0.000 F30.000
G2 X63.187 Y24.136 Z-1.900 I-0.369 J0.378 K0.000 F30.000
G3 X62.484 Y25.002 Z-1.900 I-1.707 J-0.667 K0.000 F30.000
G3 X58.373 Y24.773 Z-1.900 I-1.882 J-3.231 K0.000 F30.000
G3 X57.914 Y23.903 Z-1.900 I0.681 J-0.914 K0.000 F30.000
G2 X56.914 Y24.103 Z-1.900 I-0.497 J0.115 K0.000 F30.000
G3 X56.280 Y24.951 Z-1.900 I-1.658 J-0.578 K0.000 F30.000
G3 X52.086 Y24.771 Z-1.900 I-1.965 J-3.161 K0.000 F30.000
G3 X51.655 Y24.102 Z-1.900 I0.698 J-0.923 K0.000 F30.000
G2 X51.425 Y23.588 Z-1.900 I-0.627 J-0.028 K0.000 F30.000
G2 X50.660 Y23.956 Z-1.900 I-0.275 J0.406 K0.000 F30.000
G2 X51.348 Y25.254 Z-1.900 I2.655 J-0.576 K0.000 F30.000
G2 X57.077 Y25.405 Z-1.900 I2.942 J-2.846 K0.000 F30.000
G3 X57.782 Y25.405 Z-1.900 I0.352 J0.491 K0.000 F30.000
G2 X63.259 Y25.465 Z-1.900 I2.771 J-2.940 K0.000 F30.000
G1 X63.259 Y25.465 Z-2.000 F10.000
G2 X64.025 Y24.531 Z-2.000 I-2.706 J-2.999 K0.000 F30.000
G2 X64.076 Y23.664 Z-2.000 I-0.541 J-0.467 K0.000 F30.000
G2 X63.187 Y24.136 Z-2.000 I-0.369 J0.378 K0.000 F30.000
G3 X62.484 Y25.002 Z-2.000 I-1.707 J-0.667 K0.000 F30.000
G3 X58.373 Y24.773 Z-2.000 I-1.882 J-3.231 K0.000 F30.000
G3 X57.914 Y23.903 Z-2.000 I0.681 J-0.914 K0.000 F30.000
G2 X56.914 Y24.103 Z-2.000 I-0.497 J0.115 K0.000 F30.000
G3 X56.280 Y24.951 Z-2.000 I-1.658 J-0.578 K0.000 F30.000
G3 X52.086 Y24.771 Z-2.000 I-1.965 J-3.161 K0.000 F30.000
G3 X51.655 Y24.102 Z-2.000 I0.698 J-0.923 K0.000 F30.000
G2 X51.425 Y23.588 Z-2.000 I-0.627 J-0.028 K0.000 F30.000
G2 X50.660 Y23.956 Z-2.000 I-0.275 J0.406 K0.000 F30.000
G2 X51.348 Y25.254 Z-2.000 I2.655 J-0.576 K0.000 F30.000
G2 X57.077 Y25.405 Z-2.000 I2.942 J-2.846 K0.000 F30.000
G3 X57.782 Y25.405 Z-2.000 I0.352 J0.491 K0.000 F30.000
G2 X63.259 Y25.465 Z-2.000 I2.771 J-2.940 K0.000 F30.000
G1 X63.259 Y25.465 Z-2.100 F10.000
G2 X64.025 Y24.531 Z-2.100 I-2.706 J-2.999 K0.000 F30.000
G2 X64.076 Y23.664 Z-2.100 I-0.541 J-0.467 K0.000 F30.000
G2 X63.187 Y24.136 Z-2.100 I-0.369 J0.378 K0.000 F30.000
G3 X62.484 Y25.002 Z-2.100 I-1.707 J-0.667 K0.000 F30.000
G3 X58.373 Y24.773 Z-2.100 I-1.882 J-3.231 K0.000 F30.000
G3 X57.914 Y23.903 Z-2.100 I0.681 J-0.914 K0.000 F30.000
G2 X56.914 Y24.103 Z-2.100 I-0.497 J0.115 K0.000 F30.000
G3 X56.280 Y24.951 Z-2.100 I-1.658 J-0.578 K0.000 F30.000
G3 X52.086 Y24.771 Z-2.100 I-1.965 J-3.161 K0.000 F30.000
G3 X51.655 Y24.102 Z-2.100 I0.698 J-0.923 K0.000 F30.000
G2 X51.425 Y23.588 Z-2.100 I-0.627 J-0.028 K0.000 F30.000
G2 X50.660 Y23.956 Z-2.100 I-0.275 J0.406 K0.000 F30.000
G2 X51.348 Y25.254 Z-2.100 I2.655 J-0.576 K0.000 F30.000
G2 X57.077 Y25.405 Z-2.100 I2.942 J-2.846 K0.000 F30.000
G3 X57.782 Y25.405 Z-2.100 I0.352 J0.491 K0.000 F30.000
G2 X63.259 Y25.465 Z-2.100 I2.771 J-2.940 K0.000 F30.000
G1 X63.259 Y25.465 Z-2.200 F10.000
G2 X64.025 Y24.531 Z-2.200 I-2.706 J-2.999 K0.000 F30.000
G2 X64.076 Y23.664 Z-2.200 I-0.541 J-0.467 K0.000 F30.000
G2 X63.187 Y24.136 Z-2.200 I-0.369 J0.378 K0.000 F30.000
G3 X62.484 Y25.002 Z-2.200 I-1.707 J-0.667 K0.000 F30.000
G3 X58.373 Y24.773 Z-2.200 I-1.882 J-3.231 K0.000 F30.000
G3 X57.914 Y23.903 Z-2.200 I0.681 J-0.914 K0.000 F30.000
G2 X56.914 Y24.103 Z-2.200 I-0.497 J0.115 K0.000 F30.000
G3 X56.280 Y24.951 Z-2.200 I-1.658 J-0.578 K0.000 F30.000
G3 X52.086 Y24.771 Z-2.200 I-1.965 J-3.161 K0.000 F30.000
G3 X51.655 Y24.102 Z-2.200 I0.698 J-0.923 K0.000 F30.000
G2 X51.425 Y23.588 Z-2.200 I-0.627 J-0.028 K0.000 F30.000
G2 X50.660 Y23.956 Z-2.200 I-0.275 J0.406 K0.000 F30.000
G2 X51.348 Y25.254 Z-2.200 I2.655 J-0.576 K0.000 F30.000
G2 X57.077 Y25.405 Z-2.200 I2.942 J-2.846 K0.000 F30.000
G3 X57.782 Y25.405 Z-2.200 I0.352 J0.491 K0.000 F30.000
G2 X63.259 Y25.465 Z-2.200 I2.771 J-2.940 K0.000 F30.000
G0 Z5.000
G0 Z5.000
(Finish operation: Profile004)
(Begin operation: Profile005)
(Path: Profile005)
(Profile005)
(Compensated Tool Path. Diameter: 1.0)
G0 Z5.000
G0 X-0.500 Y0.000
G0 Y0.000
G0 Y0.000 Z3.000
G1 X-0.500 Y0.000 Z-0.100 F10.000
G1 X-0.500 Y30.000 Z-0.100 F30.000
G0 Z5.000
G0 X-0.500 Y0.000
G0 Y0.000
G0 Y0.000 Z3.000
G1 X-0.500 Y0.000 Z-0.200 F10.000
G1 X-0.500 Y30.000 Z-0.200 F30.000
G0 Z5.000
G0 X-0.500 Y0.000
G0 Y0.000
G0 Y0.000 Z3.000
G1 X-0.500 Y0.000 Z-0.300 F10.000
G1 X-0.500 Y30.000 Z-0.300 F30.000
G0 Z5.000
G0 X-0.500 Y0.000
G0 Y0.000
G0 Y0.000 Z3.000
G1 X-0.500 Y0.000 Z-0.400 F10.000
G1 X-0.500 Y30.000 Z-0.400 F30.000
G0 Z5.000
G0 X-0.500 Y0.000
G0 Y0.000
G0 Y0.000 Z3.000
G1 X-0.500 Y0.000 Z-0.500 F10.000
G1 X-0.500 Y30.000 Z-0.500 F30.000
G0 Z5.000
G0 Z5.000
G0 X-0.500 Y30.000
G0 X98.500
G0 X98.500 Z3.000
G1 X98.500 Y30.000 Z-0.100 F10.000
G1 X98.500 Y0.000 Z-0.100 F30.000
G0 Z5.000
G0 X-0.500 Y30.000
G0 X98.500
G0 X98.500 Z3.000
G1 X98.500 Y30.000 Z-0.200 F10.000
G1 X98.500 Y0.000 Z-0.200 F30.000
G0 Z5.000
G0 X-0.500 Y30.000
G0 X98.500
G0 X98.500 Z3.000
G1 X98.500 Y30.000 Z-0.300 F10.000
G1 X98.500 Y0.000 Z-0.300 F30.000
G0 Z5.000
G0 X-0.500 Y30.000
G0 X98.500
G0 X98.500 Z3.000
G1 X98.500 Y30.000 Z-0.400 F10.000
G1 X98.500 Y0.000 Z-0.400 F30.000
G0 Z5.000
G0 X-0.500 Y30.000
G0 X98.500
G0 X98.500 Z3.000
G1 X98.500 Y30.000 Z-0.500 F10.000
G1 X98.500 Y0.000 Z-0.500 F30.000
G0 Z5.000
G0 Z5.000
(Finish operation: Profile005)
(Begin postamble)
M5
G17 G90
M2
